ndolphin-github/DIGIT_contact_simulation/RealRobotData/Cylinder_trial1.csv
timestamp,joint_pos_0,joint_pos_1,joint_pos_2,joint_pos_3,joint_pos_4,joint_pos_5,joint_pos_6,joint_vel_0,joint_vel_1,joint_vel_2,joint_vel_3,joint_vel_4,joint_vel_5,joint_vel_6,ft_fx,ft_fy,ft_fz
2025-09-12T21:26:38.980094,0.109540939,-1.716816088,1.649256055,-1.80959477,-1.604075734,0.187294483,0,0.109540939,-1.716816088,1.649256055,-1.80959477,-1.604075734,0.187294483,0,-1.0994,-2.0906,-0.259
2025-09-12T21:26:39.012191,0.109707832,-1.71382918,1.645834271,-1.809426924,-1.604171101,0.187246323,0,0.109707832,-1.71382918,1.645834271,-1.809426924,-1.604171101,0.187246323,0,-1.1194,-1.9506,-0.359
2025-09-12T21:26:39.044208,0.109974384,-1.71127667,1.643055264,-1.809271475,-1.604290311,0.187112331,0,0.109974384,-1.71127667,1.643055264,-1.809271475,-1.604290311,0.187112331,0,-1.0794,-1.7706,-0.139
2025-09-12T21:26:39.076232,0.110505104,-1.708791872,1.640093152,-1.808955809,-1.604361836,0.186956882,0,0.110505104,-1.708791872,1.640093152,-1.808955809,-1.604361836,0.186956882,0,-1.0394,-1.8906,-0.399
2025-09-12T21:26:39.108286,0.111200333,-1.706116816,1.636999432,-1.808211466,-1.604349915,0.186789513,0,0.111200333,-1.706116816,1.636999432,-1.808211466,-1.604349915,0.186789513,0,-1.0794,-1.9106,-0.139
2025-09-12T21:26:39.140342,0.111966133,-1.70337834,1.633421246,-1.806387087,-1.604421918,0.186610222,0,0.111966133,-1.70337834,1.633421246,-1.806387087,-1.604421918,0.186610222,0,-1.0394,-2.0506,-0.279
2025-09-12T21:26:39.172337,0.112742424,-1.700208803,1.628855054,-1.803037783,-1.604433839,0.186479092,0,0.112742424,-1.700208803,1.628855054,-1.803037783,-1.604433839,0.186479092,0,-1.1794,-1.7706,-0.119
2025-09-12T21:26:39.204325,0.113375187,-1.696881434,1.624166791,-1.798117777,-1.60461599,0.18633604,0,0.113375187,-1.696881434,1.624166791,-1.798117777,-1.60461599,0.18633604,0,-0.9994,-1.8106,-0.439
2025-09-12T21:26:39.236321,0.113945961,-1.692279955,1.617903058,-1.790180346,-1.604819123,0.186180115,0,0.113945961,-1.692279955,1.617903058,-1.790180346,-1.604819123,0.186180115,0,-1.2194,-2.1706,-0.259
2025-09-12T21:26:39.268281,0.114243984,-1.688281675,1.612587277,-1.783291956,-1.604974572,0.186108589,0,0.114243984,-1.688281675,1.612587277,-1.783291956,-1.604974572,0.186108589,0,-1.0594,-1.9506,-0.139
2025-09-12T21:26:39.300372,0.114456654,-1.683068415,1.605982129,-1.775592466,-1.605154339,0.186000824,0,0.114456654,-1.683068415,1.605982129,-1.775592466,-1.605154339,0.186000824,0,-1.1394,-1.8106,-0.519
2025-09-12T21:26:39.332377,0.114541054,-1.677703997,1.59960777,-1.768701216,-1.605322186,0.185894012,0,0.114541054,-1.677703997,1.59960777,-1.768701216,-1.605322186,0.185894012,0,-1.0794,-1.6506,-0.279
2025-09-12T21:26:39.380361,0.114806175,-1.672045847,1.593170468,-1.762009283,-1.605428044,0.185808659,0,0.114806175,-1.672045847,1.593170468,-1.762009283,-1.605428044,0.185808659,0,-1.0394,-1.5706,-0.339
2025-09-12T21:26:39.412426,0.115129948,-1.665911337,1.587024991,-1.755771776,-1.605451409,0.185581684,0,0.115129948,-1.665911337,1.587024991,-1.755771776,-1.605451409,0.185581684,0,-1.0794,-1.7306,-0.139
2025-09-12T21:26:39.444427,0.115427017,-1.661107679,1.582554166,-1.751467844,-1.605476205,0.185546875,0,0.115427017,-1.661107679,1.582554166,-1.751467844,-1.605476205,0.185546875,0,-0.9994,-1.5106,0.001
2025-09-12T21:26:39.476432,0.115555763,-1.656546255,1.578813855,-1.748083731,-1.605500523,0.185511112,0,0.115555763,-1.656546255,1.578813855,-1.748083731,-1.605500523,0.185511112,0,-0.7994,-1.2306,-0.219
2025-09-12T21:26:39.508506,0.115543365,-1.652418276,1.575638119,-1.745400568,-1.60558397,0.185342312,0,0.115543365,-1.652418276,1.575638119,-1.745400568,-1.60558397,0.185342312,0,-0.8194,-1.0706,-0.359
2025-09-12T21:26:39.540524,0.115579605,-1.648519655,1.572895352,-1.743114611,-1.605656926,0.185284615,0,0.115579605,-1.648519655,1.572895352,-1.743114611,-1.605656926,0.185284615,0,-0.7194,-1.4306,-0.019
2025-09-12T21:26:39.572555,0.115567207,-1.645389219,1.570703808,-1.7409965,-1.60587341,0.185297012,0,0.115567207,-1.645389219,1.570703808,-1.7409965,-1.60587341,0.185297012,0,-1.3394,-1.6306,-0.119
2025-09-12T21:26:39.604542,0.115555286,-1.642870089,1.569286648,-1.739780565,-1.605969254,0.185176373,0,0.115555286,-1.642870089,1.569286648,-1.739780565,-1.605969254,0.185176373,0,-1.0394,-1.3706,0.181
2025-09-12T21:26:39.636546,0.115555286,-1.64101853,1.568165127,-1.73847117,-1.606185261,0.185201168,0,0.115555286,-1.64101853,1.568165127,-1.73847117,-1.606185261,0.185201168,0,-1.0594,-1.5506,-0.259
2025-09-12T21:26:39.684590,0.115519047,-1.639444014,1.567404095,-1.737535139,-1.606400792,0.185201168,0,0.115519047,-1.639444014,1.567404095,-1.737535139,-1.606400792,0.185201168,0,-0.8994,-1.3106,0.001
2025-09-12T21:26:39.716624,0.115447044,-1.638481756,1.567077939,-1.737010618,-1.606640164,0.185225487,0,0.115447044,-1.638481756,1.567077939,-1.737010618,-1.606640164,0.185225487,0,-0.8594,-1.2906,-0.179
2025-09-12T21:26:39.748626,0.115458965,-1.638128897,1.567226712,-1.736590525,-1.606612031,0.185238361,0,0.115458965,-1.638128897,1.567226712,-1.736590525,-1.606612031,0.185238361,0,-0.8194,-1.3906,-0.139
2025-09-12T21:26:39.780625,0.115411282,-1.6381947,1.567682568,-1.736171385,-1.606418435,0.185286045,0,0.115411282,-1.6381947,1.567682568,-1.736171385,-1.606418435,0.185286045,0,-1.0794,-1.5106,-0.019
2025-09-12T21:26:39.812697,0.1153512,-1.638593336,1.568212811,-1.735837122,-1.606237713,0.18534565,0,0.1153512,-1.638593336,1.568212811,-1.735837122,-1.606237713,0.18534565,0,-1.0194,-1.4506,-0.239
2025-09-12T21:26:39.844796,0.115291119,-1.639109274,1.568992917,-1.735404154,-1.605962578,0.185517788,0,0.115291119,-1.639109274,1.568992917,-1.735404154,-1.605962578,0.185517788,0,-1.0594,-1.4706,-0.139
2025-09-12T21:26:39.876708,0.115243912,-1.639589449,1.569805447,-1.735021254,-1.60573322,0.185925484,0,0.115243912,-1.639589449,1.569805447,-1.735021254,-1.60573322,0.185925484,0,-1.0194,-1.4106,0.001
2025-09-12T21:26:39.908709,0.115280628,-1.640141626,1.570484463,-1.734649321,-1.605397526,0.186358929,0,0.115280628,-1.640141626,1.570484463,-1.734649321,-1.605397526,0.186358929,0,-0.8594,-1.4106,-0.079
2025-09-12T21:26:39.940708,0.115306377,-1.640838285,1.570801083,-1.734168669,-1.605038468,0.187141418,0,0.115306377,-1.640838285,1.570801083,-1.734168669,-1.605038468,0.187141418,0,-1.0194,-1.4306,0.081
2025-09-12T21:26:39.972739,0.115548134,-1.641644617,1.57068855,-1.733639856,-1.604691807,0.188051701,0,0.115548134,-1.641644617,1.57068855,-1.733639856,-1.604691807,0.188051701,0,-1.1994,-1.4706,0.021
2025-09-12T21:26:40.004735,0.115972519,-1.642629286,1.570276562,-1.733038088,-1.60441858,0.188776493,0,0.115972519,-1.642629286,1.570276562,-1.733038088,-1.60441858,0.188776493,0,-1.0194,-1.2906,-0.359
2025-09-12T21:26:40.052780,0.116900921,-1.643757483,1.569776837,-1.73204722,-1.604323689,0.189361572,0,0.116900921,-1.643757483,1.569776837,-1.73204722,-1.604323689,0.189361572,0,-1.1394,-1.1306,-0.279
2025-09-12T21:26:40.084807,0.118448257,-1.645219465,1.569483105,-1.730283876,-1.604251687,0.189945698,0,0.118448257,-1.645219465,1.569483105,-1.730283876,-1.604251687,0.189945698,0,-0.8994,-1.3706,-0.519
2025-09-12T21:26:40.116837,0.120107651,-1.646140238,1.569568936,-1.728462835,-1.604143922,0.190316677,0,0.120107651,-1.646140238,1.569568936,-1.728462835,-1.604143922,0.190316677,0,-1.2394,-0.9706,-0.399
2025-09-12T21:26:40.148858,0.122461796,-1.647072931,1.569713895,-1.725012442,-1.604133431,0.190747261,0,0.122461796,-1.647072931,1.569713895,-1.725012442,-1.604133431,0.190747261,0,-0.8994,-1.4506,-0.119
2025-09-12T21:26:40.180846,0.125141144,-1.647910734,1.569820706,-1.720882555,-1.604097668,0.191018105,0,0.125141144,-1.647910734,1.569820706,-1.720882555,-1.604097668,0.191018105,0,-0.9394,-1.3506,-0.319
2025-09-12T21:26:40.212864,0.127979755,-1.64849486,1.570001904,-1.716357847,-1.604084317,0.191028118,0,0.127979755,-1.64849486,1.570001904,-1.716357847,-1.604084317,0.191028118,0,-1.2194,-1.4106,-0.099
2025-09-12T21:26:40.260886,0.130784988,-1.649031302,1.570301358,-1.711966654,-1.603879754,0.19073391,0,0.130784988,-1.649031302,1.570301358,-1.711966654,-1.603879754,0.19073391,0,-0.8194,-1.8106,-0.339
2025-09-12T21:26:40.292933,0.133413315,-1.649170061,1.570637051,-1.707296511,-1.603735749,0.190096378,0,0.133413315,-1.649170061,1.570637051,-1.707296511,-1.603735749,0.190096378,0,-0.7994,-1.2106,-0.299
2025-09-12T21:26:40.324951,0.13505888,-1.649021765,1.570864026,-1.704435488,-1.603639905,0.189592838,0,0.13505888,-1.649021765,1.570864026,-1.704435488,-1.603639905,0.189592838,0,-0.7194,-1.4706,-0.319
2025-09-12T21:26:40.356965,0.136610508,-1.648574015,1.571102444,-1.701740404,-1.603397671,0.188838005,0,0.136610508,-1.648574015,1.571102444,-1.701740404,-1.603397671,0.188838005,0,-1.1594,-1.3706,-0.079
2025-09-12T21:26:40.389014,0.138056278,-1.64793696,1.571258847,-1.699179312,-1.602989499,0.18809557,0,0.138056278,-1.64793696,1.571258847,-1.699179312,-1.602989499,0.18809557,0,-1.0994,-1.8306,-0.039
2025-09-12T21:26:40.421325,0.139369488,-1.647069117,1.571377103,-1.697527071,-1.602558438,0.1873312,0,0.139369488,-1.647069117,1.571377103,-1.697527071,-1.602558438,0.1873312,0,-1.0994,-0.8706,-0.379
2025-09-12T21:26:40.453044,0.140646458,-1.645742079,1.571506802,-1.69567885,-1.602174107,0.186701298,0,0.140646458,-1.645742079,1.571506802,-1.69567885,-1.602174107,0.186701298,0,-0.7794,-1.8306,-0.279
2025-09-12T21:26:40.485046,0.141590595,-1.644129416,1.571518246,-1.69491448,-1.601852719,0.186332226,0,0.141590595,-1.644129416,1.571518246,-1.69491448,-1.601852719,0.186332226,0,-1.0594,-1.0706,-0.219
2025-09-12T21:26:40.517086,0.142495632,-1.641772409,1.571441952,-1.69411244,-1.601517502,0.185948849,0,0.142495632,-1.641772409,1.571441952,-1.69411244,-1.601517502,0.185948849,0,-0.9594,-1.4706,-0.319
2025-09-12T21:26:40.549078,0.143090248,-1.638850351,1.571115796,-1.693917891,-1.601266209,0.185566425,0,0.143090248,-1.638850351,1.571115796,-1.693917891,-1.601266209,0.185566425,0,-0.8594,-1.2106,-0.099
2025-09-12T21:26:40.581082,0.143470287,-1.635551115,1.570490185,-1.694068094,-1.601026837,0.185220242,0,0.143470287,-1.635551115,1.570490185,-1.694068094,-1.601026837,0.185220242,0,-0.9394,-1.3306,-0.099
2025-09-12T21:26:40.613097,0.143706799,-1.632113596,1.569601361,-1.694502016,-1.60081226,0.184967518,0,0.143706799,-1.632113596,1.569601361,-1.694502016,-1.60081226,0.184967518,0,-0.8994,-1.2306,-0.079
2025-09-12T21:26:40.645143,0.143753529,-1.629047533,1.568729703,-1.695140501,-1.600668255,0.18457365,0,0.143753529,-1.629047533,1.568729703,-1.695140501,-1.600668255,0.18457365,0,-0.8594,-1.0506,-0.179
2025-09-12T21:26:40.693169,0.143848896,-1.626140734,1.567955319,-1.6958734,-1.600451771,0.184239388,0,0.143848896,-1.626140734,1.567955319,-1.6958734,-1.600451771,0.184239388,0,-1.0394,-0.8706,0.021
2025-09-12T21:26:40.725223,0.143873215,-1.623513361,1.56752998,-1.696812769,-1.600091759,0.183916569,0,0.143873215,-1.623513361,1.56752998,-1.696812769,-1.600091759,0.183916569,0,-0.8594,-1.0306,-0.259
2025-09-12T21:26:40.757255,0.143932819,-1.621903559,1.567716901,-1.697795054,-1.599804703,0.183666706,0,0.143932819,-1.621903559,1.567716901,-1.697795054,-1.599804703,0.183666706,0,-0.8794,-0.9906,-0.079
2025-09-12T21:26:40.789262,0.144004822,-1.620895525,1.568382565,-1.698547026,-1.599601571,0.183708668,0,0.144004822,-1.620895525,1.568382565,-1.698547026,-1.599601571,0.183708668,0,-0.9594,-0.9306,-0.079
2025-09-12T21:26:40.821291,0.144175053,-1.620595118,1.56955177,-1.699134012,-1.599239651,0.184034348,0,0.144175053,-1.620595118,1.56955177,-1.699134012,-1.599239651,0.184034348,0,-1.0194,-0.9106,-0.179
2025-09-12T21:26:40.853291,0.144414425,-1.62085261,1.570953671,-1.699708601,-1.598745171,0.18435812,0,0.144414425,-1.62085261,1.570953671,-1.699708601,-1.598745171,0.18435812,0,-0.8794,-1.1906,-0.159
2025-09-12T21:26:40.885300,0.144641399,-1.621297499,1.572485272,-1.700308939,-1.597912614,0.184961319,0,0.144641399,-1.621297499,1.572485272,-1.700308939,-1.597912614,0.184961319,0,-1.1794,-1.1506,-0.219
2025-09-12T21:26:40.917349,0.144855499,-1.62172856,1.573873822,-1.701003214,-1.596530263,0.185653687,0,0.144855499,-1.62172856,1.573873822,-1.701003214,-1.596530263,0.185653687,0,-0.9594,-0.9706,-0.139
2025-09-12T21:26:40.949334,0.144986629,-1.622221609,1.575334851,-1.701394697,-1.595043008,0.186250687,0,0.144986629,-1.622221609,1.575334851,-1.701394697,-1.595043008,0.186250687,0,-0.9794,-1.1506,-0.099
2025-09-12T21:26:40.981355,0.14511776,-1.622736593,1.576769177,-1.701633593,-1.59383661,0.186542988,0,0.14511776,-1.622736593,1.576769177,-1.701633593,-1.59383661,0.186542988,0,-1.0794,-1.0706,-0.179
2025-09-12T21:26:41.013368,0.145201206,-1.623226305,1.578022305,-1.701824804,-1.592321698,0.186601162,0,0.145201206,-1.623226305,1.578022305,-1.701824804,-1.592321698,0.186601162,0,-1.0994,-1.1706,-0.179
2025-09-12T21:26:41.045428,0.145272732,-1.62354674,1.578878705,-1.701992174,-1.591058079,0.186515331,0,0.145272732,-1.62354674,1.578878705,-1.701992174,-1.591058079,0.186515331,0,-0.8994,-1.1706,-0.219
2025-09-12T21:26:41.093446,0.145320415,-1.623615881,1.579559628,-1.702159544,-1.590067212,0.186285496,0,0.145320415,-1.623615881,1.579559628,-1.702159544,-1.590067212,0.186285496,0,-1.0994,-0.9906,-0.199
2025-09-12T21:26:41.125476,0.145392418,-1.623543402,1.580240552,-1.702243467,-1.589086835,0.185911655,0,0.145392418,-1.623543402,1.580240552,-1.702243467,-1.589086835,0.185911655,0,-0.9794,-1.2106,-0.179
2025-09-12T21:26:41.157597,0.145452023,-1.62337031,1.580402676,-1.7023622,-1.588528935,0.185468197,0,0.145452023,-1.62337031,1.580402676,-1.7023622,-1.588528935,0.185468197,0,-1.0394,-1.1106,-0.219
2025-09-12T21:26:41.189584,0.145500183,-1.622924467,1.580412213,-1.702337404,-1.588451687,0.184941292,0,0.145500183,-1.622924467,1.580412213,-1.702337404,-1.588451687,0.184941292,0,-1.0394,-1.1506,-0.139
2025-09-12T21:26:41.221520,0.145498753,-1.622334143,1.580326382,-1.702312132,-1.588660542,0.184403896,0,0.145498753,-1.622334143,1.580326382,-1.702312132,-1.588660542,0.184403896,0,-1.0194,-1.0906,-0.379
2025-09-12T21:26:41.253580,0.145461559,-1.621554037,1.580316846,-1.702227732,-1.589046303,0.184046268,0,0.145461559,-1.621554037,1.580316846,-1.702227732,-1.589046303,0.184046268,0,-0.9594,-1.0906,-0.179
2025-09-12T21:26:41.285543,0.145377159,-1.620725294,1.580318753,-1.702071329,-1.589660947,0.183701038,0,0.145377159,-1.620725294,1.580318753,-1.702071329,-1.589660947,0.183701038,0,-0.9394,-1.0706,-0.319
2025-09-12T21:26:41.317611,0.145111084,-1.619727751,1.580612485,-1.701927324,-1.590415303,0.183498859,0,0.145111084,-1.619727751,1.580612485,-1.701927324,-1.590415303,0.183498859,0,-0.9794,-1.0706,-0.299
2025-09-12T21:26:41.349618,0.144775391,-1.618648191,1.581203763,-1.70183148,-1.591061894,0.183283329,0,0.144775391,-1.618648191,1.581203763,-1.70183148,-1.591061894,0.183283329,0,-1.0594,-0.9706,-0.139
2025-09-12T21:26:41.381621,0.144342899,-1.617485662,1.582092587,-1.701640268,-1.591646973,0.183177948,0,0.144342899,-1.617485662,1.582092587,-1.701640268,-1.591646973,0.183177948,0,-0.8794,-0.9706,-0.339
2025-09-12T21:26:41.413672,0.143741131,-1.616383692,1.58332092,-1.701508661,-1.592234914,0.183131218,0,0.143741131,-1.616383692,1.58332092,-1.701508661,-1.592234914,0.183131218,0,-0.8594,-0.9906,-0.099
2025-09-12T21:26:41.445667,0.142912388,-1.615425249,1.584774319,-1.701485296,-1.592771832,0.183081627,0,0.142912388,-1.615425249,1.584774319,-1.701485296,-1.592771832,0.183081627,0,-0.9594,-0.9906,-0.159
2025-09-12T21:26:41.493717,0.141807556,-1.614298483,1.586439435,-1.701413294,-1.593188588,0.18299818,0,0.141807556,-1.614298483,1.586439435,-1.701413294,-1.593188588,0.18299818,0,-0.7794,-1.0106,0.101
2025-09-12T21:26:41.541741,0.139531612,-1.612719198,1.588568036,-1.701366087,-1.593715016,0.182890892,0,0.139531612,-1.612719198,1.588568036,-1.701366087,-1.593715016,0.182890892,0,-1.0794,-0.8106,-0.059
2025-09-12T21:26:41.589741,0.137508869,-1.611388346,1.590193097,-1.701341768,-1.593988244,0.182819843,0,0.137508869,-1.611388346,1.590193097,-1.701341768,-1.593988244,0.182819843,0,-0.8794,-0.9706,0.041
2025-09-12T21:26:41.637783,0.135380745,-1.610040804,1.591186825,-1.701269766,-1.594182316,0.18273592,0,0.135380745,-1.610040804,1.591186825,-1.701269766,-1.594182316,0.18273592,0,-1.0594,-1.2906,0.021
2025-09-12T21:26:41.685838,0.133527756,-1.608044287,1.590803448,-1.701222559,-1.594590012,0.182675838,0,0.133527756,-1.608044287,1.590803448,-1.701222559,-1.594590012,0.182675838,0,-1.0994,-1.0706,-0.059
2025-09-12T21:26:41.734218,0.131508827,-1.605431696,1.589695279,-1.701185843,-1.595081155,0.182651997,0,0.131508827,-1.605431696,1.589695279,-1.701185843,-1.595081155,0.182651997,0,-0.6394,-1.1906,-0.379
2025-09-12T21:26:41.781856,0.128085613,-1.601137777,1.587879483,-1.701222559,-1.595572297,0.182604313,0,0.128085613,-1.601137777,1.587879483,-1.701222559,-1.595572297,0.182604313,0,-1.0194,-0.8506,0.001
2025-09-12T21:26:41.813871,0.125087738,-1.597973963,1.586357419,-1.701308867,-1.595751111,0.182580471,0,0.125087738,-1.597973963,1.586357419,-1.701308867,-1.595751111,0.182580471,0,-0.5594,-1.1306,-0.059
2025-09-12T21:26:41.845873,0.121651173,-1.594218393,1.584553067,-1.701611658,-1.596061532,0.182470322,0,0.121651173,-1.594218393,1.584553067,-1.701611658,-1.596061532,0.182470322,0,-1.0794,-0.6106,-0.219
2025-09-12T21:26:41.877909,0.118036747,-1.589831968,1.582647626,-1.701862951,-1.59616882,0.182302475,0,0.118036747,-1.589831968,1.582647626,-1.701862951,-1.59616882,0.182302475,0,-0.7194,-1.0706,0.041
2025-09-12T21:26:41.909927,0.114459038,-1.585187574,1.580597226,-1.702222487,-1.596371953,0.182123184,0,0.114459038,-1.585187574,1.580597226,-1.702222487,-1.596371953,0.182123184,0,-1.1394,-0.5506,-0.059
2025-09-12T21:26:41.941944,0.110993862,-1.580642839,1.578535382,-1.702425619,-1.596431557,0.181955814,0,0.110993862,-1.580642839,1.578535382,-1.702425619,-1.596431557,0.181955814,0,-0.7594,-0.8506,0.201
2025-09-12T21:26:41.973968,0.107524872,-1.576385637,1.576258008,-1.702773233,-1.596539799,0.181848526,0,0.107524872,-1.576385637,1.576258008,-1.702773233,-1.596539799,0.181848526,0,-1.0594,-0.4906,0.021
2025-09-12T21:26:42.006004,0.104187012,-1.572390219,1.573763196,-1.703012606,-1.596587006,0.181645393,0,0.104187012,-1.572390219,1.573763196,-1.703012606,-1.596587006,0.181645393,0,-0.9394,-1.1506,0.021
2025-09-12T21:26:42.038055,0.100828171,-1.567847089,1.570658032,-1.703299662,-1.596635167,0.181403637,0,0.100828171,-1.567847089,1.570658032,-1.703299662,-1.596635167,0.181403637,0,-1.1394,-0.6506,0.061
2025-09-12T21:26:42.070039,0.097986698,-1.563478784,1.56746513,-1.70344319,-1.596621339,0.181105137,0,0.097986698,-1.563478784,1.56746513,-1.70344319,-1.596621339,0.181105137,0,-0.9594,-0.7906,0.241
2025-09-12T21:26:42.102098,0.095477104,-1.558590726,1.56347305,-1.703695437,-1.596596066,0.180902004,0,0.095477104,-1.558590726,1.56347305,-1.703695437,-1.596596066,0.180902004,0,-1.2594,-0.6306,-0.039
2025-09-12T21:26:42.134071,0.093244076,-1.553380803,1.559025113,-1.703790327,-1.596513573,0.180651188,0,0.093244076,-1.553380803,1.559025113,-1.703790327,-1.596513573,0.180651188,0,-0.9394,-0.7506,0.321
2025-09-12T21:26:42.166144,0.091273785,-1.547796564,1.553673093,-1.703897615,-1.596478287,0.180423737,0,0.091273785,-1.547796564,1.553673093,-1.703897615,-1.596478287,0.180423737,0,-0.9594,-0.7106,0.141
2025-09-12T21:26:42.198109,0.089755058,-1.542819814,1.54835159,-1.703907629,-1.596416299,0.18029356,0,0.089755058,-1.542819814,1.54835159,-1.703907629,-1.596416299,0.18029356,0,-0.8994,-0.7306,0.241
2025-09-12T21:26:42.230167,0.088162899,-1.537576036,1.542324368,-1.703834673,-1.596284215,0.180114269,0,0.088162899,-1.537576036,1.542324368,-1.703834673,-1.596284215,0.180114269,0,-0.8594,-0.6506,0.101
2025-09-12T21:26:42.262145,0.086314678,-1.532056169,1.535543744,-1.703689714,-1.596152608,0.179970264,0,0.086314678,-1.532056169,1.535543744,-1.703689714,-1.596152608,0.179970264,0,-0.7594,-0.8106,-0.019
2025-09-12T21:26:42.310227,0.083205223,-1.524765329,1.526054684,-1.703522345,-1.596034352,0.179423809,0,0.083205223,-1.524765329,1.526054684,-1.703522345,-1.596034352,0.179423809,0,-0.7194,-0.7906,-0.039
2025-09-12T21:26:42.342269,0.080739498,-1.519986467,1.519556348,-1.703390738,-1.596034829,0.178385258,0,0.080739498,-1.519986467,1.519556348,-1.703390738,-1.596034829,0.178385258,0,-1.0394,-0.4906,0.161
2025-09-12T21:26:42.374219,0.078392982,-1.515526132,1.513235394,-1.703258654,-1.595998112,0.176224709,0,0.078392982,-1.515526132,1.513235394,-1.703258654,-1.595998112,0.176224709,0,-0.7994,-0.7906,-0.059
2025-09-12T21:26:42.406269,0.076024055,-1.511256055,1.506944958,-1.703065058,-1.596035782,0.17289257,0,0.076024055,-1.511256055,1.506944958,-1.703065058,-1.596035782,0.17289257,0,-1.0594,-0.7506,0.081
2025-09-12T21:26:42.438322,0.073968887,-1.506829099,1.500431363,-1.70288529,-1.596071545,0.169002533,0,0.073968887,-1.506829099,1.500431363,-1.70288529,-1.596071545,0.169002533,0,-0.5794,-0.7506,-0.079
2025-09-12T21:26:42.470281,0.072032928,-1.502095537,1.493881528,-1.702657362,-1.596180264,0.164393425,0,0.072032928,-1.502095537,1.493881528,-1.702657362,-1.596180264,0.164393425,0,-0.9794,-0.5906,-0.059
2025-09-12T21:26:42.502316,0.07051754,-1.496953802,1.487133328,-1.702441832,-1.596264187,0.159971237,0,0.07051754,-1.496953802,1.487133328,-1.702441832,-1.596264187,0.159971237,0,-0.8994,-0.7306,-0.079
2025-09-12T21:26:42.550366,0.068557262,-1.488734083,1.476869885,-1.702106615,-1.596444432,0.153851509,0,0.068557262,-1.488734083,1.476869885,-1.702106615,-1.596444432,0.153851509,0,-0.9994,-0.8306,0.001
2025-09-12T21:26:42.598334,0.06699419,-1.480490522,1.466583554,-1.701904913,-1.596551243,0.148818493,0,0.06699419,-1.480490522,1.466583554,-1.701904913,-1.596551243,0.148818493,0,-1.0794,-1.0706,-0.199
2025-09-12T21:26:42.630387,0.06626606,-1.474787549,1.45982391,-1.701857706,-1.596563164,0.14585638,0,0.06626606,-1.474787549,1.45982391,-1.701857706,-1.596563164,0.14585638,0,-1.0194,-0.8306,-0.259
2025-09-12T21:26:42.662399,0.065633297,-1.468779401,1.453401868,-1.701905867,-1.596658532,0.143787384,0,0.065633297,-1.468779401,1.453401868,-1.701905867,-1.596658532,0.143787384,0,-0.7994,-0.8706,-0.199
2025-09-12T21:26:42.694403,0.064997673,-1.462574796,1.447174374,-1.701978823,-1.596742455,0.141569614,0,0.064997673,-1.462574796,1.447174374,-1.701978823,-1.596742455,0.141569614,0,-0.7794,-0.6306,-0.299
2025-09-12T21:26:42.726520,0.064351082,-1.456250505,1.441570584,-1.702003141,-1.596742455,0.139522076,0,0.064351082,-1.456250505,1.441570584,-1.702003141,-1.596742455,0.139522076,0,-0.8394,-0.6906,-0.119
2025-09-12T21:26:42.774526,0.062904835,-1.446799116,1.434274975,-1.702366015,-1.596741978,0.137234211,0,0.062904835,-1.446799116,1.434274975,-1.702366015,-1.596741978,0.137234211,0,-0.4994,-0.7906,-0.299
2025-09-12T21:26:42.822522,0.060596943,-1.438428239,1.42908508,-1.702702185,-1.596801583,0.135316372,0,0.060596943,-1.438428239,1.42908508,-1.702702185,-1.596801583,0.135316372,0,-0.5794,-0.8706,-0.399
2025-09-12T21:26:42.870526,0.057041168,-1.429384069,1.424923245,-1.703012129,-1.596655671,0.13379097,0,0.057041168,-1.429384069,1.424923245,-1.703012129,-1.596655671,0.13379097,0,-0.9394,-0.6906,0.001
2025-09-12T21:26:42.918577,0.053199768,-1.420690851,1.421596829,-1.703335901,-1.596402947,0.132715225,0,0.053199768,-1.420690851,1.421596829,-1.703335901,-1.596402947,0.132715225,0,-0.8794,-0.8506,-0.159
2025-09-12T21:26:42.966598,0.049527645,-1.412190275,1.418819729,-1.70362248,-1.596175496,0.131903648,0,0.049527645,-1.412190275,1.418819729,-1.70362248,-1.596175496,0.131903648,0,-1.1594,-0.6306,-0.019
2025-09-12T21:26:43.014578,0.046283722,-1.404378251,1.416361157,-1.703790327,-1.595937077,0.13121748,0,0.046283722,-1.404378251,1.416361157,-1.703790327,-1.595937077,0.13121748,0,-0.7194,-0.8306,-0.179
2025-09-12T21:26:43.062604,0.042785645,-1.397152738,1.414015118,-1.703980585,-1.595817868,0.129865646,0,0.042785645,-1.397152738,1.414015118,-1.703980585,-1.595817868,0.129865646,0,-0.8794,-0.5906,0.221
2025-09-12T21:26:43.110624,0.03923893,-1.390797929,1.411676709,-1.70404162,-1.595675294,0.127173424,0,0.03923893,-1.390797929,1.411676709,-1.70404162,-1.595675294,0.127173424,0,-0.7394,-0.6706,-0.359
2025-09-12T21:26:43.158672,0.035039902,-1.384632425,1.409654919,-1.704149862,-1.595784966,0.124195576,0,0.035039902,-1.384632425,1.409654919,-1.704149862,-1.595784966,0.124195576,0,-0.9994,-0.6906,-0.079
2025-09-12T21:26:43.206700,0.03057766,-1.378816442,1.407919232,-1.704546591,-1.596027676,0.121772289,0,0.03057766,-1.378816442,1.407919232,-1.704546591,-1.596027676,0.121772289,0,-0.7194,-0.5706,-0.159
2025-09-12T21:26:43.254751,0.026032925,-1.373277978,1.40646011,-1.704761168,-1.596471135,0.11939764,0,0.026032925,-1.373277978,1.40646011,-1.704761168,-1.596471135,0.11939764,0,-0.7394,-0.5106,-0.039
2025-09-12T21:26:43.302834,0.021726608,-1.36806138,1.405409161,-1.705001017,-1.596879307,0.117634773,0,0.021726608,-1.36806138,1.405409161,-1.705001017,-1.596879307,0.117634773,0,-0.6794,-0.4906,-0.259
2025-09-12T21:26:43.350810,0.016913414,-1.362696962,1.404886548,-1.705144545,-1.597468201,0.116872311,0,0.016913414,-1.362696962,1.404886548,-1.705144545,-1.597468201,0.116872311,0,-0.9794,-0.3106,0.001
2025-09-12T21:26:43.398845,0.011777878,-1.357514696,1.404806439,-1.705324312,-1.598077122,0.116155148,0,0.011777878,-1.357514696,1.404806439,-1.705324312,-1.598077122,0.116155148,0,-0.5994,-0.4506,-0.039
2025-09-12T21:26:43.446851,0.006124973,-1.35234435,1.404842679,-1.705455442,-1.598590676,0.115737915,0,0.006124973,-1.35234435,1.404842679,-1.705455442,-1.598590676,0.115737915,0,-0.7194,-0.2706,-0.079
2025-09-12T21:26:43.494908,0.000341892,-1.347575502,1.405073468,-1.705665728,-1.598925416,0.115464211,0,0.000341892,-1.347575502,1.405073468,-1.705665728,-1.598925416,0.115464211,0,-0.5194,-0.3506,0.101
2025-09-12T21:26:43.542940,-0.005907361,-1.343642072,1.405544583,-1.70642676,-1.599247758,0.115356922,0,-0.005907361,-1.343642072,1.405544583,-1.70642676,-1.599247758,0.115356922,0,-0.5794,-0.3906,0.001
2025-09-12T21:26:43.590945,-0.012349908,-1.340263681,1.406277005,-1.708907267,-1.599438969,0.115238667,0,-0.012349908,-1.340263681,1.406277005,-1.708907267,-1.599438969,0.115238667,0,-0.4194,-0.7906,-0.039
2025-09-12T21:26:43.638976,-0.019271199,-1.336835698,1.407310788,-1.714151999,-1.59961826,0.115348816,0,-0.019271199,-1.336835698,1.407310788,-1.714151999,-1.59961826,0.115348816,0,-0.5794,-0.4306,-0.079
2025-09-12T21:26:43.687047,-0.026018445,-1.333278493,1.408363644,-1.72174563,-1.59970123,0.115589142,0,-0.026018445,-1.333278493,1.408363644,-1.72174563,-1.59970123,0.115589142,0,-0.5394,-0.7506,0.121
2025-09-12T21:26:43.735059,-0.032572571,-1.330226735,1.409006421,-1.730989595,-1.599773709,0.115804195,0,-0.032572571,-1.330226735,1.409006421,-1.730989595,-1.599773709,0.115804195,0,-1.0194,-0.3506,0.021
2025-09-12T21:26:43.783091,-0.038484875,-1.327370958,1.408973996,-1.739529272,-1.599785153,0.116033077,0,-0.038484875,-1.327370958,1.408973996,-1.739529272,-1.599785153,0.116033077,0,-0.6594,-0.5106,-0.099
2025-09-12T21:26:43.831100,-0.044409577,-1.323861913,1.408394162,-1.746754786,-1.599870984,0.116418362,0,-0.044409577,-1.323861913,1.408394162,-1.746754786,-1.599870984,0.116418362,0,-0.8994,-0.4906,-0.259
2025-09-12T21:26:43.879178,-0.050313298,-1.319586114,1.407493893,-1.752426764,-1.600108925,0.116919994,0,-0.050313298,-1.319586114,1.407493893,-1.752426764,-1.600108925,0.116919994,0,-0.7994,-0.4306,-0.219
2025-09-12T21:26:43.927142,-0.056480233,-1.314158754,1.406582181,-1.75694861,-1.60020477,0.117230415,0,-0.056480233,-1.314158754,1.406582181,-1.75694861,-1.60020477,0.117230415,0,-1.1394,-0.7106,0.181
2025-09-12T21:26:43.975175,-0.062266652,-1.308552579,1.405527417,-1.760018488,-1.60016853,0.117517471,0,-0.062266652,-1.308552579,1.405527417,-1.760018488,-1.60016853,0.117517471,0,-0.8794,-0.4706,0.021
2025-09-12T21:26:44.023189,-0.067225281,-1.303188161,1.40472633,-1.762125155,-1.600179974,0.117744446,0,-0.067225281,-1.303188161,1.40472633,-1.762125155,-1.600179974,0.117744446,0,-0.7194,-0.4906,-0.019
2025-09-12T21:26:44.071258,-0.071117226,-1.298335866,1.403990094,-1.763960024,-1.600143258,0.117850304,0,-0.071117226,-1.298335866,1.403990094,-1.763960024,-1.600143258,0.117850304,0,-0.9394,-0.3906,-0.099
2025-09-12T21:26:44.119346,-0.074536149,-1.293122606,1.402313534,-1.764838835,-1.600107972,0.117776394,0,-0.074536149,-1.293122606,1.402313534,-1.764838835,-1.600107972,0.117776394,0,-1.0394,-0.6106,0.381
2025-09-12T21:26:44.167293,-0.077313248,-1.2884558,1.399675671,-1.765473982,-1.600048367,0.117619991,0,-0.077313248,-1.2884558,1.399675671,-1.765473982,-1.600048367,0.117619991,0,-0.7394,-0.8106,-0.379
2025-09-12T21:26:44.215318,-0.080318276,-1.282216386,1.396061246,-1.766012331,-1.600060288,0.117404461,0,-0.080318276,-1.282216386,1.396061246,-1.766012331,-1.600060288,0.117404461,0,-0.9394,-0.5106,0.041
2025-09-12T21:26:44.263357,-0.083250825,-1.275379972,1.391895596,-1.766431471,-1.60008413,0.117224216,0,-0.083250825,-1.275379972,1.391895596,-1.766431471,-1.60008413,0.117224216,0,-0.8394,-0.2706,-0.379
2025-09-12T21:26:44.311398,-0.086221043,-1.268098192,1.387651745,-1.766669413,-1.599952046,0.117093563,0,-0.086221043,-1.268098192,1.387651745,-1.766669413,-1.599952046,0.117093563,0,-0.7394,-0.4106,0.321
2025-09-12T21:26:44.359401,-0.089420621,-1.261775331,1.383650128,-1.766848703,-1.599976365,0.116901875,0,-0.089420621,-1.261775331,1.383650128,-1.766848703,-1.599976365,0.116901875,0,-1.0394,-0.2106,-0.059
2025-09-12T21:26:44.407483,-0.092806641,-1.255980806,1.379816357,-1.76693215,-1.599976365,0.116794586,0,-0.092806641,-1.255980806,1.379816357,-1.76693215,-1.599976365,0.116794586,0,-0.5794,-0.3706,0.101
2025-09-12T21:26:44.455503,-0.096974675,-1.250866727,1.376800839,-1.767003676,-1.599928204,0.116771221,0,-0.096974675,-1.250866727,1.376800839,-1.767003676,-1.599928204,0.116771221,0,-0.3194,-0.4306,-0.139
2025-09-12T21:26:44.503512,-0.102595631,-1.245845155,1.374290768,-1.76705279,-1.599964444,0.116723537,0,-0.102595631,-1.245845155,1.374290768,-1.76705279,-1.599964444,0.116723537,0,-1.1794,0.1294,0.001
2025-09-12T21:26:44.551599,-0.108743016,-1.241399602,1.372581784,-1.767075201,-1.599964444,0.116639614,0,-0.108743016,-1.241399602,1.372581784,-1.767075201,-1.599964444,0.116639614,0,-0.6794,-0.2706,0.001
2025-09-12T21:26:44.599575,-0.114738766,-1.237628774,1.371143643,-1.767075201,-1.599976365,0.116652012,0,-0.114738766,-1.237628774,1.371143643,-1.767075201,-1.599976365,0.116652012,0,-0.8394,-0.3906,0.241
2025-09-12T21:26:44.647590,-0.120198075,-1.234654264,1.369407956,-1.767135759,-1.599940602,0.116724968,0,-0.120198075,-1.234654264,1.369407956,-1.767135759,-1.599940602,0.116724968,0,-0.6794,-0.6506,0.141
2025-09-12T21:26:44.695583,-0.125468079,-1.231659727,1.366710965,-1.767123362,-1.599927251,0.116772175,0,-0.125468079,-1.231659727,1.366710965,-1.767123362,-1.599927251,0.116772175,0,-0.8594,-0.5706,-0.159
2025-09-12T21:26:44.743669,-0.130276028,-1.227758245,1.362665478,-1.767087122,-1.599673573,0.116831779,0,-0.130276028,-1.227758245,1.362665478,-1.767087122,-1.599673573,0.116831779,0,-0.8394,-0.6706,0.081
2025-09-12T21:26:44.791647,-0.134050194,-1.222928838,1.357017819,-1.766988894,-1.599458043,0.116794586,0,-0.134050194,-1.222928838,1.357017819,-1.766988894,-1.599458043,0.116794586,0,-1.0194,-0.2106,-0.019
2025-09-12T21:26:44.839733,-0.136795346,-1.217885808,1.350630109,-1.766663691,-1.599243466,0.116539478,0,-0.136795346,-1.217885808,1.350630109,-1.766663691,-1.599243466,0.116539478,0,-1.0394,-0.3906,0.001
2025-09-12T21:26:44.887717,-0.13859779,-1.212447004,1.343429867,-1.766351839,-1.599016492,0.116059303,0,-0.13859779,-1.212447004,1.343429867,-1.766351839,-1.599016492,0.116059303,0,-0.9594,-0.4106,0.081
2025-09-12T21:26:44.935801,-0.13995916,-1.207013444,1.336128537,-1.76614966,-1.598897759,0.115472794,0,-0.13995916,-1.207013444,1.336128537,-1.76614966,-1.598897759,0.115472794,0,-0.8794,-0.2906,-0.059
2025-09-12T21:26:44.983784,-0.140841309,-1.201840238,1.328972165,-1.766005655,-1.598886792,0.114887238,0,-0.140841309,-1.201840238,1.328972165,-1.766005655,-1.598886792,0.114887238,0,-0.8394,-0.1906,0.121
2025-09-12T21:26:45.031865,-0.141424004,-1.197164373,1.322214429,-1.765947481,-1.599056546,0.114516258,0,-0.141424004,-1.197164373,1.322214429,-1.765947481,-1.599056546,0.114516258,0,-0.8394,-0.1706,-0.079
2025-09-12T21:26:45.079861,-0.141480748,-1.193110303,1.316145245,-1.76600947,-1.599223916,0.114242077,0,-0.141480748,-1.193110303,1.316145245,-1.76600947,-1.599223916,0.114242077,0,-0.6794,-0.1506,-0.239
2025-09-12T21:26:45.127853,-0.141480271,-1.189510183,1.310938183,-1.76621451,-1.599427048,0.114050865,0,-0.141480271,-1.189510183,1.310938183,-1.76621451,-1.599427048,0.114050865,0,-0.8194,-0.3706,0.041
2025-09-12T21:26:45.175936,-0.141420666,-1.18638833,1.306568448,-1.766429564,-1.599559132,0.113883972,0,-0.141420666,-1.18638833,1.306568448,-1.766429564,-1.599559132,0.113883972,0,-0.5794,-0.3706,0.001
2025-09-12T21:26:45.223938,-0.141419236,-1.183724718,1.303196255,-1.766633173,-1.599704091,0.113800526,0,-0.141419236,-1.183724718,1.303196255,-1.766633173,-1.599704091,0.113800526,0,-0.7594,-0.3506,-0.059
2025-09-12T21:26:45.271924,-0.141164128,-1.181673364,1.300688092,-1.766753336,-1.599955861,0.113716602,0,-0.141164128,-1.181673364,1.300688092,-1.766753336,-1.599955861,0.113716602,0,-0.7994,-0.3106,0.061
2025-09-12T21:26:45.319936,-0.14064819,-1.180518941,1.298857037,-1.766860148,-1.600266759,0.113633156,0,-0.14064819,-1.180518941,1.298857037,-1.766860148,-1.600266759,0.113633156,0,-0.6194,-0.4906,0.181
2025-09-12T21:26:45.367984,-0.140121285,-1.17997344,1.297323529,-1.766944071,-1.60053045,0.113609314,0,-0.140121285,-1.17997344,1.297323529,-1.766944071,-1.60053045,0.113609314,0,-0.7594,-0.4706,0.101
2025-09-12T21:26:45.416031,-0.139629666,-1.179719285,1.295698468,-1.766955992,-1.600732152,0.113573551,0,-0.139629666,-1.179719285,1.295698468,-1.766955992,-1.600732152,0.113573551,0,-0.9394,-0.6506,0.041
2025-09-12T21:26:45.464090,-0.139005009,-1.178826169,1.292978589,-1.767003199,-1.600707356,0.113573551,0,-0.139005009,-1.178826169,1.292978589,-1.767003199,-1.600707356,0.113573551,0,-0.7394,-0.6506,0.101
2025-09-12T21:26:45.512148,-0.138323132,-1.177406148,1.289614026,-1.766880652,-1.600706402,0.113549709,0,-0.138323132,-1.177406148,1.289614026,-1.766880652,-1.600706402,0.113549709,0,-0.8794,-0.7106,-0.079
2025-09-12T21:26:45.560114,-0.137821976,-1.17498763,1.285217587,-1.76669993,-1.60059816,0.113525867,0,-0.137821976,-1.17498763,1.285217587,-1.76669993,-1.60059816,0.113525867,0,-0.8794,-0.5306,-0.139
2025-09-12T21:26:45.608168,-0.137474362,-1.171505288,1.280220334,-1.766328951,-1.600477997,0.113525867,0,-0.137474362,-1.171505288,1.280220334,-1.766328951,-1.600477997,0.113525867,0,-0.9194,-0.5906,0.001
2025-09-12T21:26:45.656247,-0.136983697,-1.167271451,1.274509732,-1.76618733,-1.600322072,0.113513947,0,-0.136983697,-1.167271451,1.274509732,-1.76618733,-1.600322072,0.113513947,0,-0.5594,-0.4106,-0.299
2025-09-12T21:26:45.704345,-0.136855427,-1.162585096,1.269361798,-1.766237875,-1.600190941,0.113502026,0,-0.136855427,-1.162585096,1.269361798,-1.766237875,-1.600190941,0.113502026,0,-0.7994,-0.3306,-0.159
2025-09-12T21:26:45.752296,-0.136747662,-1.157908754,1.265043561,-1.766674181,-1.600107495,0.113513947,0,-0.136747662,-1.157908754,1.265043561,-1.766674181,-1.600107495,0.113513947,0,-0.7794,-0.5706,-0.019
2025-09-12T21:26:45.800355,-0.136735264,-1.153136091,1.261310879,-1.767411371,-1.600036446,0.113490582,0,-0.136735264,-1.153136091,1.261310879,-1.767411371,-1.600036446,0.113490582,0,-0.6994,-0.5506,-0.119
2025-09-12T21:26:45.848299,-0.136662785,-1.149085836,1.258753125,-1.768824717,-1.600182358,0.113562107,0,-0.136662785,-1.149085836,1.258753125,-1.768824717,-1.600182358,0.113562107,0,-0.8594,-0.6706,-0.079
2025-09-12T21:26:45.896315,-0.136555497,-1.145066099,1.256611172,-1.772235533,-1.600471799,0.113538265,0,-0.136555497,-1.145066099,1.256611172,-1.772235533,-1.600471799,0.113538265,0,-0.8794,-0.5106,0.081
2025-09-12T21:26:45.944364,-0.136484448,-1.140971975,1.255012814,-1.779462954,-1.600892369,0.113525867,0,-0.136484448,-1.140971975,1.255012814,-1.779462954,-1.600892369,0.113525867,0,-0.8594,-0.6906,-0.139
2025-09-12T21:26:45.992332,-0.136484448,-1.137025194,1.254299466,-1.790262838,-1.601322476,0.113502026,0,-0.136484448,-1.137025194,1.254299466,-1.790262838,-1.601322476,0.113502026,0,-0.8594,-1.0706,-0.079
2025-09-12T21:26:46.040412,-0.136484925,-1.133200483,1.253942792,-1.804433008,-1.601729695,0.113514423,0,-0.136484925,-1.133200483,1.253942792,-1.804433008,-1.601729695,0.113514423,0,-0.7794,-0.7306,0.121
2025-09-12T21:26:46.088504,-0.136693303,-1.129466371,1.253738705,-1.819476267,-1.60208923,0.113525867,0,-0.136693303,-1.129466371,1.253738705,-1.819476267,-1.60208923,0.113525867,0,-0.6394,-1.0306,-0.119
2025-09-12T21:26:46.136496,-0.13732082,-1.125384645,1.253376309,-1.834905287,-1.602386777,0.113502026,0,-0.13732082,-1.125384645,1.253376309,-1.834905287,-1.602386777,0.113502026,0,-0.9594,-0.7306,-0.219
2025-09-12T21:26:46.184552,-0.138294045,-1.121332483,1.252632443,-1.848955294,-1.602554146,0.113502026,0,-0.138294045,-1.121332483,1.252632443,-1.848955294,-1.602554146,0.113502026,0,-0.7394,-0.9706,-0.139
2025-09-12T21:26:46.232482,-0.139541928,-1.117664174,1.251913373,-1.862835547,-1.602721516,0.113514423,0,-0.139541928,-1.117664174,1.251913373,-1.862835547,-1.602721516,0.113514423,0,-0.9394,-0.9706,-0.159
2025-09-12T21:26:46.280582,-0.140772168,-1.114177064,1.251486127,-1.876058241,-1.602804963,0.113525867,0,-0.140772168,-1.114177064,1.251486127,-1.876058241,-1.602804963,0.113525867,0,-1.1794,-1.4506,0.101
2025-09-12T21:26:46.328586,-0.141669575,-1.111373262,1.251465146,-1.892198225,-1.602913682,0.113502026,0,-0.141669575,-1.111373262,1.251465146,-1.892198225,-1.602913682,0.113502026,0,-0.8594,-0.9706,-0.359
2025-09-12T21:26:46.376575,-0.142581288,-1.108783559,1.251732175,-1.908613344,-1.603213612,0.113502026,0,-0.142581288,-1.108783559,1.251732175,-1.908613344,-1.603213612,0.113502026,0,-0.8394,-1.4706,-0.639
2025-09-12T21:26:46.424642,-0.143683259,-1.105948285,1.252430264,-1.926966806,-1.603525464,0.113525867,0,-0.143683259,-1.105948285,1.252430264,-1.926966806,-1.603525464,0.113525867,0,-1.1194,-1.0506,-0.359
2025-09-12T21:26:46.472644,-0.144591633,-1.103180246,1.253343884,-1.942594667,-1.603740517,0.113466263,0,-0.144591633,-1.103180246,1.253343884,-1.942594667,-1.603740517,0.113466263,0,-0.9394,-1.3906,-0.339
2025-09-12T21:26:46.520680,-0.145321671,-1.101106481,1.25405914,-1.956195971,-1.603943173,0.113515377,0,-0.145321671,-1.101106481,1.25405914,-1.956195971,-1.603943173,0.113515377,0,-0.8994,-1.1706,-0.539
2025-09-12T21:26:46.568741,-0.146156136,-1.098755674,1.254661862,-1.966837069,-1.604099099,0.113732815,0,-0.146156136,-1.098755674,1.254661862,-1.966837069,-1.604099099,0.113732815,0,-0.3794,-1.3906,-0.279
2025-09-12T21:26:46.616819,-0.148267571,-1.096778707,1.255890195,-1.975627562,-1.604206864,0.113948822,0,-0.148267571,-1.096778707,1.255890195,-1.975627562,-1.604206864,0.113948822,0,-0.6394,-1.2706,-0.319
2025-09-12T21:26:46.664786,-0.151483361,-1.095005826,1.257795636,-1.982733866,-1.604337994,0.114336491,0,-0.151483361,-1.095005826,1.257795636,-1.982733866,-1.604337994,0.114336491,0,-0.7794,-1.5306,-0.479
2025-09-12T21:26:46.712791,-0.155388657,-1.093412237,1.261093442,-1.989760538,-1.604398076,0.115128517,0,-0.155388657,-1.093412237,1.261093442,-1.989760538,-1.604398076,0.115128517,0,-0.7394,-1.6706,-0.239
2025-09-12T21:26:46.760806,-0.159689252,-1.092181997,1.265356366,-1.997623106,-1.604421441,0.115879536,0,-0.159689252,-1.092181997,1.265356366,-1.997623106,-1.604421441,0.115879536,0,-0.4394,-1.6506,-0.419
2025-09-12T21:26:46.808838,-0.165081326,-1.091442422,1.271559064,-2.008313318,-1.604493443,0.116235256,0,-0.165081326,-1.091442422,1.271559064,-2.008313318,-1.604493443,0.116235256,0,-0.8994,-1.5506,-0.239
2025-09-12T21:26:46.856867,-0.170934025,-1.091097669,1.278967206,-2.020483633,-1.604517285,0.11641407,0,-0.170934025,-1.091097669,1.278967206,-2.020483633,-1.604517285,0.11641407,0,-0.6994,-1.2906,-0.339
2025-09-12T21:26:46.904979,-0.177233998,-1.090967492,1.287157361,-2.032102247,-1.604517285,0.116521358,0,-0.177233998,-1.090967492,1.287157361,-2.032102247,-1.604517285,0.116521358,0,-1.2794,-1.6906,-0.119
2025-09-12T21:26:46.952923,-0.183090035,-1.090883569,1.294952695,-2.042750975,-1.604321782,0.116532326,0,-0.183090035,-1.090883569,1.294952695,-2.042750975,-1.604321782,0.116532326,0,-0.7394,-1.4906,-0.299
2025-09-12T21:26:47.000987,-0.189009968,-1.090872602,1.302961651,-2.051061293,-1.60408241,0.116434574,0,-0.189009968,-1.090872602,1.302961651,-2.051061293,-1.60408241,0.116434574,0,-1.1594,-1.4706,-0.179
2025-09-12T21:26:47.048991,-0.19474775,-1.090981798,1.310718838,-2.057181498,-1.603855435,0.116194248,0,-0.19474775,-1.090981798,1.310718838,-2.057181498,-1.603855435,0.116194248,0,-1.1194,-1.2706,-0.419
2025-09-12T21:26:47.097006,-0.200220887,-1.090981798,1.31822807,-2.061982294,-1.603628461,0.11596632,0,-0.200220887,-1.090981798,1.31822807,-2.061982294,-1.603628461,0.11596632,0,-1.1794,-1.5706,-0.139
2025-09-12T21:26:47.145019,-0.204898659,-1.091148691,1.325119321,-2.065567156,-1.603460614,0.115667343,0,-0.204898659,-1.091148691,1.325119321,-2.065567156,-1.603460614,0.115667343,0,-0.8794,-1.2306,-0.359
2025-09-12T21:26:47.193115,-0.208765809,-1.091112451,1.331674878,-2.068441053,-1.603281323,0.115476608,0,-0.208765809,-1.091112451,1.331674878,-2.068441053,-1.603281323,0.115476608,0,-1.0394,-1.2506,-0.119
2025-09-12T21:26:47.241157,-0.21173412,-1.091160135,1.337581937,-2.070356985,-1.603210274,0.115381241,0,-0.21173412,-1.091160135,1.337581937,-2.070356985,-1.603210274,0.115381241,0,-1.0194,-1.5906,-0.199
2025-09-12T21:26:47.289220,-0.213999573,-1.091100053,1.343368832,-2.072289129,-1.60315067,0.11528635,0,-0.213999573,-1.091100053,1.343368832,-2.072289129,-1.60315067,0.11528635,0,-1.2394,-1.8706,-0.119
2025-09-12T21:26:47.337215,-0.215562169,-1.090929345,1.348724667,-2.073946138,-1.603114907,0.115359306,0,-0.215562169,-1.090929345,1.348724667,-2.073946138,-1.603114907,0.115359306,0,-0.9594,-2.0906,-0.019
2025-09-12T21:26:47.385172,-0.216887776,-1.090590791,1.353308026,-2.076603075,-1.603102986,0.115382671,0,-0.216887776,-1.090590791,1.353308026,-2.076603075,-1.603102986,0.115382671,0,-1.1194,-1.7706,-0.279
2025-09-12T21:26:47.433191,-0.217733208,-1.089769201,1.356680218,-2.079482695,-1.603067223,0.11537075,0,-0.217733208,-1.089769201,1.356680218,-2.079482695,-1.603067223,0.11537075,0,-0.9594,-1.3306,-0.299
2025-09-12T21:26:47.481220,-0.218365971,-1.08828433,1.359249417,-2.081991812,-1.603055302,0.115345955,0,-0.218365971,-1.08828433,1.359249417,-2.081991812,-1.603055302,0.115345955,0,-0.8194,-1.3906,-0.219
2025-09-12T21:26:47.529276,-0.219051186,-1.086205797,1.361090008,-2.083572527,-1.603055302,0.115297794,0,-0.219051186,-1.086205797,1.361090008,-2.083572527,-1.603055302,0.115297794,0,-0.7794,-1.6506,-0.219
2025-09-12T21:26:47.577336,-0.220146958,-1.083782033,1.362428967,-2.085048338,-1.603019063,0.115226269,0,-0.220146958,-1.083782033,1.362428967,-2.085048338,-1.603019063,0.115226269,0,-0.7794,-1.4906,-0.039
2025-09-12T21:26:47.625289,-0.222070519,-1.081537561,1.363298718,-2.085880896,-1.60301954,0.115178585,0,-0.222070519,-1.081537561,1.363298718,-2.085880896,-1.60301954,0.115178585,0,-0.6994,-1.4906,-0.359
2025-09-12T21:26:47.673349,-0.224633519,-1.078654127,1.36390907,-2.086576601,-1.60303146,0.115106583,0,-0.224633519,-1.078654127,1.36390907,-2.086576601,-1.60303146,0.115106583,0,-1.1194,-1.4306,0.021
2025-09-12T21:26:47.721454,-0.227037255,-1.075981454,1.364363019,-2.087531229,-1.60301954,0.11511898,0,-0.227037255,-1.075981454,1.364363019,-2.087531229,-1.60301954,0.11511898,0,-0.7394,-1.5506,-0.139
2025-09-12T21:26:47.769422,-0.22933418,-1.073279218,1.364454571,-2.08900704,-1.60303146,0.115107059,0,-0.22933418,-1.073279218,1.364454571,-2.08900704,-1.60303146,0.115107059,0,-1.0594,-1.6506,-0.099
2025-09-12T21:26:47.817494,-0.231354062,-1.070480184,1.36428291,-2.091220518,-1.603031937,0.115058899,0,-0.231354062,-1.070480184,1.36428291,-2.091220518,-1.603031937,0.115058899,0,-0.9994,-2.0706,-0.299
2025-09-12T21:26:47.865491,-0.23347408,-1.066754178,1.363777463,-2.096923967,-1.603237454,0.115035057,0,-0.23347408,-1.066754178,1.363777463,-2.096923967,-1.603237454,0.115035057,0,-0.7594,-1.7306,0.021
2025-09-12T21:26:47.913519,-0.23563892,-1.062939958,1.363224332,-2.104857584,-1.603513066,0.115083218,0,-0.23563892,-1.062939958,1.363224332,-2.104857584,-1.603513066,0.115083218,0,-0.7794,-1.5106,-0.339
2025-09-12T21:26:47.961572,-0.237817589,-1.058943109,1.362638776,-2.114341875,-1.603679005,0.115071297,0,-0.237817589,-1.058943109,1.362638776,-2.114341875,-1.603679005,0.115071297,0,-1.0194,-1.5506,0.001
2025-09-12T21:26:48.009545,-0.240040127,-1.054877595,1.361831967,-2.12361302,-1.603715722,0.115035057,0,-0.240040127,-1.054877595,1.361831967,-2.12361302,-1.603715722,0.115035057,0,-0.8794,-1.3906,-0.559
2025-09-12T21:26:48.057622,-0.242087666,-1.05095704,1.360884015,-2.131246229,-1.603847806,0.115046978,0,-0.242087666,-1.05095704,1.360884015,-2.131246229,-1.603847806,0.115046978,0,-0.8594,-1.5306,-0.139
2025-09-12T21:26:48.105637,-0.244119946,-1.047533349,1.359888379,-2.137331625,-1.604003255,0.115058899,0,-0.244119946,-1.047533349,1.359888379,-2.137331625,-1.604003255,0.115058899,0,-1.0394,-1.4306,-0.299
2025-09-12T21:26:48.153688,-0.245967213,-1.044830636,1.359258954,-2.141626974,-1.604086701,0.115058899,0,-0.245967213,-1.044830636,1.359258954,-2.141626974,-1.604086701,0.115058899,0,-0.5594,-1.2306,-0.299
2025-09-12T21:26:48.201711,-0.248476807,-1.042612867,1.359243695,-2.145131727,-1.604146783,0.115071297,0,-0.248476807,-1.042612867,1.359243695,-2.145131727,-1.604146783,0.115071297,0,-0.5794,-1.1306,-0.119
2025-09-12T21:26:48.249754,-0.251529996,-1.040966348,1.360004727,-2.147845408,-1.60427839,0.115059376,0,-0.251529996,-1.040966348,1.360004727,-2.147845408,-1.60427839,0.115059376,0,-0.8794,-1.2306,-0.199
2025-09-12T21:26:48.297762,-0.254761998,-1.03989108,1.361200635,-2.149741789,-1.604398076,0.115156174,0,-0.254761998,-1.03989108,1.361200635,-2.149741789,-1.604398076,0.115156174,0,-0.9994,-1.4906,-0.339
2025-09-12T21:26:48.349505,-0.257835213,-1.039063291,1.363415066,-2.151606699,-1.604421441,0.115288734,0,-0.257835213,-1.039063291,1.363415066,-2.151606699,-1.604421441,0.115288734,0,-0.8794,-1.4506,-0.459
2025-09-12T21:26:48.393814,-0.260873143,-1.038238363,1.366262738,-2.152660986,-1.604493443,0.115481377,0,-0.260873143,-1.038238363,1.366262738,-2.152660986,-1.604493443,0.115481377,0,-1.2794,-1.6106,-0.019
2025-09-12T21:26:48.441861,-0.26335508,-1.037796811,1.369327847,-2.154019495,-1.604481045,0.115744591,0,-0.26335508,-1.037796811,1.369327847,-2.154019495,-1.604481045,0.115744591,0,-1.0394,-1.5306,-0.199
2025-09-12T21:26:48.489841,-0.265179936,-1.037387685,1.371868436,-2.154791018,-1.604505364,0.115899563,0,-0.265179936,-1.037387685,1.371868436,-2.154791018,-1.604505364,0.115899563,0,-1.1194,-1.5106,-0.299
2025-09-12T21:26:48.537983,-0.266551797,-1.036811666,1.374140088,-2.155234953,-1.604541127,0.116114616,0,-0.266551797,-1.036811666,1.374140088,-2.155234953,-1.604541127,0.116114616,0,-0.9594,-1.6706,-0.179
2025-09-12T21:26:48.585918,-0.267637555,-1.036294298,1.375791852,-2.155677458,-1.604553048,0.116186142,0,-0.267637555,-1.036294298,1.375791852,-2.155677458,-1.604553048,0.116186142,0,-0.9394,-1.5706,-0.379
2025-09-12T21:26:48.633986,-0.268353287,-1.035525636,1.377239529,-2.156013151,-1.604517285,0.11632967,0,-0.268353287,-1.035525636,1.377239529,-2.156013151,-1.604517285,0.11632967,0,-1.0394,-1.5306,-0.159
2025-09-12T21:26:48.681961,-0.268901173,-1.034818963,1.378401105,-2.156287809,-1.604553048,0.116389275,0,-0.268901173,-1.034818963,1.378401105,-2.156287809,-1.604553048,0.116389275,0,-0.9194,-1.4706,-0.139
2025-09-12T21:26:48.730027,-0.269222085,-1.034230546,1.379396741,-2.156479021,-1.604553048,0.116486549,0,-0.269222085,-1.034230546,1.379396741,-2.156479021,-1.604553048,0.116486549,0,-0.8594,-1.4706,-0.339
2025-09-12T21:26:48.778109,-0.269340817,-1.033448533,1.380525891,-2.156574389,-1.604541127,0.11665535,0,-0.269340817,-1.033448533,1.380525891,-2.156574389,-1.604541127,0.11665535,0,-0.8594,-1.4306,-0.239
2025-09-12T21:26:48.826105,-0.269399468,-1.032376603,1.38189346,-2.156669756,-1.604553048,0.116942406,0,-0.269399468,-1.032376603,1.38189346,-2.156669756,-1.604553048,0.116942406,0,-0.9394,-1.4706,-0.299
2025-09-12T21:26:48.874139,-0.269422356,-1.030896978,1.383259122,-2.156681677,-1.604541127,0.11720562,0,-0.269422356,-1.030896978,1.383259122,-2.156681677,-1.604541127,0.11720562,0,-0.8794,-1.5106,-0.119
2025-09-12T21:26:48.922138,-0.269350354,-1.029181318,1.38450462,-2.156729837,-1.604541127,0.117433071,0,-0.269350354,-1.029181318,1.38450462,-2.156729837,-1.604541127,0.117433071,0,-0.9994,-1.4906,-0.099
2025-09-12T21:26:48.970253,-0.269206349,-1.027623491,1.38538963,-2.15671744,-1.60457689,0.117611885,0,-0.269206349,-1.027623491,1.38538963,-2.15671744,-1.60457689,0.117611885,0,-0.9594,-1.4506,-0.099
2025-09-12T21:26:49.018181,-0.269122426,-1.026293115,1.386314694,-2.156753202,-1.604541127,0.117767334,0,-0.269122426,-1.026293115,1.386314694,-2.156753202,-1.604541127,0.117767334,0,-0.9394,-1.3306,-0.099
2025-09-12T21:26:49.066243,-0.268990819,-1.024998025,1.387358014,-2.156729361,-1.604553048,0.117910862,0,-0.268990819,-1.024998025,1.387358014,-2.156729361,-1.604553048,0.117910862,0,-0.8994,-1.3506,-0.179
2025-09-12T21:26:49.114303,-0.268847291,-1.023567991,1.388365094,-2.1567656,-1.604541127,0.117958069,0,-0.268847291,-1.023567991,1.388365094,-2.1567656,-1.604541127,0.117958069,0,-0.9594,-1.4306,-0.159
2025-09-12T21:26:49.162290,-0.268715684,-1.022044019,1.389225308,-2.156753202,-1.604553048,0.11801815,0,-0.268715684,-1.022044019,1.389225308,-2.156753202,-1.604553048,0.11801815,0,-0.9394,-1.3506,-0.099
2025-09-12T21:26:49.210337,-0.268619839,-1.020408468,1.389847104,-2.156777521,-1.60457689,0.118077755,0,-0.268619839,-1.020408468,1.389847104,-2.156777521,-1.60457689,0.118077755,0,-0.9394,-1.3706,-0.239
2025-09-12T21:26:49.258381,-0.268525426,-1.018243627,1.390253369,-2.1567656,-1.604541127,0.118065834,0,-0.268525426,-1.018243627,1.390253369,-2.1567656,-1.604541127,0.118065834,0,-0.9194,-1.4306,-0.199
2025-09-12T21:26:49.306377,-0.268561665,-1.015760259,1.390466992,-2.156741282,-1.604553048,0.118101597,0,-0.268561665,-1.015760259,1.390466992,-2.156741282,-1.604553048,0.118101597,0,-0.9194,-1.4306,-0.079
2025-09-12T21:26:49.354382,-0.268513505,-1.013407544,1.390415494,-2.156753202,-1.604553048,0.118101597,0,-0.268513505,-1.013407544,1.390415494,-2.156753202,-1.604553048,0.118101597,0,-0.9194,-1.3706,-0.339
2025-09-12T21:26:49.402426,-0.268501584,-1.010789709,1.390003506,-2.156777521,-1.604553048,0.118113518,0,-0.268501584,-1.010789709,1.390003506,-2.156777521,-1.604553048,0.118113518,0,-0.8594,-1.3706,0.001
2025-09-12T21:26:49.450480,-0.268488232,-1.008370237,1.389208142,-2.156753202,-1.604503934,0.11813736,0,-0.268488232,-1.008370237,1.389208142,-2.156753202,-1.604503934,0.11813736,0,-0.9994,-1.2706,0.021
2025-09-12T21:26:49.498522,-0.268210713,-1.006078557,1.387932126,-2.156753202,-1.604370419,0.11813736,0,-0.268210713,-1.006078557,1.387932126,-2.156753202,-1.604370419,0.11813736,0,-0.9594,-1.4306,0.001
2025-09-12T21:26:49.546581,-0.267889802,-1.003923253,1.386381451,-2.156777044,-1.604096238,0.118113041,0,-0.267889802,-1.003923253,1.386381451,-2.156777044,-1.604096238,0.118113041,0,-0.7794,-1.3106,-0.059
2025-09-12T21:26:49.594649,-0.267927949,-1.002065019,1.384496991,-2.156777044,-1.604061429,0.118113518,0,-0.267927949,-1.002065019,1.384496991,-2.156777044,-1.604061429,0.118113518,0,-1.0394,-1.1306,-0.179
2025-09-12T21:26:49.642564,-0.26790363,-1.000423746,1.382652585,-2.156800886,-1.604097668,0.11813736,0,-0.26790363,-1.000423746,1.382652585,-2.156800886,-1.604097668,0.11813736,0,-0.7994,-1.2906,-0.159
2025-09-12T21:26:49.690611,-0.267927472,-0.999059514,1.380819623,-2.156753202,-1.604146306,0.118089199,0.012061942,-0.267927472,-0.999059514,1.380819623,-2.156753202,-1.604146306,0.118089199,0.012061942,-0.8594,-1.2306,-0.099
2025-09-12T21:26:49.738624,-0.268060509,-0.998056726,1.379238431,-2.1567656,-1.604193989,0.118113041,0.016325977,-0.268060509,-0.998056726,1.379238431,-2.1567656,-1.604193989,0.118113041,0.016325977,-0.8594,-1.2706,-0.119
2025-09-12T21:26:49.786673,-0.268179242,-0.997484521,1.378067319,-2.1567656,-1.604169194,0.11793232,0.028798862,-0.268179242,-0.997484521,1.378067319,-2.1567656,-1.604169194,0.11793232,0.028798862,-0.8394,-1.2906,-0.099
2025-09-12T21:26:49.834753,-0.268251721,-0.997271852,1.377107922,-2.156800886,-1.604109112,0.117835522,0.049640667,-0.268251721,-0.997271852,1.377107922,-2.156800886,-1.604109112,0.117835522,0.049640667,-1.0194,-1.2706,-0.099
2025-09-12T21:26:49.866744,-0.268334691,-0.997296647,1.376247708,-2.156789442,-1.603987519,0.117667675,0.056064208,-0.268334691,-0.997296647,1.376247708,-2.156789442,-1.603987519,0.117667675,0.056064208,-0.8994,-1.2706,-0.199
2025-09-12T21:26:49.898753,-0.268334214,-0.997236566,1.375793759,-2.156777044,-1.603929345,0.117573261,0.056128443,-0.268334214,-0.997236566,1.375793759,-2.156777044,-1.603929345,0.117573261,0.056128443,-0.8794,-1.1106,-0.499
2025-09-12T21:26:49.930765,-0.268358056,-0.997224168,1.375507657,-2.156777044,-1.603858296,0.117537975,0.056129086,-0.268358056,-0.997224168,1.375507657,-2.156777044,-1.603858296,0.117537975,0.056129086,-0.7994,-1.0706,0.021
2025-09-12T21:26:49.978773,-0.268358056,-0.997212247,1.375305478,-2.156741282,-1.603882615,0.117550373,0.070631045,-0.268358056,-0.997212247,1.375305478,-2.156741282,-1.603882615,0.117550373,0.070631045,-0.9794,-1.2506,-0.159
2025-09-12T21:26:50.010801,-0.268346135,-0.997140722,1.375078503,-2.156800886,-1.603942219,0.117562771,0.093564848,-0.268346135,-0.997140722,1.375078503,-2.156800886,-1.603942219,0.117562771,0.093564848,-0.8994,-1.3106,-0.159
2025-09-12T21:26:50.058842,-0.268369977,-0.997188882,1.375006024,-2.1567656,-1.603941266,0.117598534,0.095865894,-0.268369977,-0.997188882,1.375006024,-2.1567656,-1.603941266,0.117598534,0.095865894,-0.8794,-1.2306,-0.339
2025-09-12T21:26:50.090841,-0.268406216,-0.997128324,1.374876324,-2.156753202,-1.603832547,0.117574215,0.095888904,-0.268406216,-0.997128324,1.374876324,-2.156753202,-1.603832547,0.117574215,0.095888904,-0.9194,-1.3306,-0.079
2025-09-12T21:26:50.122858,-0.268358056,-0.99708064,1.374792401,-2.156777044,-1.603748147,0.117621899,0.097960842,-0.268358056,-0.99708064,1.374792401,-2.156777044,-1.603748147,0.117621899,0.097960842,-0.9994,-1.2706,-0.119
2025-09-12T21:26:50.154939,-0.268357579,-0.997044401,1.374792401,-2.156753202,-1.603641812,0.117610455,0.104196684,-0.268357579,-0.997044401,1.374792401,-2.156753202,-1.603641812,0.117610455,0.104196684,-0.7994,-1.2906,-0.119
2025-09-12T21:26:50.186902,-0.268273656,-0.997056798,1.374708478,-2.156753202,-1.603618447,0.117671013,0.104259043,-0.268273656,-0.997056798,1.374708478,-2.156753202,-1.603618447,0.117671013,0.104259043,-0.8394,-1.2906,-0.199
2025-09-12T21:26:50.218936,-0.268250291,-0.997068719,1.374624554,-2.156777044,-1.603666608,0.117695332,0.104259666,-0.268250291,-0.997068719,1.374624554,-2.156777044,-1.603666608,0.117695332,0.104259666,-0.8594,-1.3106,-0.159
2025-09-12T21:26:50.250954,-0.268237416,-0.99708064,1.374563519,-2.15680184,-1.603642289,0.117731094,0.110474795,-0.268237416,-0.99708064,1.374563519,-2.15680184,-1.603642289,0.117731094,0.110474795,-1.0194,-1.3306,-0.199
2025-09-12T21:26:50.282980,-0.268200223,-0.99708064,1.374552075,-2.156886717,-1.603628937,0.117790222,0.135397438,-0.268200223,-0.99708064,1.374552075,-2.156886717,-1.603628937,0.117790222,0.135397438,-0.9794,-1.2706,-0.239
2025-09-12T21:26:50.330986,-0.268045727,-0.997068719,1.374540631,-2.156981131,-1.603521172,0.117813587,0.154292032,-0.268045727,-0.997068719,1.374540631,-2.156981131,-1.603521172,0.117813587,0.154292032,-0.6994,-1.2906,-0.519
2025-09-12T21:26:50.362990,-0.268010441,-0.997056798,1.374504391,-2.156957289,-1.603474442,0.117790222,0.158624394,-0.268010441,-0.997056798,1.374504391,-2.156957289,-1.603474442,0.117790222,0.158624394,-1.0594,-1.2106,-0.219
2025-09-12T21:26:50.395064,-0.267889802,-0.997068719,1.374529187,-2.156982084,-1.603474919,0.117802143,0.162811132,-0.267889802,-0.997068719,1.374529187,-2.156982084,-1.603474919,0.117802143,0.162811132,-0.7794,-1.0706,0.021
2025-09-12T21:26:50.443096,-0.267843072,-0.99708064,1.374517743,-2.15708985,-1.603474442,0.117790699,0.164924707,-0.267843072,-0.99708064,1.374517743,-2.15708985,-1.603474442,0.117790699,0.164924707,-0.7994,-1.2506,-0.239
2025-09-12T21:26:50.491157,-0.26786739,-0.997081594,1.374674145,-2.157053133,-1.603377644,0.117922783,0.169089258,-0.26786739,-0.997081594,1.374674145,-2.157053133,-1.603377644,0.117922783,0.169089258,-0.7994,-1.4106,-0.019
2025-09-12T21:26:50.539119,-0.267855469,-0.99723895,1.374637906,-2.157065054,-1.60331804,0.117910385,0.175346027,-0.267855469,-0.99723895,1.374637906,-2.157065054,-1.60331804,0.117910385,0.175346027,-0.9594,-1.2506,-0.239
2025-09-12T21:26:50.587209,-0.267831151,-0.997491197,1.374866788,-2.157028814,-1.603222195,0.118006229,0.198197378,-0.267831151,-0.997491197,1.374866788,-2.157028814,-1.603222195,0.118006229,0.198197378,-0.8994,-1.3306,-0.079
2025-09-12T21:26:50.635213,-0.267770116,-0.997743921,1.375109021,-2.156993052,-1.603162591,0.117993832,0.217071259,-0.267770116,-0.997743921,1.375109021,-2.156993052,-1.603162591,0.117993832,0.217071259,-0.9394,-1.2506,-0.439
2025-09-12T21:26:50.683203,-0.267590825,-0.998019533,1.375696484,-2.157127043,-1.603102986,0.118017673,0.227618536,-0.267590825,-0.998019533,1.375696484,-2.157127043,-1.603102986,0.118017673,0.227618536,-0.8794,-1.3706,-0.059
2025-09-12T21:26:50.731233,-0.26744682,-0.998284177,1.376129452,-2.157404562,-1.603103463,0.118053436,0.231867424,-0.26744682,-0.998284177,1.376129452,-2.157404562,-1.603103463,0.118053436,0.231867424,-0.7594,-1.1906,-0.359
2025-09-12T21:26:50.779237,-0.267328087,-0.998401479,1.376705472,-2.15755858,-1.603211705,0.118101597,0.271272357,-0.267328087,-0.998401479,1.376705472,-2.15755858,-1.603211705,0.118101597,0.271272357,-0.9994,-1.3106,0.061
2025-09-12T21:26:50.827314,-0.267208401,-0.998695688,1.377315823,-2.157750746,-1.603259389,0.118089676,0.273738114,-0.267208401,-0.998695688,1.377315823,-2.157750746,-1.603259389,0.118089676,0.273738114,-0.9594,-1.2906,-0.259
2025-09-12T21:26:50.875311,-0.267100636,-0.999574499,1.377819363,-2.157906672,-1.603332345,0.118101597,0.273762772,-0.267100636,-0.999574499,1.377819363,-2.157906672,-1.603332345,0.118101597,0.273762772,-0.9194,-1.2506,0.041
2025-09-12T21:26:50.923358,-0.267016713,-1.000572042,1.378345791,-2.157990118,-1.603489224,0.118101597,0.273763018,-0.267016713,-1.000572042,1.378345791,-2.157990118,-1.603489224,0.118101597,0.273763018,-0.8594,-1.2506,-0.099
2025-09-12T21:26:50.971404,-0.266981904,-1.001785592,1.378814999,-2.158061644,-1.603668515,0.118101597,0.292408389,-0.266981904,-1.001785592,1.378814999,-2.158061644,-1.603668515,0.118101597,0.292408389,-0.9594,-1.2906,-0.279
2025-09-12T21:26:51.019506,-0.267029587,-1.002899484,1.379173581,-2.158145567,-1.603834931,0.118089676,0.321598749,-0.267029587,-1.002899484,1.379173581,-2.158145567,-1.603834931,0.118089676,0.321598749,-0.8994,-1.3506,-0.299
2025-09-12T21:26:51.067476,-0.266993825,-1.003979043,1.379738156,-2.158218046,-1.603810136,0.118065357,0.338464313,-0.266993825,-1.003979043,1.379738156,-2.158218046,-1.603810136,0.118065357,0.338464313,-0.7994,-1.2306,-0.299
2025-09-12T21:26:51.115519,-0.266921822,-1.005058603,1.380205456,-2.15822949,-1.603919331,0.118125439,0.338632969,-0.266921822,-1.005058603,1.380205456,-2.15822949,-1.603919331,0.118125439,0.338632969,-0.9194,-1.2706,-0.259
2025-09-12T21:26:51.163541,-0.266969983,-1.006174878,1.380720441,-2.158253332,-1.604026143,0.11813736,0.355208316,-0.266969983,-1.006174878,1.380720441,-2.158253332,-1.604026143,0.11813736,0.355208316,-0.9194,-1.2706,-0.199
2025-09-12T21:26:51.211518,-0.266921822,-1.007265882,1.381162945,-2.158253332,-1.603977029,0.118149281,0.357445777,-0.266921822,-1.007265882,1.381162945,-2.158253332,-1.603977029,0.118149281,0.357445777,-0.8394,-1.2906,-0.159
2025-09-12T21:26:51.259561,-0.266946141,-1.008224801,1.381170575,-2.158253332,-1.603881661,0.118113041,0.380256935,-0.266946141,-1.008224801,1.381170575,-2.158253332,-1.603881661,0.118113041,0.380256935,-0.8594,-1.3306,-0.119
2025-09-12T21:26:51.291626,-0.266933743,-1.009085492,1.381136243,-2.158289095,-1.603845898,0.118089199,0.384628462,-0.266933743,-1.009085492,1.381136243,-2.158289095,-1.603845898,0.118089199,0.384628462,-0.9594,-1.3106,-0.239
2025-09-12T21:26:51.323647,-0.266909901,-1.009491758,1.381134335,-2.158301016,-1.603883092,0.118113041,0.384672177,-0.266909901,-1.009491758,1.381134335,-2.158301016,-1.603883092,0.118113041,0.384672177,-0.9794,-1.3706,0.001
2025-09-12T21:26:51.355625,-0.266946141,-1.009717779,1.381136243,-2.158324858,-1.603978936,0.118125439,0.384672615,-0.266946141,-1.009717779,1.381136243,-2.158324858,-1.603978936,0.118125439,0.384672615,-0.8994,-1.3106,-0.259
2025-09-12T21:26:51.387656,-0.266885106,-1.009848909,1.381086651,-2.158336779,-1.604039017,0.118101597,0.384672619,-0.266885106,-1.009848909,1.381086651,-2.158336779,-1.604039017,0.118101597,0.384672619,-0.8994,-1.3306,-0.179
2025-09-12T21:26:51.419648,-0.266763035,-1.010003881,1.381002728,-2.158301016,-1.604062382,0.118113041,0.384672619,-0.266763035,-1.010003881,1.381002728,-2.158301016,-1.604062382,0.118113041,0.384672619,-0.9994,-1.2706,-0.119
2025-09-12T21:26:51.467708,-0.266535107,-1.010087804,1.38097984,-2.158264776,-1.604037587,0.118125439,0.384672619,-0.266535107,-1.010087804,1.38097984,-2.158264776,-1.604037587,0.118125439,0.384672619,-0.8994,-1.3106,-0.159
2025-09-12T21:26:51.499728,-0.266225163,-1.010231809,1.380895917,-2.158301016,-1.604098145,0.118125439,0.384672619,-0.266225163,-1.010231809,1.380895917,-2.158301016,-1.604098145,0.118125439,0.384672619,-0.8794,-1.2906,-0.219
2025-09-12T21:26:51.531746,-0.266082112,-1.010362939,1.380823437,-2.158277174,-1.604061429,0.11813736,0.386744327,-0.266082112,-1.010362939,1.380823437,-2.158277174,-1.604061429,0.11813736,0.386744327,-0.8794,-1.3306,-0.279
2025-09-12T21:26:51.563750,-0.266023461,-1.010314302,1.380811993,-2.158301016,-1.604013268,0.11813736,0.390908459,-0.266023461,-1.010314302,1.380811993,-2.158301016,-1.604013268,0.11813736,0.390908459,-0.8794,-1.2706,-0.139
2025-09-12T21:26:51.595870,-0.265903775,-1.010302381,1.380726163,-2.158312937,-1.603953664,0.118101597,0.393021808,-0.265903775,-1.010302381,1.380726163,-2.158312937,-1.603953664,0.118101597,0.393021808,-0.9594,-1.2906,-0.139
2025-09-12T21:26:51.643824,-0.265807931,-1.010278062,1.38069183,-2.158301016,-1.60395271,0.11813736,0.393042941,-0.265807931,-1.010278062,1.38069183,-2.158301016,-1.60395271,0.11813736,0.393042941,-0.9794,-1.3106,-0.239
2025-09-12T21:26:51.691926,-0.265748326,-1.010157422,1.380667035,-2.158312937,-1.603881661,0.118101597,0.393043153,-0.265748326,-1.010157422,1.380667035,-2.158312937,-1.603881661,0.118101597,0.393043153,-0.8794,-1.2906,-0.179
2025-09-12T21:26:51.739879,-0.265652959,-1.010121183,1.380630795,-2.158301016,-1.60390598,0.118125439,0.393043155,-0.265652959,-1.010121183,1.380630795,-2.158301016,-1.60390598,0.118125439,0.393043155,-0.9194,-1.3906,-0.199
2025-09-12T21:26:51.787904,-0.265592877,-1.009939508,1.380655591,-2.158301016,-1.603809659,0.11813736,0.39718657,-0.265592877,-1.009939508,1.380655591,-2.158301016,-1.603809659,0.11813736,0.39718657,-0.8994,-1.2506,-0.299
2025-09-12T21:26:51.836003,-0.265483681,-1.00963767,1.380716626,-2.158336779,-1.603870217,0.118113041,0.407586542,-0.265483681,-1.00963767,1.380716626,-2.158336779,-1.603870217,0.118113041,0.407586542,-0.9594,-1.2706,-0.219
2025-09-12T21:26:51.867914,-0.26521999,-1.009205179,1.380911175,-2.158312937,-1.603784386,0.118089199,0.409762249,-0.26521999,-1.009205179,1.380911175,-2.158312937,-1.603784386,0.118089199,0.409762249,-0.7794,-1.3306,-0.399
2025-09-12T21:26:51.899928,-0.26512653,-1.008759813,1.381054227,-2.158312937,-1.603653256,0.118077278,0.413927422,-0.26512653,-1.008759813,1.381054227,-2.158312937,-1.603653256,0.118077278,0.413927422,-0.8794,-1.3106,-0.219
2025-09-12T21:26:51.931982,-0.265114133,-1.008399801,1.381199185,-2.158301016,-1.603593175,0.118125439,0.413969073,-0.265114133,-1.008399801,1.381199185,-2.158301016,-1.603593175,0.118125439,0.413969073,-0.9794,-1.4306,-0.159
2025-09-12T21:26:51.963960,-0.265016858,-1.007931547,1.381317441,-2.158336779,-1.603533093,0.118113041,0.41396949,-0.265016858,-1.007931547,1.381317441,-2.158336779,-1.603533093,0.118113041,0.41396949,-0.9594,-1.2506,-0.319
2025-09-12T21:26:51.995982,-0.264885251,-1.007414178,1.381304089,-2.158277174,-1.603413407,0.118125439,0.420184617,-0.264885251,-1.007414178,1.381304089,-2.158277174,-1.603413407,0.118125439,0.420184617,-0.9394,-1.3106,-0.239
2025-09-12T21:26:52.044003,-0.264693562,-1.006948308,1.381315533,-2.158288618,-1.603353326,0.118101597,0.428533598,-0.264693562,-1.006948308,1.381315533,-2.158288618,-1.603353326,0.118101597,0.428533598,-0.8794,-1.2906,-0.239
2025-09-12T21:26:52.076125,-0.264502827,-1.006349401,1.381277386,-2.158312937,-1.603246037,0.118101597,0.432760503,-0.264502827,-1.006349401,1.381277386,-2.158312937,-1.603246037,0.118101597,0.432760503,-0.9194,-1.2906,-0.119
2025-09-12T21:26:52.108054,-0.264383618,-1.005965547,1.381243054,-2.158312937,-1.603198353,0.11810112,0.432802772,-0.264383618,-1.005965547,1.381243054,-2.158312937,-1.603198353,0.11810112,0.432802772,-0.8794,-1.2506,-0.279
2025-09-12T21:26:52.140154,-0.264300172,-1.005628423,1.381206814,-2.158301016,-1.603162591,0.118125439,0.449376856,-0.264300172,-1.005628423,1.381206814,-2.158301016,-1.603162591,0.118125439,0.449376856,-0.8594,-1.2906,-0.199
2025-09-12T21:26:52.172152,-0.264252488,-1.005269365,1.381122891,-2.158336779,-1.603138749,0.118259907,0.461972842,-0.264252488,-1.005269365,1.381122891,-2.158336779,-1.603138749,0.118259907,0.461972842,-0.8794,-1.2506,-0.219
2025-09-12T21:26:52.204146,-0.264169041,-1.004922704,1.381086651,-2.158301016,-1.603126828,0.118489265,0.470385632,-0.264169041,-1.004922704,1.381086651,-2.158301016,-1.603126828,0.118489265,0.470385632,-0.9194,-1.2906,-0.139
2025-09-12T21:26:52.236154,-0.26410896,-1.00462325,1.381027524,-2.158301016,-1.603126828,0.118775845,0.480828298,-0.26410896,-1.00462325,1.381027524,-2.158301016,-1.603126828,0.118775845,0.480828298,-0.8794,-1.3106,-0.139
2025-09-12T21:26:52.268170,-0.264121358,-1.004396276,1.38097984,-2.158336779,-1.603079144,0.118942261,0.48507614,-0.264121358,-1.004396276,1.38097984,-2.158336779,-1.603079144,0.118942261,0.48507614,-0.8194,-1.3106,-0.179
2025-09-12T21:26:52.300178,-0.264037434,-1.004253225,1.380894009,-2.158301016,-1.603067223,0.119109631,0.485118619,-0.264037434,-1.004253225,1.380894009,-2.158301016,-1.603067223,0.119109631,0.485118619,-0.8594,-1.3306,-0.099
2025-09-12T21:26:52.332201,-0.264001195,-1.004061536,1.380590741,-2.158301016,-1.60303146,0.11922884,0.485119043,-0.264001195,-1.004061536,1.380590741,-2.158301016,-1.60303146,0.11922884,0.485119043,-0.9394,-1.3506,-0.159
2025-09-12T21:26:52.364213,-0.263965432,-1.004013852,1.380352322,-2.158324858,-1.60303146,0.119312763,0.487190755,-0.263965432,-1.004013852,1.380352322,-2.158324858,-1.60303146,0.119312763,0.487190755,-0.9194,-1.3106,-0.219
2025-09-12T21:26:52.396253,-0.263917748,-1.003881292,1.380148236,-2.158301016,-1.603007142,0.119384289,0.487211472,-0.263917748,-1.003881292,1.380148236,-2.158301016,-1.603007142,0.119384289,0.487211472,-0.9394,-1.3306,-0.039
2025-09-12T21:26:52.428273,-0.263894383,-1.003737764,1.379799191,-2.158312937,-1.603055302,0.119455814,0.491355095,-0.263894383,-1.003737764,1.379799191,-2.158312937,-1.603055302,0.119455814,0.491355095,-0.8794,-1.2506,-0.199
2025-09-12T21:26:52.460256,-0.263906304,-1.003701524,1.379476849,-2.1583487,-1.603019063,0.119503498,0.499683361,-0.263906304,-1.003701524,1.379476849,-2.1583487,-1.603019063,0.119503498,0.499683361,-0.9194,-1.2306,-0.219
2025-09-12T21:26:52.492300,-0.263858143,-1.003570871,1.37918884,-2.158301016,-1.603007619,0.119515419,0.526698843,-0.263858143,-1.003570871,1.37918884,-2.158301016,-1.603007619,0.119515419,0.526698843,-1.0194,-1.2706,-0.059
2025-09-12T21:26:52.524308,-0.263870541,-1.003571824,1.378973309,-2.158336779,-1.603007619,0.119612217,0.53318412,-0.263870541,-1.003571824,1.378973309,-2.158336779,-1.603007619,0.119612217,0.53318412,-0.9194,-1.3306,-0.319
2025-09-12T21:26:52.556338,-0.263870541,-1.00363286,1.378784482,-2.158301016,-1.603043381,0.119756699,0.533248973,-0.263870541,-1.00363286,1.378784482,-2.158301016,-1.603043381,0.119756699,0.533248973,-0.8194,-1.3906,-0.439
2025-09-12T21:26:52.588380,-0.263846223,-1.003692464,1.378809277,-2.15846171,-1.602995221,0.119924545,0.533249621,-0.263846223,-1.003692464,1.378809277,-2.15846171,-1.602995221,0.119924545,0.533249621,-0.8794,-1.3906,-0.159
2025-09-12T21:26:52.620360,-0.263882462,-1.003729181,1.378761593,-2.158776423,-1.603092019,0.120068073,0.537393043,-0.263882462,-1.003729181,1.378761593,-2.158776423,-1.603092019,0.120068073,0.537393043,-1.0594,-1.3106,-0.199
2025-09-12T21:26:52.652379,-0.26385862,-1.003836946,1.378786389,-2.159445425,-1.603129212,0.120247841,0.5436496,-0.26385862,-1.003836946,1.378786389,-2.159445425,-1.603129212,0.120247841,0.5436496,-0.8994,-1.4906,-0.199
2025-09-12T21:26:52.684411,-0.263882462,-1.003897027,1.378883664,-2.161194941,-1.603297536,0.120439529,0.547855581,-0.263882462,-1.003897027,1.378883664,-2.161194941,-1.603297536,0.120439529,0.547855581,-0.8594,-1.3506,-0.259
2025-09-12T21:26:52.732410,-0.26385862,-1.004041509,1.379186932,-2.163590094,-1.603489224,0.120534897,0.560327886,-0.26385862,-1.004041509,1.379186932,-2.163590094,-1.603489224,0.120534897,0.560327886,-1.0194,-1.6706,-0.219
2025-09-12T21:26:52.764449,-0.263846699,-1.004257516,1.379764859,-2.168758055,-1.60369331,0.120738029,0.562524317,-0.263846699,-1.004257516,1.379764859,-2.168758055,-1.60369331,0.120738029,0.562524317,-1.1394,-1.5306,-0.319
2025-09-12T21:26:52.796459,-0.263834302,-1.00434144,1.380268399,-2.172059675,-1.60386068,0.120833397,0.562546281,-0.263834302,-1.00434144,1.380268399,-2.172059675,-1.60386068,0.120833397,0.562546281,-1.0194,-1.4506,-0.139
2025-09-12T21:26:52.828521,-0.263846699,-1.004485444,1.380918805,-2.174920698,-1.603920285,0.120905399,0.579120161,-0.263846699,-1.004485444,1.380918805,-2.174920698,-1.603920285,0.120905399,0.579120161,-1.1194,-1.4706,-0.099
2025-09-12T21:26:52.860556,-0.263882462,-1.004569368,1.381590192,-2.177473208,-1.604063336,0.120964527,0.604146391,-0.263882462,-1.004569368,1.381590192,-2.177473208,-1.604063336,0.120964527,0.604146391,-0.8194,-1.1906,-0.319
2025-09-12T21:26:52.892554,-0.263822381,-1.004627542,1.382347409,-2.179950853,-1.60411102,0.121014118,0.606468361,-0.263822381,-1.004627542,1.382347409,-2.179950853,-1.60411102,0.121014118,0.606468361,-0.7394,-0.9306,-0.479
2025-09-12T21:26:52.924549,-0.263822381,-1.0046037,1.383114163,-2.181806227,-1.604219262,0.121192455,0.606491581,-0.263822381,-1.0046037,1.383114163,-2.181806227,-1.604219262,0.121192455,0.606491581,-0.8194,-1.8306,-0.039
2025-09-12T21:26:52.956576,-0.263870541,-1.004604654,1.383795087,-2.183506151,-1.604315106,0.121277809,0.606491813,-0.263870541,-1.004604654,1.383795087,-2.183506151,-1.604315106,0.121277809,0.606491813,-1.1394,-1.3506,-0.139
2025-09-12T21:26:52.988590,-0.263846699,-1.004773931,1.384273831,-2.184987684,-1.604314152,0.121396542,0.606491815,-0.263846699,-1.004773931,1.384273831,-2.184987684,-1.604314152,0.121396542,0.606491815,-0.8994,-1.6506,-0.099
2025-09-12T21:26:53.020626,-0.263846699,-1.00496705,1.38469154,-2.186209341,-1.604374234,0.121468544,0.606491815,-0.263846699,-1.00496705,1.38469154,-2.186209341,-1.604374234,0.121468544,0.606491815,-0.8794,-1.3506,-0.179
2025-09-12T21:26:53.052635,-0.263870541,-1.005242662,1.38507301,-2.186951777,-1.604445759,0.121551991,0.606491815,-0.263870541,-1.005242662,1.38507301,-2.186951777,-1.604445759,0.121551991,0.606491815,-0.8594,-1.4706,-0.239
2025-09-12T21:26:53.084746,-0.263798539,-1.005363302,1.38536102,-2.187770029,-1.604469601,0.121634483,0.606491815,-0.263798539,-1.005363302,1.38536102,-2.187770029,-1.604469601,0.121634483,0.606491815,-0.9194,-1.5506,-0.139
2025-09-12T21:26:53.132754,-0.263834302,-1.005700902,1.38573486,-2.188616892,-1.604457204,0.1215868,0.606491815,-0.263834302,-1.005700902,1.38573486,-2.188616892,-1.604457204,0.1215868,0.606491815,-0.9194,-1.2706,-0.179
2025-09-12T21:26:53.164808,-0.263834302,-1.006228284,1.386310879,-2.189164301,-1.604505364,0.121562481,0.606491815,-0.263834302,-1.006228284,1.386310879,-2.189164301,-1.604505364,0.121562481,0.606491815,-0.9994,-1.3306,-0.219
2025-09-12T21:26:53.196815,-0.26385862,-1.006527738,1.386757199,-2.189378878,-1.604504887,0.121587276,0.606491815,-0.26385862,-1.006527738,1.386757199,-2.189378878,-1.604504887,0.121587276,0.606491815,-0.8594,-1.5106,-0.299
2025-09-12T21:26:53.228826,-0.263846699,-1.006778554,1.387382809,-2.189606329,-1.604505364,0.12171936,0.604420108,-0.263846699,-1.006778554,1.387382809,-2.189606329,-1.604505364,0.12171936,0.604420108,-0.8594,-1.4106,-0.379
2025-09-12T21:26:53.276813,-0.263822858,-1.006945924,1.388235394,-2.189821859,-1.604529206,0.121730328,0.604399391,-0.263822858,-1.006945924,1.388235394,-2.189821859,-1.604529206,0.121730328,0.604399391,-0.9594,-1.4706,-0.159
2025-09-12T21:26:53.324831,-0.263834302,-1.007381276,1.389496152,-2.190038343,-1.604530636,0.121730328,0.602327476,-0.263834302,-1.007381276,1.389496152,-2.190038343,-1.604530636,0.121730328,0.602327476,-0.8594,-1.4306,-0.279
2025-09-12T21:26:53.372899,-0.263798539,-1.007967309,1.390850369,-2.190144678,-1.604819123,0.121816158,0.600235049,-0.263798539,-1.007967309,1.390850369,-2.190144678,-1.604819123,0.121816158,0.600235049,-0.9194,-1.4706,-0.239
2025-09-12T21:26:53.420920,-0.263822858,-1.008303956,1.392109219,-2.190287729,-1.605082814,0.121971607,0.600214125,-0.263822858,-1.008303956,1.392109219,-2.190287729,-1.605082814,0.121971607,0.600214125,-0.8994,-1.3306,-0.179
2025-09-12T21:26:53.452909,-0.263834302,-1.008880453,1.393539731,-2.19022574,-1.605287854,0.122175217,0.602285623,-0.263834302,-1.008880453,1.393539731,-2.19022574,-1.605287854,0.122175217,0.602285623,-0.8194,-1.2906,-0.279
2025-09-12T21:26:53.484960,-0.263833825,-1.009202794,1.394586865,-2.190165659,-1.605611626,0.122235298,0.602306338,-0.263833825,-1.009202794,1.394586865,-2.190165659,-1.605611626,0.122235298,0.602306338,-0.9794,-1.3106,-0.359
2025-09-12T21:26:53.532950,-0.263711278,-1.009491281,1.396091763,-2.190045019,-1.605923478,0.122281551,0.602306546,-0.263711278,-1.009491281,1.396091763,-2.190045019,-1.605923478,0.122281551,0.602306546,-1.0594,-0.4506,-4.119
2025-09-12T21:26:53.580999,-0.263376061,-1.010188417,1.398977582,-2.189948221,-1.606341664,0.122220039,0.604378255,-0.263376061,-1.010188417,1.398977582,-2.189948221,-1.606341664,0.122220039,0.604378255,-1.2394,0.8294,-8.179
2025-09-12T21:26:53.612982,-0.263066594,-1.010715799,1.402109448,-2.18997397,-1.606843297,0.122039318,0.604398972,-0.263066594,-1.010715799,1.402109448,-2.18997397,-1.606843297,0.122039318,0.604398972,-3.2194,5.0094,-22.179
2025-09-12T21:26:53.645029,-0.263053719,-1.011427717,1.404253308,-2.189995428,-1.607128922,0.121931553,0.604399179,-0.263053719,-1.011427717,1.404253308,-2.189995428,-1.607128922,0.121931553,0.604399179,-3.6794,7.5494,-30.499
2025-09-12T21:26:53.677032,-0.262716595,-1.01210864,1.40643913,-2.189958235,-1.607247655,0.121812344,0.606470889,-0.262716595,-1.01210864,1.40643913,-2.189958235,-1.607247655,0.121812344,0.606470889,-3.6594,11.0294,-40.579
2025-09-12T21:26:53.709071,-0.262465302,-1.012707548,1.408691708,-2.189897677,-1.607332532,0.121668816,0.606491606,-0.262465302,-1.012707548,1.408691708,-2.189897677,-1.607332532,0.121668816,0.606491606,-4.5194,14.3094,-48.579
2025-09-12T21:26:53.741084,-0.262228791,-1.013062314,1.410833661,-2.189570566,-1.60740215,0.121585369,0.612706936,-0.262228791,-1.013062314,1.410833661,-2.189570566,-1.60740215,0.121585369,0.612706936,-6.6194,16.4694,-42.659
2025-09-12T21:26:53.773142,-0.26225454,-1.012502984,1.413259808,-2.189109942,-1.607247178,0.121561527,0.633486165,-0.26225454,-1.012502984,1.413259808,-2.189109942,-1.607247178,0.121561527,0.633486165,-5.6194,17.5894,-40.739
2025-09-12T21:26:53.805182,-0.262218777,-1.012132482,1.41531593,-2.189038893,-1.607104127,0.121477604,0.63990908,-0.262218777,-1.012132482,1.41531593,-2.189038893,-1.607104127,0.121477604,0.63990908,-4.8594,17.2494,-42.019
2025-09-12T21:26:53.837150,-0.262183015,-1.011941747,1.416380231,-2.189159056,-1.607044999,0.121417999,0.63997331,-0.262183015,-1.011941747,1.416380231,-2.189159056,-1.607044999,0.121417999,0.63997331,-3.1994,18.2294,-45.879
2025-09-12T21:26:53.885181,-0.262182538,-1.012261705,1.417118375,-2.189219137,-1.606960599,0.121334076,0.639973952,-0.262182538,-1.012261705,1.417118375,-2.189219137,-1.606960599,0.121334076,0.639973952,-1.7594,18.3694,-47.979
2025-09-12T21:26:53.917275,-0.262099091,-1.012426214,1.418066327,-2.189170023,-1.606876675,0.121346474,0.642045666,-0.262099091,-1.012426214,1.418066327,-2.189170023,-1.606876675,0.121346474,0.642045666,-1.1594,19.2494,-49.979
2025-09-12T21:26:53.949262,-0.262075249,-1.012450055,1.418640439,-2.189158102,-1.606816117,0.12126255,0.646209798,-0.262075249,-1.012450055,1.418640439,-2.189158102,-1.606816117,0.12126255,0.646209798,-0.8594,19.8294,-50.959
2025-09-12T21:26:53.981252,-0.262075249,-1.012487249,1.419117276,-2.189098021,-1.606671635,0.121263027,0.650394855,-0.262075249,-1.012487249,1.419117276,-2.189098021,-1.606671635,0.121263027,0.650394855,-0.7394,20.3694,-52.099
2025-09-12T21:26:54.013243,-0.262075249,-1.012609319,1.419487302,-2.189002653,-1.606576268,0.12122488,0.652508413,-0.262075249,-1.012609319,1.419487302,-2.189002653,-1.606576268,0.12122488,0.652508413,-0.7594,20.3494,-51.159
2025-09-12T21:26:54.045284,-0.262111489,-1.012827234,1.419822995,-2.189015051,-1.606468503,0.121104717,0.652529548,-0.262111489,-1.012827234,1.419822995,-2.189015051,-1.606468503,0.121104717,0.652529548,-0.8394,20.1294,-49.359
2025-09-12T21:26:54.077297,-0.26208717,-1.013140993,1.419939343,-2.188907286,-1.606432263,0.120901585,0.65252976,-0.26208717,-1.013140993,1.419939343,-2.188907286,-1.606432263,0.120901585,0.65252976,-1.1794,19.4094,-46.059
2025-09-12T21:26:54.109322,-0.262111012,-1.013524846,1.42010719,-2.188859602,-1.606336896,0.120781422,0.652529762,-0.262111012,-1.013524846,1.42010719,-2.188859602,-1.606336896,0.120781422,0.652529762,-1.8594,18.1094,-42.219
2025-09-12T21:26:54.141324,-0.262099091,-1.013945417,1.420263592,-2.188835283,-1.606276814,0.120589733,0.656673177,-0.262099091,-1.013945417,1.420263592,-2.188835283,-1.606276814,0.120589733,0.656673177,-2.0794,17.1694,-39.539
2025-09-12T21:26:54.173401,-0.262111489,-1.014450864,1.420370404,-2.188716074,-1.606215302,0.120409966,0.671216564,-0.262111489,-1.014450864,1.420370404,-2.188716074,-1.606215302,0.120409966,0.671216564,-2.3194,15.8694,-36.459
2025-09-12T21:26:54.205392,-0.262124364,-1.015038804,1.420357052,-2.18874087,-1.606023137,0.120302677,0.673433706,-0.262124364,-1.015038804,1.420357052,-2.18874087,-1.606023137,0.120302677,0.673433706,-2.3594,15.1294,-36.579
2025-09-12T21:26:54.237421,-0.262222115,-1.015833215,1.420282666,-2.188873907,-1.605867688,0.120147228,0.673455877,-0.262222115,-1.015833215,1.420282666,-2.188873907,-1.605867688,0.120147228,0.673455877,-1.6794,14.6294,-41.919
2025-09-12T21:26:54.269451,-0.262427155,-1.016742067,1.420065228,-2.188955923,-1.605410878,0.12003994,0.673456099,-0.262427155,-1.016742067,1.420065228,-2.188955923,-1.605410878,0.12003994,0.673456099,2.7606,12.9294,-41.779
2025-09-12T21:26:54.301486,-0.262631718,-1.016879396,1.419861142,-2.188895842,-1.605283562,0.119968414,0.675527809,-0.262631718,-1.016879396,1.419861142,-2.188895842,-1.605283562,0.119968414,0.675527809,3.3606,12.2094,-40.019
2025-09-12T21:26:54.333521,-0.263112847,-1.016952352,1.419584576,-2.18883576,-1.605162923,0.119921207,0.675548526,-0.263112847,-1.016952352,1.419584576,-2.18883576,-1.605162923,0.119921207,0.675548526,3.5206,10.9894,-35.259
2025-09-12T21:26:54.365522,-0.263663594,-1.017084436,1.41922218,-2.188776632,-1.605091397,0.119849682,0.677620441,-0.263663594,-1.017084436,1.41922218,-2.188776632,-1.605091397,0.119849682,0.677620441,3.5806,9.7294,-30.779
2025-09-12T21:26:54.397501,-0.264262978,-1.017277078,1.418730084,-2.188717505,-1.604995553,0.119799614,0.68592799,-0.264262978,-1.017277078,1.418730084,-2.188717505,-1.604995553,0.119799614,0.68592799,3.3606,8.0494,-25.179
2025-09-12T21:26:54.445569,-0.264823739,-1.017494039,1.418237988,-2.188741823,-1.604898755,0.119571686,0.700513019,-0.264823739,-1.017494039,1.418237988,-2.188741823,-1.604898755,0.119571686,0.700513019,3.4606,6.3094,-20.479
2025-09-12T21:26:54.493547,-0.265467469,-1.017914609,1.417326276,-2.188753744,-1.604840104,0.119369507,0.704802284,-0.265467469,-1.017914609,1.417326276,-2.188753744,-1.604840104,0.119369507,0.704802284,2.8806,3.8294,-15.419
2025-09-12T21:26:54.541686,-0.265812222,-1.01845725,1.416317288,-2.188813349,-1.604780022,0.119296551,0.704845177,-0.265812222,-1.01845725,1.416317288,-2.188813349,-1.604780022,0.119296551,0.704845177,1.6006,1.7294,-10.199
2025-09-12T21:26:54.573745,-0.266050641,-1.019276456,1.415540997,-2.188765188,-1.604755704,0.119081497,0.708989021,-0.266050641,-1.019276456,1.415540997,-2.188765188,-1.604755704,0.119081497,0.708989021,0.1606,-0.0906,-4.179
2025-09-12T21:26:54.605669,-0.266218011,-1.019960718,1.415062253,-2.188825747,-1.604719464,0.11890173,0.709030459,-0.266218011,-1.019960718,1.415062253,-2.188825747,-1.604719464,0.11890173,0.709030459,-0.6394,-0.8706,-0.899
2025-09-12T21:26:54.637702,-0.266373459,-1.020701246,1.414657895,-2.188922545,-1.604730908,0.118793964,0.709030874,-0.266373459,-1.020701246,1.414657895,-2.188922545,-1.604730908,0.118793964,0.709030874,-0.6994,-0.6506,-0.899
2025-09-12T21:26:54.669710,-0.266480748,-1.021228151,1.414480511,-2.188955923,-1.604647938,0.118650436,0.709030878,-0.266480748,-1.021228151,1.414480511,-2.188955923,-1.604647938,0.118650436,0.709030878,-1.1194,-1.5306,0.261
2025-09-12T21:26:54.701708,-0.266576592,-1.021794156,1.414301221,-2.188979765,-1.604588334,0.118567467,0.709030878,-0.266576592,-1.021794156,1.414301221,-2.188979765,-1.604588334,0.118567467,0.709030878,-1.0594,-1.4306,0.261
2025-09-12T21:26:54.733819,-0.266684357,-1.022575693,1.414356534,-2.189063688,-1.604600732,0.118483067,0.709030878,-0.266684357,-1.022575693,1.414356534,-2.189063688,-1.604600732,0.118483067,0.709030878,-1.0194,-1.1706,0.101
2025-09-12T21:26:54.765751,-0.266731564,-1.02322133,1.414520566,-2.188991686,-1.604576413,0.11839962,0.709030878,-0.266731564,-1.02322133,1.414520566,-2.188991686,-1.604576413,0.11839962,0.709030878,-0.9794,-1.6106,0.101
2025-09-12T21:26:54.797784,-0.266779248,-1.023856954,1.414665524,-2.188991686,-1.604576413,0.118400097,0.709030878,-0.266779248,-1.023856954,1.414665524,-2.188991686,-1.604576413,0.118400097,0.709030878,-1.0394,-1.5106,0.161
2025-09-12T21:26:54.829765,-0.266778771,-1.024493055,1.414856259,-2.189003607,-1.604552571,0.118401051,0.709030878,-0.266778771,-1.024493055,1.414856259,-2.189003607,-1.604552571,0.118401051,0.709030878,-0.9394,-1.4506,0.101
2025-09-12T21:26:54.877803,-0.266802613,-1.025005655,1.414940182,-2.188955446,-1.604564969,0.118412971,0.709030878,-0.266802613,-1.025005655,1.414940182,-2.188955446,-1.604564969,0.118412971,0.709030878,-1.0594,-1.2906,-0.019
2025-09-12T21:26:54.909844,-0.266814534,-1.025254564,1.415083234,-2.189003607,-1.604528729,0.118376732,0.709030878,-0.266814534,-1.025254564,1.415083234,-2.189003607,-1.604528729,0.118376732,0.709030878,-0.9394,-1.4906,0.101
2025-09-12T21:26:54.941863,-0.266826455,-1.025421934,1.415191952,-2.188967367,-1.604528729,0.11835289,0.709030878,-0.266826455,-1.025421934,1.415191952,-2.188967367,-1.604528729,0.11835289,0.709030878,-1.0394,-1.3506,0.161
2025-09-12T21:26:54.973859,-0.266862694,-1.025529222,1.415335004,-2.188967367,-1.604528729,0.118436813,0.709030878,-0.266862694,-1.025529222,1.415335004,-2.188967367,-1.604528729,0.118436813,0.709030878,-0.9794,-1.4106,0.221
2025-09-12T21:26:55.005922,-0.266874615,-1.025589303,1.415396039,-2.189003607,-1.604553048,0.118412971,0.709030878,-0.266874615,-1.025589303,1.415396039,-2.189003607,-1.604553048,0.118412971,0.709030878,-1.0194,-1.3906,0.261
2025-09-12T21:26:55.037876,-0.266862218,-1.025709466,1.415466611,-2.188955446,-1.604517285,0.118436813,0.709030878,-0.266862218,-1.025709466,1.415466611,-2.188955446,-1.604517285,0.118436813,0.709030878,-1.1794,-1.4506,0.161
2025-09-12T21:26:55.069932,-0.266886059,-1.025817232,1.415575329,-2.188991209,-1.604541127,0.118400574,0.709030878,-0.266886059,-1.025817232,1.415575329,-2.188991209,-1.604541127,0.118400574,0.709030878,-1.0194,-1.4106,0.181
2025-09-12T21:26:55.101939,-0.266910378,-1.025913076,1.415623013,-2.189003607,-1.604553048,0.118400574,0.709030878,-0.266910378,-1.025913076,1.415623013,-2.189003607,-1.604553048,0.118400574,0.709030878,-0.9594,-1.4306,0.201
2025-09-12T21:26:55.133938,-0.266923253,-1.025973157,1.415756528,-2.188955446,-1.604541127,0.118462563,0.709030878,-0.266923253,-1.025973157,1.415756528,-2.188955446,-1.604541127,0.118462563,0.709030878,-1.0994,-1.3706,0.161
2025-09-12T21:26:55.165955,-0.267069165,-1.026117162,1.415876691,-2.188991209,-1.604517285,0.118594646,0.709030878,-0.267069165,-1.026117162,1.415876691,-2.188991209,-1.604517285,0.118594646,0.709030878,-0.9394,-1.4506,0.041
2025-09-12T21:26:55.213989,-0.267296616,-1.026140527,1.41628677,-2.188930651,-1.60457689,0.118750572,0.709030878,-0.267296616,-1.026140527,1.41628677,-2.188930651,-1.60457689,0.118750572,0.709030878,-1.0794,-1.3106,0.221
2025-09-12T21:26:55.246061,-0.267583195,-1.026371316,1.416813199,-2.188845297,-1.604553048,0.118904591,0.709030878,-0.267583195,-1.026371316,1.416813199,-2.188845297,-1.604553048,0.118904591,0.709030878,-1.0194,-1.3106,0.221
2025-09-12T21:26:55.278029,-0.267713849,-1.026674108,1.417112652,-2.188724657,-1.604553048,0.118904114,0.709030878,-0.267713849,-1.026674108,1.417112652,-2.188724657,-1.604553048,0.118904114,0.709030878,-1.0994,-1.4306,0.381
2025-09-12T21:26:55.310009,-0.267834012,-1.027132825,1.417278592,-2.188544889,-1.604541127,0.118867397,0.709030878,-0.267834012,-1.027132825,1.417278592,-2.188544889,-1.604541127,0.118867397,0.709030878,-0.9794,-1.7706,0.241
2025-09-12T21:26:55.342077,-0.268039052,-1.027830915,1.417288129,-2.188437124,-1.604528729,0.118842125,0.709030878,-0.268039052,-1.027830915,1.417288129,-2.188437124,-1.604528729,0.118842125,0.709030878,-0.9394,-1.3906,0.201
2025-09-12T21:26:55.374055,-0.268374268,-1.028588132,1.417335812,-2.188221117,-1.604553048,0.118746281,0.709030878,-0.268374268,-1.028588132,1.417335812,-2.188221117,-1.604553048,0.118746281,0.709030878,-1.1394,-1.3906,0.241
2025-09-12T21:26:55.406052,-0.268626515,-1.029393033,1.417324368,-2.188100954,-1.604541127,0.118626595,0.709030878,-0.268626515,-1.029393033,1.417324368,-2.188100954,-1.604541127,0.118626595,0.709030878,-0.9594,-1.5906,0.121
2025-09-12T21:26:55.438156,-0.269034211,-1.030305223,1.417324368,-2.187981745,-1.604553048,0.11853075,0.709030878,-0.269034211,-1.030305223,1.417324368,-2.187981745,-1.604553048,0.11853075,0.709030878,-1.0394,-1.3706,0.081
2025-09-12T21:26:55.470105,-0.269380871,-1.031168775,1.417324368,-2.187862059,-1.604541127,0.118421555,0.709030878,-0.269380871,-1.031168775,1.417324368,-2.187862059,-1.604541127,0.118421555,0.709030878,-1.0594,-1.3106,0.161
2025-09-12T21:26:55.502155,-0.269679372,-1.032106714,1.417360608,-2.187766691,-1.604541127,0.11824131,0.709030878,-0.269679372,-1.032106714,1.417360608,-2.187766691,-1.604541127,0.11824131,0.709030878,-0.9394,-1.4306,0.161
2025-09-12T21:26:55.550128,-0.270137135,-1.033249215,1.417360608,-2.187682768,-1.604625527,0.118014336,0.709030878,-0.270137135,-1.033249215,1.417360608,-2.187682768,-1.604625527,0.118014336,0.709030878,-0.9994,-1.5506,0.201
2025-09-12T21:26:55.598161,-0.271023575,-1.035024003,1.41743118,-2.187608858,-1.604699437,0.117714882,0.709030878,-0.271023575,-1.035024003,1.41743118,-2.187608858,-1.604699437,0.117714882,0.709030878,-1.1194,-1.4306,0.181
2025-09-12T21:26:55.630188,-0.271776978,-1.036568956,1.417478863,-2.187345167,-1.604889695,0.117499828,0.709030878,-0.271776978,-1.036568956,1.417478863,-2.187345167,-1.604889695,0.117499828,0.709030878,-1.0794,-1.3506,0.221
2025-09-12T21:26:55.662250,-0.272387807,-1.037455873,1.417480771,-2.187177321,-1.604924504,0.117320538,0.709030878,-0.272387807,-1.037455873,1.417480771,-2.187177321,-1.604924504,0.117320538,0.709030878,-1.0394,-1.5306,0.121
2025-09-12T21:26:55.694233,-0.27289087,-1.038367109,1.417578046,-2.187056681,-1.604936902,0.117248535,0.709030878,-0.27289087,-1.038367109,1.417578046,-2.187056681,-1.604936902,0.117248535,0.709030878,-0.9994,-1.4306,0.061
2025-09-12T21:26:55.726251,-0.273464028,-1.039231614,1.417732541,-2.186890741,-1.605010335,0.1170578,0.709030878,-0.273464028,-1.039231614,1.417732541,-2.186890741,-1.605010335,0.1170578,0.709030878,-1.0794,-1.4906,0.181
2025-09-12T21:26:55.758266,-0.273978058,-1.040154294,1.417816464,-2.186818739,-1.605116669,0.116961956,0.709030878,-0.273978058,-1.040154294,1.417816464,-2.186818739,-1.605116669,0.116961956,0.709030878,-1.0994,-1.6306,0.181
2025-09-12T21:26:55.790289,-0.27433664,-1.041016416,1.417791669,-2.186757704,-1.605140511,0.11689043,0.709030878,-0.27433664,-1.041016416,1.417791669,-2.186757704,-1.605140511,0.11689043,0.709030878,-1.1394,-1.2506,-0.059
2025-09-12T21:26:55.822342,-0.274683301,-1.041588621,1.417816464,-2.186601778,-1.605273549,0.116842747,0.709030878,-0.274683301,-1.041588621,1.417816464,-2.186601778,-1.605273549,0.116842747,0.709030878,-1.0794,-1.5506,0.101
2025-09-12T21:26:55.854370,-0.275079075,-1.042055444,1.417780224,-2.186530252,-1.60533363,0.1167593,0.709030878,-0.275079075,-1.042055444,1.417780224,-2.186530252,-1.60533363,0.1167593,0.709030878,-0.9794,-1.4906,0.121
2025-09-12T21:26:55.886334,-0.275415246,-1.042535142,1.417755429,-2.186398169,-1.605453316,0.116711617,0.709030878,-0.275415246,-1.042535142,1.417755429,-2.186398169,-1.605453316,0.116711617,0.709030878,-1.0794,-1.6106,0.141
2025-09-12T21:26:55.918333,-0.275761429,-1.043050126,1.417730633,-2.186290403,-1.60553724,0.116711617,0.709030878,-0.275761429,-1.043050126,1.417730633,-2.186290403,-1.60553724,0.116711617,0.709030878,-0.9994,-1.4706,0.041
2025-09-12T21:26:55.966407,-0.276022259,-1.043383912,1.417780224,-2.186230322,-1.605656926,0.116639614,0.709030878,-0.276022259,-1.043383912,1.417780224,-2.186230322,-1.605656926,0.116639614,0.709030878,-1.1994,-1.4306,0.161
2025-09-12T21:26:55.998386,-0.276044671,-1.04375823,1.417780224,-2.186183115,-1.605728451,0.11659193,0.709030878,-0.276044671,-1.04375823,1.417780224,-2.186183115,-1.605728451,0.11659193,0.709030878,-1.0594,-1.4706,0.341
2025-09-12T21:26:56.030421,-0.276044671,-1.044283227,1.417818371,-2.186062475,-1.605799977,0.116639614,0.709030878,-0.276044671,-1.044283227,1.417818371,-2.186062475,-1.605799977,0.116639614,0.709030878,-1.0194,-1.4706,0.561
2025-09-12T21:26:56.062431,-0.275971715,-1.045797662,1.418182675,-2.185928961,-1.605860058,0.116616249,0.709030878,-0.275971715,-1.045797662,1.418182675,-2.185928961,-1.605860058,0.116616249,0.709030878,-0.9194,-1.6506,0.521
2025-09-12T21:26:56.110447,-0.275935475,-1.048159913,1.418701474,-2.185737749,-1.605919663,0.11659193,0.709030878,-0.275935475,-1.048159913,1.418701474,-2.185737749,-1.605919663,0.11659193,0.709030878,-1.0794,-1.3706,0.221
2025-09-12T21:26:56.142469,-0.275730435,-1.052834825,1.419685666,-2.185484549,-1.605955426,0.116604328,0.709030878,-0.275730435,-1.052834825,1.419685666,-2.185484549,-1.605955426,0.116604328,0.709030878,-0.9994,-1.8506,0.161
2025-09-12T21:26:56.174600,-0.275599782,-1.056074933,1.420284573,-2.185302874,-1.605992619,0.11662817,0.709030878,-0.275599782,-1.056074933,1.420284573,-2.185302874,-1.605992619,0.11662817,0.709030878,-0.9194,-1.2906,0.001
2025-09-12T21:26:56.222583,-0.275576893,-1.059491472,1.421152417,-2.184846064,-1.60616142,0.11659193,0.709030878,-0.275576893,-1.059491472,1.421152417,-2.184846064,-1.60616142,0.11659193,0.709030878,-0.8194,-1.7306,-0.019
2025-09-12T21:26:56.254496,-0.275589768,-1.064009504,1.422703091,-2.18437924,-1.606460873,0.116568089,0.709030878,-0.275589768,-1.064009504,1.422703091,-2.18437924,-1.606460873,0.116568089,0.709030878,-0.9794,-1.6506,0.001
2025-09-12T21:26:56.286627,-0.275736157,-1.066550569,1.423809354,-2.18411698,-1.60659105,0.11659193,0.709030878,-0.275736157,-1.066550569,1.423809354,-2.18411698,-1.60659105,0.11659193,0.709030878,-0.9794,-1.5706,0.201
2025-09-12T21:26:56.318563,-0.275964562,-1.069227533,1.425297085,-2.183971544,-1.606613938,0.11659193,0.709030878,-0.275964562,-1.069227533,1.425297085,-2.183971544,-1.606613938,0.11659193,0.709030878,-1.1794,-1.5506,0.261
2025-09-12T21:26:56.350585,-0.276118104,-1.072172002,1.426687543,-2.183648249,-1.606589619,0.116580009,0.709030878,-0.276118104,-1.072172002,1.426687543,-2.183648249,-1.606589619,0.116580009,0.709030878,-0.9794,-1.7506,0.201
2025-09-12T21:26:56.382660,-0.276225869,-1.07520564,1.428114239,-2.183431288,-1.606625382,0.11659193,0.709030878,-0.276225869,-1.07520564,1.428114239,-2.183431288,-1.606625382,0.11659193,0.709030878,-1.2394,-1.4306,0.001
2025-09-12T21:26:56.414597,-0.276322667,-1.078288869,1.429624859,-2.183024069,-1.606552903,0.116568089,0.709030878,-0.276322667,-1.078288869,1.429624859,-2.183024069,-1.606552903,0.116568089,0.709030878,-0.9194,-1.9906,0.101
2025-09-12T21:26:56.446680,-0.276490037,-1.081399755,1.430956189,-2.182844301,-1.606479947,0.116604328,0.709030878,-0.276490037,-1.081399755,1.430956189,-2.182844301,-1.606479947,0.116604328,0.709030878,-1.1194,-1.3506,0.221
2025-09-12T21:26:56.478672,-0.276560132,-1.084653692,1.432432477,-2.182495256,-1.606308762,0.116556644,0.709030878,-0.276560132,-1.084653692,1.432432477,-2.182495256,-1.606308762,0.116556644,0.709030878,-1.1394,-1.8706,0.301
2025-09-12T21:26:56.510732,-0.276572053,-1.088196115,1.433954541,-2.182146689,-1.605973546,0.116556168,0.709030878,-0.276572053,-1.088196115,1.433954541,-2.182146689,-1.605973546,0.116556168,0.709030878,-1.0394,-1.5106,0.141
2025-09-12T21:26:56.542725,-0.276535813,-1.092156724,1.435621564,-2.181726595,-1.605540578,0.116457939,0.709030878,-0.276535813,-1.092156724,1.435621564,-2.181726595,-1.605540578,0.116457939,0.709030878,-1.0394,-1.6906,0.121
2025-09-12T21:26:56.590718,-0.276522938,-1.096214132,1.437229458,-2.181341787,-1.605170075,0.116216183,0.709030878,-0.276522938,-1.096214132,1.437229458,-2.181341787,-1.605170075,0.116216183,0.709030878,-1.0794,-1.6506,0.201
2025-09-12T21:26:56.622704,-0.276388947,-1.101334886,1.439365689,-2.180802485,-1.604690854,0.115856171,0.709030878,-0.276388947,-1.101334886,1.439365689,-2.180802485,-1.604690854,0.115856171,0.709030878,-1.0594,-1.4706,-0.059
2025-09-12T21:26:56.654756,-0.276171986,-1.105330305,1.441421811,-2.18035998,-1.60434467,0.115449429,0.709030878,-0.276171986,-1.105330305,1.441421811,-2.18035998,-1.60434467,0.115449429,0.709030878,-1.1594,-1.6906,-0.019
2025-09-12T21:26:56.686760,-0.275822465,-1.109643773,1.444134061,-2.180036207,-1.604142014,0.115138531,0.709030878,-0.275822465,-1.109643773,1.444134061,-2.180036207,-1.604142014,0.115138531,0.709030878,-1.1594,-1.5506,0.001
2025-09-12T21:26:56.718817,-0.275293175,-1.114003019,1.44745094,-2.179784437,-1.603879277,0.114837646,0.709030878,-0.275293175,-1.114003019,1.44745094,-2.179784437,-1.603879277,0.114837646,0.709030878,-1.0794,-1.4306,0.161
2025-09-12T21:26:56.766939,-0.274753873,-1.118819074,1.451834027,-2.179545542,-1.603685681,0.114417553,0.709030878,-0.274753873,-1.118819074,1.451834027,-2.179545542,-1.603685681,0.114417553,0.709030878,-0.9594,-1.4706,0.081
2025-09-12T21:26:56.798886,-0.273984734,-1.125267343,1.458174054,-2.179221293,-1.603289429,0.113769531,0.709030878,-0.273984734,-1.125267343,1.458174054,-2.179221293,-1.603289429,0.113769531,0.709030878,-0.8394,-1.3706,-0.139
2025-09-12T21:26:56.830873,-0.273289982,-1.130525426,1.464109723,-2.178969999,-1.602991406,0.113206863,0.709030878,-0.273289982,-1.130525426,1.464109723,-2.178969999,-1.602991406,0.113206863,0.709030878,-1.1394,-1.6706,0.001
2025-09-12T21:26:56.864688,-0.272498433,-1.135883169,1.470583264,-2.178837439,-1.602764432,0.112717152,0.709030878,-0.272498433,-1.135883169,1.470583264,-2.178837439,-1.602764432,0.112717152,0.709030878,-1.1994,-1.5506,-0.119
2025-09-12T21:26:56.894910,-0.271647755,-1.141562776,1.477876965,-2.178524633,-1.602512662,0.112248421,0.709030878,-0.271647755,-1.141562776,1.477876965,-2.178524633,-1.602512662,0.112248421,0.709030878,-0.8794,-1.5706,0.081
2025-09-12T21:26:56.926899,-0.270798508,-1.147566156,1.485674206,-2.178166052,-1.602334325,0.111572266,0.709030878,-0.270798508,-1.147566156,1.485674206,-2.178166052,-1.602334325,0.111572266,0.709030878,-1.1194,-1.4106,0.121
2025-09-12T21:26:56.958951,-0.269936864,-1.153905229,1.494219128,-2.178009649,-1.602178399,0.110547543,0.709030878,-0.269936864,-1.153905229,1.494219128,-2.178009649,-1.602178399,0.110547543,0.709030878,-0.9594,-1.3106,-0.299
2025-09-12T21:26:56.991047,-0.268977944,-1.160431699,1.504200284,-2.177673479,-1.60207111,0.10858345,0.709030878,-0.268977944,-1.160431699,1.504200284,-2.177673479,-1.60207111,0.10858345,0.709030878,-1.0594,-1.7906,0.241
2025-09-12T21:26:57.023014,-0.268018071,-1.166612939,1.513601605,-2.177519938,-1.601963345,0.105043411,0.709030878,-0.268018071,-1.166612939,1.513601605,-2.177519938,-1.601963345,0.105043411,0.709030878,-1.2794,-1.7306,0.081
2025-09-12T21:26:57.071090,-0.266559426,-1.173125104,1.523357693,-2.177373549,-1.601867978,0.100597858,0.709030878,-0.266559426,-1.173125104,1.523357693,-2.177373549,-1.601867978,0.100597858,0.709030878,-1.4594,-1.3706,0.001
2025-09-12T21:26:57.103068,-0.263432328,-1.181033925,1.535547558,-2.176977774,-1.601712052,0.093789577,0.709030878,-0.263432328,-1.181033925,1.535547558,-2.176977774,-1.601712052,0.093789577,0.709030878,-1.0994,-1.9306,0.441
2025-09-12T21:26:57.135066,-0.259917561,-1.186681108,1.543770138,-2.176774164,-1.601724927,0.08805275,0.70695917,-0.259917561,-1.186681108,1.543770138,-2.176774164,-1.601724927,0.08805275,0.70695917,-2.0794,-1.4906,0.181
2025-09-12T21:26:57.168641,-0.25563604,-1.191014127,1.54982597,-2.17655768,-1.601688687,0.08236599,0.706938453,-0.25563604,-1.191014127,1.54982597,-2.17655768,-1.601688687,0.08236599,0.706938453,-1.6994,-1.4506,0.201
2025-09-12T21:26:57.199066,-0.249308888,-1.196111993,1.55682594,-2.176305433,-1.601557557,0.074893475,0.709009954,-0.249308888,-1.196111993,1.55682594,-2.176305433,-1.601557557,0.074893475,0.709009954,-0.8394,-1.6106,0.141
2025-09-12T21:26:57.231110,-0.24313194,-1.200515584,1.563125912,-2.176139017,-1.601569478,0.067718029,0.709030669,-0.24313194,-1.200515584,1.563125912,-2.176139017,-1.601569478,0.067718029,0.709030669,-1.2194,-1.4306,0.121
2025-09-12T21:26:57.263105,-0.237032715,-1.204908208,1.569158856,-2.175910135,-1.601509873,0.060243607,0.709030876,-0.237032715,-1.204908208,1.569158856,-2.175910135,-1.601509873,0.060243607,0.709030876,-0.6594,-1.9506,0.261
2025-09-12T21:26:57.295128,-0.231677834,-1.209079103,1.57468826,-2.175669333,-1.601521794,0.053054333,0.70695917,-0.231677834,-1.209079103,1.57468826,-2.175669333,-1.601521794,0.053054333,0.70695917,-0.6994,-1.5906,0.241
2025-09-12T21:26:57.327151,-0.226189438,-1.213919477,1.580887143,-2.1753818,-1.601509873,0.044796944,0.706938453,-0.226189438,-1.213919477,1.580887143,-2.1753818,-1.601509873,0.044796944,0.706938453,-0.6994,-1.4506,0.181
2025-09-12T21:26:57.359168,-0.221358601,-1.218482808,1.586954419,-2.175069471,-1.601497952,0.037310123,0.706938246,-0.221358601,-1.218482808,1.586954419,-2.175069471,-1.601497952,0.037310123,0.706938246,-0.8194,-1.2906,0.081
