ndolphin-github/DIGIT_contact_simulation/RealRobotData/Hexagon_trial1.csv
timestamp,joint_pos_0,joint_pos_1,joint_pos_2,joint_pos_3,joint_pos_4,joint_pos_5,joint_pos_6,joint_vel_0,joint_vel_1,joint_vel_2,joint_vel_3,joint_vel_4,joint_vel_5,joint_vel_6,ft_fx,ft_fy,ft_fz,ft_tx,ft_ty,ft_tz
2025-09-12T21:30:08.608266,-0.082836453,-1.254783468,1.099852387,-1.351434545,-1.745673482,-0.019960705,0,-0.082836453,-1.254783468,1.099852387,-1.351434545,-1.745673482,-0.019960705,0,0.0606,0.5894,-0.259,-0.01697,0.00769,-0.00094
2025-09-12T21:30:08.640252,-0.082836453,-1.254831151,1.099804703,-1.351434545,-1.745661084,-0.019936864,0,-0.082836453,-1.254831151,1.099804703,-1.351434545,-1.745661084,-0.019936864,0,0.1406,0.6294,-0.239,-0.01797,0.00669,-0.00194
2025-09-12T21:30:08.672296,-0.082884137,-1.254831151,1.099804703,-1.351410703,-1.745673482,-0.019936864,0,-0.082884137,-1.254831151,1.099804703,-1.351410703,-1.745673482,-0.019936864,0,0.1006,0.5094,-0.299,-0.01797,0.00669,-0.00294
2025-09-12T21:30:08.705720,-0.082848374,-1.25480731,1.099829499,-1.351422147,-1.745661084,-0.019960705,0,-0.082848374,-1.25480731,1.099829499,-1.351422147,-1.745661084,-0.019960705,0,0.1206,0.6094,-0.199,-0.01897,0.00869,-0.00194
2025-09-12T21:30:08.754073,-0.082812611,-1.25481923,1.099781815,-1.351422147,-1.745709244,-0.019960705,0,-0.082812611,-1.25481923,1.099781815,-1.351422147,-1.745709244,-0.019960705,0,0.1206,0.6494,-0.299,-0.01497,0.00569,-0.00294
2025-09-12T21:30:08.800429,-0.082812611,-1.25481923,1.099817101,-1.351446466,-1.745685403,-0.019936864,0,-0.082812611,-1.25481923,1.099817101,-1.351446466,-1.745685403,-0.019936864,0,0.0606,0.6294,-0.299,-0.01397,0.00769,-0.00294
2025-09-12T21:30:08.832361,-0.082848374,-1.254795389,1.099804703,-1.351422147,-1.745649163,-0.019960705,0,-0.082848374,-1.254795389,1.099804703,-1.351422147,-1.745649163,-0.019960705,0,0.0806,0.5294,-0.279,-0.01697,0.00769,-0.00194
2025-09-12T21:30:08.880408,-0.082848374,-1.25480731,1.099793259,-1.351434545,-1.745697323,-0.019924943,0,-0.082848374,-1.25480731,1.099793259,-1.351434545,-1.745697323,-0.019924943,0,0.0006,0.6294,-0.339,-0.01597,0.00769,-0.00294
2025-09-12T21:30:08.912392,-0.082848374,-1.254831151,1.099817101,-1.351434545,-1.745661084,-0.019973103,0,-0.082848374,-1.254831151,1.099817101,-1.351434545,-1.745661084,-0.019973103,0,0.1006,0.6294,-0.319,-0.01697,0.00669,-0.00394
2025-09-12T21:30:08.944476,-0.082824532,-1.254795389,1.099840943,-1.351446466,-1.745649163,-0.019924943,0,-0.082824532,-1.254795389,1.099840943,-1.351446466,-1.745649163,-0.019924943,0,0.1406,0.5894,-0.299,-0.01997,0.00669,-0.00194
2025-09-12T21:30:08.976423,-0.082836453,-1.254795389,1.099793259,-1.351458387,-1.745673482,-0.019936864,0,-0.082836453,-1.254795389,1.099793259,-1.351458387,-1.745673482,-0.019936864,0,0.1006,0.6094,-0.259,-0.01697,0.00769,-0.00194
2025-09-12T21:30:09.024491,-0.082836453,-1.254747705,1.099781815,-1.351470308,-1.745637242,-0.019960705,0,-0.082836453,-1.254747705,1.099781815,-1.351470308,-1.745637242,-0.019960705,0,0.1006,0.5894,-0.199,-0.01997,0.00869,-0.00294
2025-09-12T21:30:09.072547,-0.082836453,-1.254831151,1.099804703,-1.351470308,-1.745661084,-0.019936864,0,-0.082836453,-1.254831151,1.099804703,-1.351470308,-1.745661084,-0.019936864,0,0.1806,0.6094,-0.299,-0.01597,0.00669,-0.00294
2025-09-12T21:30:09.105702,-0.082812611,-1.25480731,1.099829499,-1.351422147,-1.745673482,-0.019948785,0,-0.082812611,-1.25480731,1.099829499,-1.351422147,-1.745673482,-0.019948785,0,0.0406,0.5894,-0.199,-0.01797,0.00969,-0.00394
2025-09-12T21:30:09.152556,-0.082836453,-1.25481923,1.099804703,-1.351434545,-1.745673482,-0.019936864,0,-0.082836453,-1.25481923,1.099804703,-1.351434545,-1.745673482,-0.019936864,0,0.1006,0.5694,-0.199,-0.02097,0.00869,-0.00394
2025-09-12T21:30:09.184794,-0.082836453,-1.254795389,1.099804703,-1.351434545,-1.745661084,-0.019948785,0,-0.082836453,-1.254795389,1.099804703,-1.351434545,-1.745661084,-0.019948785,0,0.1006,0.6294,-0.319,-0.01597,0.00669,-0.00294
2025-09-12T21:30:09.232655,-0.082836453,-1.254795389,1.099817101,-1.351482229,-1.745649163,-0.019948785,0,-0.082836453,-1.254795389,1.099817101,-1.351482229,-1.745649163,-0.019948785,0,0.1006,0.6494,-0.339,-0.01397,0.00669,-0.00294
2025-09-12T21:30:09.280700,-0.082824532,-1.254795389,1.099840943,-1.351446466,-1.745685403,-0.019936864,0,-0.082824532,-1.254795389,1.099840943,-1.351446466,-1.745685403,-0.019936864,0,0.1206,0.6094,-0.219,-0.01897,0.00869,-0.00194
2025-09-12T21:30:09.330550,-0.082836453,-1.254795389,1.099865739,-1.351434545,-1.745661084,-0.019924943,0,-0.082836453,-1.254795389,1.099865739,-1.351434545,-1.745661084,-0.019924943,0,0.0606,0.6294,-0.199,-0.01797,0.00869,-0.00294
2025-09-12T21:30:09.376703,-0.082848374,-1.25480731,1.099804703,-1.351434545,-1.745685403,-0.019913022,0,-0.082848374,-1.25480731,1.099804703,-1.351434545,-1.745685403,-0.019913022,0,0.0606,0.6294,-0.219,-0.01697,0.00969,-0.00394
2025-09-12T21:30:09.425794,-0.082848374,-1.254771547,1.099852387,-1.351446466,-1.745685403,-0.019936864,0,-0.082848374,-1.254771547,1.099852387,-1.351446466,-1.745685403,-0.019936864,0,0.1206,0.6294,-0.279,-0.01697,0.00769,-0.00194
2025-09-12T21:30:09.472760,-0.082836453,-1.254783468,1.099829499,-1.351482229,-1.745637242,-0.019960705,0,-0.082836453,-1.254783468,1.099829499,-1.351482229,-1.745637242,-0.019960705,0,0.1406,0.5894,-0.239,-0.01797,0.00869,-0.00294
2025-09-12T21:30:09.521686,-0.082824532,-1.25481923,1.099829499,-1.351434545,-1.745625321,-0.019924943,0,-0.082824532,-1.25481923,1.099829499,-1.351434545,-1.745625321,-0.019924943,0,0.0806,0.6094,-0.219,-0.01797,0.00969,-0.00394
2025-09-12T21:30:09.568849,-0.082836453,-1.254783468,1.099829499,-1.351434545,-1.745685403,-0.019973103,0,-0.082836453,-1.254783468,1.099829499,-1.351434545,-1.745685403,-0.019973103,0,0.0406,0.5294,-0.199,-0.01897,0.01069,-0.00194
2025-09-12T21:30:09.617015,-0.082836453,-1.25481923,1.099840943,-1.351434545,-1.745685403,-0.019913022,0,-0.082836453,-1.25481923,1.099840943,-1.351434545,-1.745685403,-0.019913022,0,0.0606,0.5894,-0.259,-0.01797,0.00869,-0.00394
2025-09-12T21:30:09.664938,-0.082848374,-1.25480731,1.099804703,-1.351470308,-1.745661084,-0.019936864,0,-0.082848374,-1.25480731,1.099804703,-1.351470308,-1.745661084,-0.019936864,0,0.0806,0.5894,-0.299,-0.01497,0.00769,-0.00194
2025-09-12T21:30:09.696880,-0.082836453,-1.254795389,1.099829499,-1.351410703,-1.745649163,-0.019948785,0,-0.082836453,-1.254795389,1.099829499,-1.351410703,-1.745649163,-0.019948785,0,0.1606,0.6494,-0.319,-0.01597,0.00569,-0.00194
2025-09-12T21:30:09.729084,-0.082836453,-1.254795389,1.099829499,-1.351470308,-1.745661084,-0.019948785,0,-0.082836453,-1.254795389,1.099829499,-1.351470308,-1.745661084,-0.019948785,0,0.0806,0.6294,-0.219,-0.01797,0.00869,-0.00294
2025-09-12T21:30:09.776955,-0.082848374,-1.25481923,1.099865739,-1.351422147,-1.745661084,-0.019936864,0,-0.082848374,-1.25481923,1.099865739,-1.351422147,-1.745661084,-0.019936864,0,0.1206,0.6094,-0.259,-0.01797,0.00769,-0.00294
2025-09-12T21:30:09.825042,-0.082836453,-1.254795389,1.099817101,-1.351446466,-1.745625321,-0.019924943,0,-0.082836453,-1.254795389,1.099817101,-1.351446466,-1.745625321,-0.019924943,0,0.1406,0.6294,-0.299,-0.01697,0.00669,-0.00194
2025-09-12T21:30:09.856988,-0.082836453,-1.254783468,1.099829499,-1.351446466,-1.745649163,-0.019973103,0,-0.082836453,-1.254783468,1.099829499,-1.351446466,-1.745649163,-0.019973103,0,0.1406,0.6094,-0.319,-0.01897,0.00669,-0.00294
2025-09-12T21:30:09.888970,-0.082824532,-1.254795389,1.099865739,-1.351386384,-1.745649163,-0.019936864,0,-0.082824532,-1.254795389,1.099865739,-1.351386384,-1.745649163,-0.019936864,0,0.1006,0.6294,-0.319,-0.01597,0.00769,-0.00294
2025-09-12T21:30:09.921056,-0.082848374,-1.25480731,1.099852387,-1.351458387,-1.745661084,-0.019948785,0,-0.082848374,-1.25480731,1.099852387,-1.351458387,-1.745661084,-0.019948785,0,0.1006,0.6494,-0.339,-0.01497,0.00669,-0.00294
2025-09-12T21:30:09.953075,-0.082812611,-1.254747705,1.099829499,-1.351434545,-1.745661084,-0.019913022,0,-0.082812611,-1.254747705,1.099829499,-1.351434545,-1.745661084,-0.019913022,0,0.0406,0.6294,-0.219,-0.01697,0.00969,-0.00394
2025-09-12T21:30:10.001083,-0.082812611,-1.254795389,1.099829499,-1.351458387,-1.745661084,-0.019948785,0,-0.082812611,-1.254795389,1.099829499,-1.351458387,-1.745661084,-0.019948785,0,0.1406,0.6294,-0.419,-0.01697,0.00469,-0.00294
2025-09-12T21:30:10.033091,-0.082848374,-1.254795389,1.099840943,-1.351422147,-1.745661084,-0.019924943,0,-0.082848374,-1.254795389,1.099840943,-1.351422147,-1.745661084,-0.019924943,0,0.0606,0.6294,-0.239,-0.01697,0.00969,-0.00294
2025-09-12T21:30:10.081136,-0.082836453,-1.254795389,1.099817101,-1.351410703,-1.745661084,-0.019948785,0,-0.082836453,-1.254795389,1.099817101,-1.351410703,-1.745661084,-0.019948785,0,0.0206,0.6894,-0.299,-0.01597,0.00869,-0.00294
2025-09-12T21:30:10.113132,-0.082860295,-1.25481923,1.099865739,-1.351410703,-1.745673482,-0.019924943,0,-0.082860295,-1.25481923,1.099865739,-1.351410703,-1.745673482,-0.019924943,0,0.1006,0.6094,-0.199,-0.01897,0.00969,-0.00294
2025-09-12T21:30:10.145152,-0.082836453,-1.254795389,1.099840943,-1.351446466,-1.745697323,-0.019960705,0,-0.082836453,-1.254795389,1.099840943,-1.351446466,-1.745697323,-0.019960705,0,0.0606,0.6094,-0.279,-0.01597,0.00769,-0.00294
2025-09-12T21:30:10.177182,-0.082836453,-1.254795389,1.099888627,-1.351458387,-1.745709244,-0.019936864,0,-0.082836453,-1.254795389,1.099888627,-1.351458387,-1.745709244,-0.019936864,0,0.1206,0.6094,-0.219,-0.01897,0.00869,-0.00194
2025-09-12T21:30:10.209247,-0.082836453,-1.254759626,1.099829499,-1.351458387,-1.745697323,-0.019948785,0,-0.082836453,-1.254759626,1.099829499,-1.351458387,-1.745697323,-0.019948785,0,0.1406,0.6294,-0.279,-0.01697,0.00669,-0.00194
2025-09-12T21:30:10.241242,-0.082824532,-1.25481923,1.099840943,-1.351422147,-1.745661084,-0.019948785,0,-0.082824532,-1.25481923,1.099840943,-1.351422147,-1.745661084,-0.019948785,0,0.0406,0.6294,-0.199,-0.01797,0.00969,-0.00394
2025-09-12T21:30:10.273218,-0.082824532,-1.25481923,1.099852387,-1.351458387,-1.745661084,-0.019948785,0,-0.082824532,-1.25481923,1.099852387,-1.351458387,-1.745661084,-0.019948785,0,0.0206,0.5894,-0.239,-0.01797,0.00969,-0.00394
2025-09-12T21:30:10.305263,-0.082812611,-1.254771547,1.099865739,-1.351434545,-1.745685403,-0.019924943,0,-0.082812611,-1.254771547,1.099865739,-1.351434545,-1.745685403,-0.019924943,0,0.1606,0.6494,-0.339,-0.01497,0.00669,-0.00194
2025-09-12T21:30:10.337290,-0.082836453,-1.254843549,1.099804703,-1.351446466,-1.745661084,-0.019948785,0,-0.082836453,-1.254843549,1.099804703,-1.351446466,-1.745661084,-0.019948785,0,0.0006,0.6494,-0.259,-0.01897,0.00869,-0.00294
2025-09-12T21:30:10.369326,-0.082812611,-1.25480731,1.099852387,-1.351434545,-1.745709244,-0.019936864,0,-0.082812611,-1.25480731,1.099852387,-1.351434545,-1.745709244,-0.019936864,0,0.1206,0.6094,-0.199,-0.01897,0.00869,-0.00194
2025-09-12T21:30:10.401319,-0.082860295,-1.254795389,1.099865739,-1.351434545,-1.745697323,-0.019936864,0,-0.082860295,-1.254795389,1.099865739,-1.351434545,-1.745697323,-0.019936864,0,0.0806,0.5894,-0.219,-0.01897,0.00869,-0.00294
2025-09-12T21:30:10.433325,-0.082824532,-1.254759626,1.099817101,-1.351434545,-1.745661084,-0.019924943,0,-0.082824532,-1.254759626,1.099817101,-1.351434545,-1.745661084,-0.019924943,0,0.1206,0.5894,-0.279,-0.01897,0.00669,-0.00294
2025-09-12T21:30:10.465329,-0.082848374,-1.254783468,1.099840943,-1.351446466,-1.745649163,-0.019960705,0,-0.082848374,-1.254783468,1.099840943,-1.351446466,-1.745649163,-0.019960705,0,0.1006,0.6494,-0.359,-0.01397,0.00669,-0.00294
2025-09-12T21:30:10.497419,-0.082812611,-1.254795389,1.099852387,-1.351434545,-1.745685403,-0.019913022,0,-0.082812611,-1.254795389,1.099852387,-1.351434545,-1.745685403,-0.019913022,0,0.1606,0.6294,-0.259,-0.01797,0.00769,-0.00194
2025-09-12T21:30:10.547685,-0.082812611,-1.254771547,1.099840943,-1.351458387,-1.745673482,-0.019924943,0,-0.082812611,-1.254771547,1.099840943,-1.351458387,-1.745673482,-0.019924943,0,0.0806,0.6294,-0.199,-0.01897,0.00969,-0.00194
2025-09-12T21:30:10.593390,-0.082836453,-1.254771547,1.099865739,-1.351434545,-1.745661084,-0.019913022,0,-0.082836453,-1.254771547,1.099865739,-1.351434545,-1.745661084,-0.019913022,0,0.1006,0.6094,-0.199,-0.01897,0.00869,-0.00294
2025-09-12T21:30:10.625463,-0.082836453,-1.254783468,1.099888627,-1.351446466,-1.745673482,-0.019948785,0,-0.082836453,-1.254783468,1.099888627,-1.351446466,-1.745673482,-0.019948785,0,0.0606,0.6494,-0.319,-0.01397,0.00769,-0.00394
2025-09-12T21:30:10.673447,-0.082872216,-1.25480731,1.099829499,-1.351422147,-1.745661084,-0.019948785,0,-0.082872216,-1.25480731,1.099829499,-1.351422147,-1.745661084,-0.019948785,0,0.0406,0.5894,-0.199,-0.01897,0.00969,-0.00394
2025-09-12T21:30:10.721498,-0.082836453,-1.254831151,1.099865739,-1.351470308,-1.745685403,-0.019913022,0,-0.082836453,-1.254831151,1.099865739,-1.351470308,-1.745685403,-0.019913022,0,0.1406,0.5694,-0.319,-0.02197,0.00569,-0.00194
2025-09-12T21:30:10.753503,-0.082836453,-1.25481923,1.099840943,-1.351422147,-1.745625321,-0.019900624,0,-0.082836453,-1.25481923,1.099840943,-1.351422147,-1.745625321,-0.019900624,0,0.0606,0.6294,-0.259,-0.01597,0.00869,-0.00394
2025-09-12T21:30:10.785553,-0.082824532,-1.254759626,1.099840943,-1.351446466,-1.745661084,-0.019948785,0,-0.082824532,-1.254759626,1.099840943,-1.351446466,-1.745661084,-0.019948785,0,0.0606,0.6094,-0.219,-0.01697,0.00969,-0.00294
2025-09-12T21:30:10.817534,-0.082848374,-1.254759626,1.099829499,-1.351434545,-1.745625321,-0.019936864,0,-0.082848374,-1.254759626,1.099829499,-1.351434545,-1.745625321,-0.019936864,0,0.0806,0.6294,-0.259,-0.01697,0.00869,-0.00394
2025-09-12T21:30:10.849578,-0.082812611,-1.25480731,1.099840943,-1.351434545,-1.745709244,-0.019936864,0,-0.082812611,-1.25480731,1.099840943,-1.351434545,-1.745709244,-0.019936864,0,0.0406,0.6094,-0.199,-0.01897,0.01269,-0.00294
2025-09-12T21:30:10.881557,-0.082824532,-1.25481923,1.099840943,-1.351434545,-1.745673482,-0.019948785,0,-0.082824532,-1.25481923,1.099840943,-1.351434545,-1.745673482,-0.019948785,0,0.1006,0.6094,-0.299,-0.01997,0.00669,-0.00294
2025-09-12T21:30:10.913620,-0.082812611,-1.254795389,1.099840943,-1.351446466,-1.745673482,-0.019936864,0,-0.082812611,-1.254795389,1.099840943,-1.351446466,-1.745673482,-0.019936864,0,0.0606,0.6294,-0.339,-0.01497,0.00769,-0.00394
2025-09-12T21:30:10.945584,-0.082848374,-1.254831151,1.099829499,-1.351422147,-1.745685403,-0.019948785,0,-0.082848374,-1.254831151,1.099829499,-1.351422147,-1.745685403,-0.019948785,0,0.1406,0.6094,-0.319,-0.01597,0.00669,-0.00194
2025-09-12T21:30:10.993610,-0.082824532,-1.254783468,1.099840943,-1.351446466,-1.745637242,-0.019960705,0,-0.082824532,-1.254783468,1.099840943,-1.351446466,-1.745637242,-0.019960705,0,0.1206,0.6094,-0.199,-0.01897,0.00869,-0.00194
2025-09-12T21:30:11.025787,-0.082884137,-1.254747705,1.099840943,-1.351410703,-1.745673482,-0.019948785,0,-0.082884137,-1.254747705,1.099840943,-1.351410703,-1.745673482,-0.019948785,0,0.0806,0.6694,-0.339,-0.01497,0.00669,-0.00294
2025-09-12T21:30:11.073804,-0.082848374,-1.254783468,1.099840943,-1.351458387,-1.745661084,-0.019924943,0,-0.082848374,-1.254783468,1.099840943,-1.351458387,-1.745661084,-0.019924943,0,0.0806,0.6094,-0.259,-0.01697,0.00869,-0.00294
2025-09-12T21:30:11.121755,-0.082848374,-1.254783468,1.099829499,-1.351446466,-1.745697323,-0.019913022,0,-0.082848374,-1.254783468,1.099829499,-1.351446466,-1.745697323,-0.019913022,0,0.1606,0.6494,-0.319,-0.01597,0.00569,-0.00194
2025-09-12T21:30:11.169774,-0.082812611,-1.254795389,1.099852387,-1.351446466,-1.745685403,-0.019948785,0,-0.082812611,-1.254795389,1.099852387,-1.351446466,-1.745685403,-0.019948785,0,0.0806,0.5694,-0.339,-0.01497,0.00669,-0.00294
2025-09-12T21:30:11.201757,-0.082836453,-1.254783468,1.099852387,-1.351410703,-1.745685403,-0.019936864,0,-0.082836453,-1.254783468,1.099852387,-1.351410703,-1.745685403,-0.019936864,0,0.1206,0.6294,-0.259,-0.01697,0.00869,-0.00294
2025-09-12T21:30:11.233751,-0.082836453,-1.25481923,1.099817101,-1.351422147,-1.745661084,-0.019924943,0,-0.082836453,-1.25481923,1.099817101,-1.351422147,-1.745661084,-0.019924943,0,0.1406,0.6294,-0.279,-0.01797,0.00669,-0.00194
2025-09-12T21:30:11.265801,-0.082800213,-1.254795389,1.099852387,-1.351434545,-1.745685403,-0.019936864,0,-0.082800213,-1.254795389,1.099852387,-1.351434545,-1.745685403,-0.019936864,0,0.0806,0.5894,-0.319,-0.01897,0.00669,-0.00394
2025-09-12T21:30:11.297817,-0.082812611,-1.254783468,1.099877183,-1.351434545,-1.745649163,-0.019960705,0,-0.082812611,-1.254783468,1.099877183,-1.351434545,-1.745649163,-0.019960705,0,0.1006,0.5494,-0.259,-0.01797,0.00769,-0.00194
2025-09-12T21:30:11.329821,-0.082836453,-1.254795389,1.099877183,-1.351482229,-1.745649163,-0.019924943,0,-0.082836453,-1.254795389,1.099877183,-1.351482229,-1.745649163,-0.019924943,0,0.1206,0.6294,-0.259,-0.01697,0.00769,-0.00294
2025-09-12T21:30:11.361832,-0.082824532,-1.254771547,1.099852387,-1.351446466,-1.745673482,-0.019936864,0,-0.082824532,-1.254771547,1.099852387,-1.351446466,-1.745673482,-0.019936864,0,0.1406,0.6094,-0.219,-0.01897,0.00769,-0.00194
2025-09-12T21:30:11.409892,-0.082788769,-1.254771547,1.099865739,-1.351422147,-1.745697323,-0.019960705,0,-0.082788769,-1.254771547,1.099865739,-1.351422147,-1.745697323,-0.019960705,0,0.1006,0.6094,-0.199,-0.01797,0.00869,-0.00294
2025-09-12T21:30:11.441916,-0.082836453,-1.254795389,1.099852387,-1.351494626,-1.745685403,-0.019948785,0,-0.082836453,-1.254795389,1.099852387,-1.351494626,-1.745685403,-0.019948785,0,0.0606,0.6294,-0.219,-0.01697,0.00869,-0.00394
2025-09-12T21:30:11.473996,-0.082824532,-1.25480731,1.099877183,-1.351434545,-1.745673482,-0.019960705,0,-0.082824532,-1.25480731,1.099877183,-1.351434545,-1.745673482,-0.019960705,0,0.2006,0.5894,-0.239,-0.01797,0.00669,-0.00294
2025-09-12T21:30:11.505972,-0.082812611,-1.25481923,1.099852387,-1.351422147,-1.745673482,-0.019936864,0,-0.082812611,-1.25481923,1.099852387,-1.351422147,-1.745673482,-0.019936864,0,0.1206,0.6494,-0.259,-0.01797,0.00769,-0.00194
2025-09-12T21:30:11.538032,-0.082848374,-1.254771547,1.099852387,-1.351434545,-1.745685403,-0.019924943,0,-0.082848374,-1.254771547,1.099852387,-1.351434545,-1.745685403,-0.019924943,0,0.0406,0.6494,-0.219,-0.01797,0.00869,-0.00194
2025-09-12T21:30:11.586060,-0.082824532,-1.25481923,1.099840943,-1.351446466,-1.745649163,-0.019973103,0,-0.082824532,-1.25481923,1.099840943,-1.351446466,-1.745649163,-0.019973103,0,0.0806,0.6494,-0.319,-0.01497,0.00769,-0.00394
2025-09-12T21:30:11.618132,-0.082836453,-1.25480731,1.099852387,-1.351434545,-1.745697323,-0.019936864,0,-0.082836453,-1.25480731,1.099852387,-1.351434545,-1.745697323,-0.019936864,0,0.0806,0.6094,-0.239,-0.01797,0.00869,-0.00294
2025-09-12T21:30:11.666112,-0.082848374,-1.254783468,1.099877183,-1.351410703,-1.745661084,-0.019936864,0,-0.082848374,-1.254783468,1.099877183,-1.351410703,-1.745661084,-0.019936864,0,0.1606,0.6294,-0.299,-0.01597,0.00669,-0.00194
2025-09-12T21:30:11.714141,-0.082812611,-1.25481923,1.099852387,-1.351458387,-1.745685403,-0.019936864,0,-0.082812611,-1.25481923,1.099852387,-1.351458387,-1.745685403,-0.019936864,0,0.1206,0.5894,-0.359,-0.01597,0.00669,-0.00294
2025-09-12T21:30:11.762105,-0.082824532,-1.254795389,1.099852387,-1.351434545,-1.745673482,-0.019936864,0,-0.082824532,-1.254795389,1.099852387,-1.351434545,-1.745673482,-0.019936864,0,0.1006,0.6094,-0.319,-0.01697,0.00769,-0.00394
2025-09-12T21:30:11.810162,-0.082860295,-1.254783468,1.099852387,-1.351458387,-1.745661084,-0.019924943,0,-0.082860295,-1.254783468,1.099852387,-1.351458387,-1.745661084,-0.019924943,0,0.0806,0.5294,-0.219,-0.02097,0.00869,-0.00294
2025-09-12T21:30:11.842157,-0.082824532,-1.254795389,1.099817101,-1.351434545,-1.745685403,-0.019936864,0,-0.082824532,-1.254795389,1.099817101,-1.351434545,-1.745685403,-0.019936864,0,0.1006,0.6494,-0.299,-0.01597,0.00769,-0.00294
2025-09-12T21:30:11.874175,-0.082824532,-1.254795389,1.099852387,-1.351422147,-1.745673482,-0.019913022,0,-0.082824532,-1.254795389,1.099852387,-1.351422147,-1.745673482,-0.019913022,0,0.0606,0.6494,-0.259,-0.01597,0.00869,-0.00394
2025-09-12T21:30:11.906160,-0.082872216,-1.254831151,1.099877183,-1.351446466,-1.745685403,-0.019936864,0,-0.082872216,-1.254831151,1.099877183,-1.351446466,-1.745685403,-0.019936864,0,0.0806,0.5694,-0.299,-0.01797,0.00769,-0.00394
2025-09-12T21:30:11.938224,-0.082824532,-1.25480731,1.099852387,-1.351422147,-1.7456134,-0.019913022,0,-0.082824532,-1.25480731,1.099852387,-1.351422147,-1.7456134,-0.019913022,0,0.0606,0.6094,-0.319,-0.01597,0.00769,-0.00394
2025-09-12T21:30:11.970196,-0.082848374,-1.254795389,1.099793259,-1.351410703,-1.745661084,-0.019924943,0,-0.082848374,-1.254795389,1.099793259,-1.351410703,-1.745661084,-0.019924943,0,0.0806,0.5894,-0.319,-0.01997,0.00669,-0.00394
2025-09-12T21:30:12.018257,-0.082824532,-1.254795389,1.099804703,-1.351458387,-1.745637242,-0.019936864,0,-0.082824532,-1.254795389,1.099804703,-1.351458387,-1.745637242,-0.019936864,0,0.1606,0.6494,-0.299,-0.01597,0.00669,-0.00194
2025-09-12T21:30:12.066282,-0.082812611,-1.254795389,1.099840943,-1.351482229,-1.745673482,-0.019948785,0,-0.082812611,-1.254795389,1.099840943,-1.351482229,-1.745673482,-0.019948785,0,0.1606,0.5694,-0.299,-0.01697,0.00669,-0.00194
2025-09-12T21:30:12.114257,-0.082836453,-1.254831151,1.099852387,-1.351482229,-1.745661084,-0.019924943,0,-0.082836453,-1.254831151,1.099852387,-1.351482229,-1.745661084,-0.019924943,0,0.1206,0.6694,-0.339,-0.01497,0.00669,-0.00194
2025-09-12T21:30:12.162346,-0.082848374,-1.25481923,1.099852387,-1.351446466,-1.745661084,-0.019936864,0,-0.082848374,-1.25481923,1.099852387,-1.351446466,-1.745661084,-0.019936864,0,0.1006,0.6294,-0.239,-0.01797,0.00869,-0.00294
2025-09-12T21:30:12.210400,-0.082812611,-1.254771547,1.099852387,-1.351446466,-1.745673482,-0.019948785,0,-0.082812611,-1.254771547,1.099852387,-1.351446466,-1.745673482,-0.019948785,0,0.1206,0.5294,-0.339,-0.01597,0.00769,-0.00094
2025-09-12T21:30:12.258392,-0.082812611,-1.25480731,1.099840943,-1.351458387,-1.745649163,-0.019948785,0,-0.082812611,-1.25480731,1.099840943,-1.351458387,-1.745649163,-0.019948785,0,0.1006,0.6094,-0.199,-0.01897,0.00869,-0.00294
2025-09-12T21:30:12.306434,-0.082824532,-1.25480731,1.099852387,-1.351458387,-1.745673482,-0.019948785,0,-0.082824532,-1.25480731,1.099852387,-1.351458387,-1.745673482,-0.019948785,0,0.0006,0.5694,-0.239,-0.01697,0.00569,-0.00394
2025-09-12T21:30:12.354413,-0.082812611,-1.254759626,1.099804703,-1.351422147,-1.745649163,-0.019924943,0,-0.082812611,-1.254759626,1.099804703,-1.351422147,-1.745649163,-0.019924943,0,0.1006,0.6494,-0.319,-0.02197,0.01269,-0.00394
2025-09-12T21:30:12.402442,-0.082848374,-1.25480731,1.099840943,-1.351446466,-1.745637242,-0.019948785,0,-0.082848374,-1.25480731,1.099840943,-1.351446466,-1.745637242,-0.019948785,0,0.1606,0.6494,-0.319,-0.01497,0.00669,-0.00194
2025-09-12T21:30:12.450470,-0.082848374,-1.254771547,1.099852387,-1.351434545,-1.745661084,-0.019948785,0,-0.082848374,-1.254771547,1.099852387,-1.351434545,-1.745661084,-0.019948785,0,0.0206,0.5494,-0.219,-0.01797,0.00969,-0.00394
2025-09-12T21:30:12.498560,-0.082836453,-1.254795389,1.099852387,-1.351434545,-1.745661084,-0.019924943,0,-0.082836453,-1.254795389,1.099852387,-1.351434545,-1.745661084,-0.019924943,0,0.1006,0.6094,-0.319,-0.01697,0.00869,-0.00294
2025-09-12T21:30:12.546578,-0.082860295,-1.254831151,1.099817101,-1.351458387,-1.745685403,-0.019924943,0,-0.082860295,-1.254831151,1.099817101,-1.351458387,-1.745685403,-0.019924943,0,0.0406,0.5294,-0.399,-0.01497,0.00669,-0.00394
2025-09-12T21:30:12.594737,-0.082824532,-1.25481923,1.099877183,-1.351446466,-1.745697323,-0.019948785,0,-0.082824532,-1.25481923,1.099877183,-1.351446466,-1.745697323,-0.019948785,0,0.0806,0.6094,-0.199,-0.01797,0.00969,-0.00294
2025-09-12T21:30:12.642646,-0.082824532,-1.254783468,1.099817101,-1.351446466,-1.745685403,-0.019924943,0,-0.082824532,-1.254783468,1.099817101,-1.351446466,-1.745685403,-0.019924943,0,0.0806,0.5094,-0.359,-0.01697,0.00669,-0.00294
2025-09-12T21:30:12.690674,-0.082836453,-1.25481923,1.099840943,-1.351434545,-1.745697323,-0.019936864,0,-0.082836453,-1.25481923,1.099840943,-1.351434545,-1.745697323,-0.019936864,0,0.1206,0.5694,-0.359,-0.01597,0.00569,-0.00294
2025-09-12T21:30:12.738657,-0.082812611,-1.254771547,1.099865739,-1.351422147,-1.745673482,-0.019973103,0,-0.082812611,-1.254771547,1.099865739,-1.351422147,-1.745673482,-0.019973103,0,-0.0194,0.6494,-0.279,-0.01897,0.00969,-0.00294
2025-09-12T21:30:12.786667,-0.082884137,-1.254747705,1.099852387,-1.351434545,-1.745649163,-0.019960705,0,-0.082884137,-1.254747705,1.099852387,-1.351434545,-1.745649163,-0.019960705,0,0.0806,0.5094,-0.319,-0.01797,0.00669,-0.00194
2025-09-12T21:30:12.834720,-0.082860295,-1.25481923,1.099852387,-1.351470308,-1.745661084,-0.019984547,0,-0.082860295,-1.25481923,1.099852387,-1.351470308,-1.745661084,-0.019984547,0,0.1606,0.6494,-0.359,-0.01497,0.00569,-0.00194
2025-09-12T21:30:12.882780,-0.082812611,-1.254795389,1.099852387,-1.351446466,-1.745661084,-0.019960705,0,-0.082812611,-1.254795389,1.099852387,-1.351446466,-1.745661084,-0.019960705,0,0.0806,0.6494,-0.219,-0.01897,0.00869,-0.00194
2025-09-12T21:30:12.930751,-0.082872216,-1.25480731,1.099817101,-1.351434545,-1.745685403,-0.019960705,0,-0.082872216,-1.25480731,1.099817101,-1.351434545,-1.745685403,-0.019960705,0,0.0806,0.5094,-0.319,-0.01697,0.00669,-0.00294
2025-09-12T21:30:12.978767,-0.082836453,-1.254783468,1.099852387,-1.351434545,-1.745685403,-0.019948785,0,-0.082836453,-1.254783468,1.099852387,-1.351434545,-1.745685403,-0.019948785,0,0.1206,0.6294,-0.259,-0.01697,0.00769,-0.00294
2025-09-12T21:30:13.027150,-0.082872216,-1.25480731,1.099865739,-1.351446466,-1.745673482,-0.019936864,0,-0.082872216,-1.25480731,1.099865739,-1.351446466,-1.745673482,-0.019936864,0,0.0806,0.5694,-0.339,-0.01397,0.00669,-0.00194
2025-09-12T21:30:13.074840,-0.082824532,-1.25480731,1.099877183,-1.351434545,-1.745661084,-0.019973103,0,-0.082824532,-1.25480731,1.099877183,-1.351434545,-1.745661084,-0.019973103,0,0.0806,0.5294,-0.219,-0.02097,0.00869,-0.00294
2025-09-12T21:30:13.122894,-0.082836453,-1.25480731,1.099852387,-1.351446466,-1.745637242,-0.019924943,0,-0.082836453,-1.25480731,1.099852387,-1.351446466,-1.745637242,-0.019924943,0,0.0806,0.6294,-0.259,-0.01697,0.00869,-0.00294
2025-09-12T21:30:13.170877,-0.082800213,-1.254795389,1.099817101,-1.351410703,-1.745673482,-0.019984547,0,-0.082800213,-1.254795389,1.099817101,-1.351410703,-1.745673482,-0.019984547,0,0.0806,0.5494,-0.219,-0.01897,0.00469,-0.00194
2025-09-12T21:30:13.218946,-0.082812611,-1.254831151,1.099817101,-1.351458387,-1.745709244,-0.019960705,0,-0.082812611,-1.254831151,1.099817101,-1.351458387,-1.745709244,-0.019960705,0,-0.0194,0.6494,-0.239,-0.01797,0.00969,-0.00294
2025-09-12T21:30:13.266915,-0.082836453,-1.254795389,1.099829499,-1.351458387,-1.745661084,-0.019936864,0,-0.082836453,-1.254795389,1.099829499,-1.351458387,-1.745661084,-0.019936864,0,0.1406,0.6294,-0.259,-0.01797,0.00769,-0.00194
2025-09-12T21:30:13.315055,-0.082824532,-1.25481923,1.099840943,-1.351410703,-1.745637242,-0.019948785,0,-0.082824532,-1.25481923,1.099840943,-1.351410703,-1.745637242,-0.019948785,0,0.1406,0.6294,-0.339,-0.01497,0.00669,-0.00194
2025-09-12T21:30:13.362998,-0.082824532,-1.254759626,1.099829499,-1.351434545,-1.745685403,-0.019924943,0,-0.082824532,-1.254759626,1.099829499,-1.351434545,-1.745685403,-0.019924943,0,0.0606,0.6294,-0.199,-0.01797,0.00969,-0.00394
2025-09-12T21:30:13.411021,-0.082812611,-1.254795389,1.099852387,-1.351434545,-1.745637242,-0.019936864,0,-0.082812611,-1.254795389,1.099852387,-1.351434545,-1.745637242,-0.019936864,0,0.1006,0.6294,-0.279,-0.01597,0.00769,-0.00294
2025-09-12T21:30:13.459094,-0.082860295,-1.254771547,1.099852387,-1.351458387,-1.745637242,-0.019960705,0,-0.082860295,-1.254771547,1.099852387,-1.351458387,-1.745637242,-0.019960705,0,0.0806,0.6294,-0.259,-0.01697,0.00769,-0.00394
2025-09-12T21:30:13.507085,-0.082836453,-1.254783468,1.099817101,-1.351470308,-1.745673482,-0.019948785,0,-0.082836453,-1.254783468,1.099817101,-1.351470308,-1.745673482,-0.019948785,0,0.0406,0.6294,-0.199,-0.01797,0.01069,-0.00394
2025-09-12T21:30:13.555159,-0.082824532,-1.254783468,1.099817101,-1.351446466,-1.745685403,-0.019913022,0,-0.082824532,-1.254783468,1.099817101,-1.351446466,-1.745685403,-0.019913022,0,0.1206,0.5894,-0.239,-0.01797,0.00769,-0.00194
2025-09-12T21:30:13.603290,-0.082848374,-1.254783468,1.099840943,-1.351446466,-1.745697323,-0.019936864,0,-0.082848374,-1.254783468,1.099840943,-1.351446466,-1.745697323,-0.019936864,0,0.1206,0.6094,-0.239,-0.01797,0.00769,-0.00294
2025-09-12T21:30:13.651243,-0.082848374,-1.254795389,1.099829499,-1.351434545,-1.745661084,-0.019948785,0,-0.082848374,-1.254795389,1.099829499,-1.351434545,-1.745661084,-0.019948785,0,0.0806,0.6294,-0.239,-0.01797,0.01169,-0.00194
2025-09-12T21:30:13.699266,-0.082872216,-1.254771547,1.099877183,-1.351494626,-1.745673482,-0.019948785,0,-0.082872216,-1.254771547,1.099877183,-1.351494626,-1.745673482,-0.019948785,0,0.1006,0.5694,-0.199,-0.01997,0.00869,-0.00294
2025-09-12T21:30:13.747350,-0.082872216,-1.254759626,1.099877183,-1.351410703,-1.745685403,-0.019948785,0,-0.082872216,-1.254759626,1.099877183,-1.351410703,-1.745685403,-0.019948785,0,0.0806,0.5894,-0.299,-0.01997,0.00769,-0.00394
2025-09-12T21:30:13.795278,-0.082812611,-1.25480731,1.099877183,-1.351482229,-1.745649163,-0.019924943,0,-0.082812611,-1.25480731,1.099877183,-1.351482229,-1.745649163,-0.019924943,0,0.1406,0.6294,-0.239,-0.01797,0.00769,-0.00194
2025-09-12T21:30:13.843762,-0.082824532,-1.254795389,1.099829499,-1.351422147,-1.745685403,-0.019948785,0,-0.082824532,-1.254795389,1.099829499,-1.351422147,-1.745685403,-0.019948785,0,0.0406,0.6494,-0.299,-0.01497,0.01169,-0.00394
2025-09-12T21:30:13.891343,-0.082788769,-1.254783468,1.099852387,-1.351446466,-1.745661084,-0.019948785,0,-0.082788769,-1.254783468,1.099852387,-1.351446466,-1.745661084,-0.019948785,0,0.0806,0.6094,-0.239,-0.01597,0.00969,-0.00394
2025-09-12T21:30:13.939453,-0.082848374,-1.25481923,1.099852387,-1.351458387,-1.745685403,-0.019936864,0,-0.082848374,-1.25481923,1.099852387,-1.351458387,-1.745685403,-0.019936864,0,0.0806,0.6294,-0.239,-0.01797,0.00869,-0.00294
2025-09-12T21:30:13.987436,-0.082848374,-1.254795389,1.099865739,-1.351446466,-1.745673482,-0.019900624,0,-0.082848374,-1.254795389,1.099865739,-1.351446466,-1.745673482,-0.019900624,0,0.0806,0.6494,-0.319,-0.01397,0.00769,-0.00294
2025-09-12T21:30:14.035422,-0.082824532,-1.254783468,1.099877183,-1.351446466,-1.745709244,-0.019948785,0,-0.082824532,-1.254783468,1.099877183,-1.351446466,-1.745709244,-0.019948785,0,0.0806,0.6294,-0.279,-0.01597,0.00869,-0.00294
2025-09-12T21:30:14.083449,-0.082848374,-1.254795389,1.099865739,-1.351410703,-1.745685403,-0.019913022,0,-0.082848374,-1.254795389,1.099865739,-1.351410703,-1.745685403,-0.019913022,0,0.0806,0.6294,-0.219,-0.01797,0.00869,-0.00294
2025-09-12T21:30:14.131482,-0.082824532,-1.254783468,1.099817101,-1.351446466,-1.745709244,-0.019948785,0,-0.082824532,-1.254783468,1.099817101,-1.351446466,-1.745709244,-0.019948785,0,0.1206,0.6494,-0.299,-0.01597,0.00769,-0.00294
2025-09-12T21:30:14.179514,-0.082836453,-1.254795389,1.099852387,-1.351458387,-1.745673482,-0.019900624,0,-0.082836453,-1.254795389,1.099852387,-1.351458387,-1.745673482,-0.019900624,0,0.1406,0.5894,-0.219,-0.01697,0.00869,-0.00394
2025-09-12T21:30:14.227594,-0.082824532,-1.254783468,1.099865739,-1.351410703,-1.745649163,-0.019948785,0,-0.082824532,-1.254783468,1.099865739,-1.351410703,-1.745649163,-0.019948785,0,0.0806,0.6294,-0.299,-0.01597,0.00869,-0.00294
2025-09-12T21:30:14.275620,-0.082836453,-1.254783468,1.099852387,-1.351470308,-1.745673482,-0.019924943,0,-0.082836453,-1.254783468,1.099852387,-1.351470308,-1.745673482,-0.019924943,0,0.0406,0.6894,-0.259,-0.01797,0.00769,-0.00094
2025-09-12T21:30:14.323564,-0.082836453,-1.254783468,1.099852387,-1.351434545,-1.745625321,-0.019924943,0,-0.082836453,-1.254783468,1.099852387,-1.351434545,-1.745625321,-0.019924943,0,0.0606,0.5894,-0.199,-0.01897,0.00969,-0.00394
2025-09-12T21:30:14.371636,-0.082836453,-1.254831151,1.099852387,-1.351410703,-1.745649163,-0.019913022,0,-0.082836453,-1.254831151,1.099852387,-1.351410703,-1.745649163,-0.019913022,0,0.1606,0.6294,-0.299,-0.01597,0.00669,-0.00194
2025-09-12T21:30:14.419659,-0.082848374,-1.254831151,1.099852387,-1.351446466,-1.745685403,-0.019960705,0,-0.082848374,-1.254831151,1.099852387,-1.351446466,-1.745685403,-0.019960705,0,-0.0394,0.5494,-0.239,-0.01897,0.00969,-0.00194
2025-09-12T21:30:14.467688,-0.082824532,-1.254795389,1.099852387,-1.351434545,-1.745661084,-0.019960705,0,-0.082824532,-1.254795389,1.099852387,-1.351434545,-1.745661084,-0.019960705,0,0.1006,0.5294,-0.259,-0.01797,0.00569,-0.00194
2025-09-12T21:30:14.515739,-0.082824532,-1.254795389,1.099840943,-1.351434545,-1.745685403,-0.019936864,0,-0.082824532,-1.254795389,1.099840943,-1.351434545,-1.745685403,-0.019936864,0,0.0806,0.6094,-0.299,-0.01697,0.00769,-0.00394
2025-09-12T21:30:14.563774,-0.082848374,-1.254783468,1.099865739,-1.351458387,-1.745648686,-0.019948785,0,-0.082848374,-1.254783468,1.099865739,-1.351458387,-1.745648686,-0.019948785,0,-0.0994,0.5894,-0.319,-0.01597,0.00969,-0.00394
2025-09-12T21:30:14.611805,-0.082872216,-1.254771547,1.099852387,-1.351446466,-1.745401684,-0.019973103,0,-0.082872216,-1.254771547,1.099852387,-1.351446466,-1.745401684,-0.019973103,0,0.0206,0.5694,-0.439,-0.01297,-0.00031,-0.00294
2025-09-12T21:30:14.659909,-0.082847897,-1.254844503,1.10000879,-1.352022485,-1.744595353,-0.019924943,0,-0.082847897,-1.254844503,1.10000879,-1.352022485,-1.744595353,-0.019924943,0,0.0806,0.6094,-0.559,-0.02097,0.00769,-0.00394
2025-09-12T21:30:14.707960,-0.082725827,-1.255001859,1.100701157,-1.353284673,-1.743874852,-0.019900624,0,-0.082725827,-1.255001859,1.100701157,-1.353284673,-1.743874852,-0.019900624,0,0.1406,0.5694,-0.179,-0.02197,0.01169,-0.00294
2025-09-12T21:30:14.755914,-0.082509343,-1.255555467,1.101516549,-1.355616407,-1.743725125,-0.019960705,0,-0.082509343,-1.255555467,1.101516549,-1.355616407,-1.743725125,-0.019960705,0,0.1406,0.3494,-0.219,3.00E-05,0.01069,-0.00294
2025-09-12T21:30:14.803906,-0.082003895,-1.256154374,1.102513138,-1.358585672,-1.744053189,-0.019936864,0,-0.082003895,-1.256154374,1.102513138,-1.358585672,-1.744053189,-0.019936864,0,0.2606,0.0694,-0.039,0.01003,0.01369,-0.00394
2025-09-12T21:30:14.851956,-0.081442181,-1.25686057,1.103592698,-1.361681299,-1.744375531,-0.019900624,0,-0.081442181,-1.25686057,1.103592698,-1.361681299,-1.744375531,-0.019900624,0,-0.0194,0.3294,-0.199,-0.01697,-0.00331,-0.00094
2025-09-12T21:30:14.899973,-0.080974881,-1.257678346,1.104900185,-1.364442186,-1.744422261,-0.020108048,0,-0.080974881,-1.257678346,1.104900185,-1.364442186,-1.744422261,-0.020108048,0,-0.2194,0.8694,0.121,-0.05097,-0.00631,-0.00094
2025-09-12T21:30:14.948020,-0.080387417,-1.258985834,1.10617334,-1.36685069,-1.744287316,-0.020407502,0,-0.080387417,-1.258985834,1.10617334,-1.36685069,-1.744287316,-0.020407502,0,0.0406,1.1294,-0.299,-0.06597,-0.00031,-0.00294
2025-09-12T21:30:14.996028,-0.079654519,-1.260471658,1.107697312,-1.368343191,-1.743949238,-0.020598237,0,-0.079654519,-1.260471658,1.107697312,-1.368343191,-1.743949238,-0.020598237,0,0.2006,0.5294,-0.039,-0.02197,0.01169,-0.00194
2025-09-12T21:30:15.044088,-0.078707997,-1.262248353,1.109288041,-1.369957761,-1.743637387,-0.020825688,0,-0.078707997,-1.262248353,1.109288041,-1.369957761,-1.743637387,-0.020825688,0,0.2006,0.4694,0.101,-0.02097,0.01669,-0.00094
2025-09-12T21:30:15.092057,-0.077605073,-1.264863805,1.11046869,-1.371058778,-1.743410412,-0.020969216,0,-0.077605073,-1.264863805,1.11046869,-1.371058778,-1.743410412,-0.020969216,0,0.2606,0.3094,0.061,-0.00497,0.02769,-0.00194
2025-09-12T21:30:15.140164,-0.076453511,-1.268288926,1.111220185,-1.372673826,-1.743461911,-0.021100346,0,-0.076453511,-1.268288926,1.111220185,-1.372673826,-1.743461911,-0.021100346,0,0.3006,0.6294,0.601,-0.02697,0.03069,-0.00094
2025-09-12T21:30:15.188108,-0.075088803,-1.273459272,1.111539666,-1.374455766,-1.743898694,-0.021220032,0,-0.075088803,-1.273459272,1.111539666,-1.374455766,-1.743898694,-0.021220032,0,0.2606,0.4294,-0.079,-0.02397,0.02969,-0.00094
2025-09-12T21:30:15.236149,-0.073871915,-1.279723958,1.111682717,-1.37696536,-1.744636361,-0.021339242,0,-0.073871915,-1.279723958,1.111682717,-1.37696536,-1.744636361,-0.021339242,0,0.5006,0.6094,0.201,-0.03797,0.04169,-0.00194
2025-09-12T21:30:15.284238,-0.073035065,-1.286276178,1.111754243,-1.378810243,-1.745673005,-0.021339242,0,-0.073035065,-1.286276178,1.111754243,-1.378810243,-1.745673005,-0.021339242,0,0.3606,0.2094,0.101,3.00E-05,0.02669,6.00E-05
2025-09-12T21:30:15.332233,-0.072149579,-1.293532209,1.111837689,-1.38107665,-1.746803586,-0.021410767,0,-0.072149579,-1.293532209,1.111837689,-1.38107665,-1.746803586,-0.021410767,0,0.2606,0.2094,0.381,3.00E-05,0.03069,6.00E-05
2025-09-12T21:30:15.380216,-0.071347539,-1.301506357,1.111752335,-1.38288577,-1.747948949,-0.021471802,0,-0.071347539,-1.301506357,1.111752335,-1.38288577,-1.747948949,-0.021471802,0,0.3006,0.0694,0.001,0.00203,0.01869,6.00E-05
2025-09-12T21:30:15.428276,-0.070594136,-1.30925496,1.111740891,-1.385188417,-1.749098603,-0.02180082,0,-0.070594136,-1.30925496,1.111740891,-1.385188417,-1.749098603,-0.02180082,0,0.2206,-0.2306,0.301,0.01503,0.02569,6.00E-05
2025-09-12T21:30:15.476281,-0.069887463,-1.316717939,1.111730401,-1.389891939,-1.749890153,-0.022571389,0,-0.069887463,-1.316717939,1.111730401,-1.389891939,-1.749890153,-0.022571389,0,0.1206,-0.2506,0.001,0.01103,-0.00031,0.00306
2025-09-12T21:30:15.524288,-0.069023911,-1.323496656,1.112051312,-1.396538572,-1.750198189,-0.024001424,0,-0.069023911,-1.323496656,1.112051312,-1.396538572,-1.750198189,-0.024001424,0,0.0806,-0.2706,0.001,0.01303,0.01069,-0.00094
2025-09-12T21:30:15.572336,-0.067880932,-1.329790906,1.113670651,-1.40584691,-1.750318352,-0.025680844,0,-0.067880932,-1.329790906,1.113670651,-1.40584691,-1.750318352,-0.025680844,0,0.1606,-0.5506,-0.219,0.02103,0.00769,0.00306
2025-09-12T21:30:15.620362,-0.066171471,-1.335182981,1.116184537,-1.417111234,-1.750389401,-0.027764622,0,-0.066171471,-1.335182981,1.116184537,-1.417111234,-1.750389401,-0.027764622,0,-0.0994,-0.7506,-0.059,0.04103,0.00169,0.00106
2025-09-12T21:30:15.668399,-0.063023392,-1.339401559,1.119432751,-1.430615739,-1.750253979,-0.029466931,0,-0.063023392,-1.339401559,1.119432751,-1.430615739,-1.750253979,-0.029466931,0,0.3006,-0.7506,-0.099,0.04603,0.01969,6.00E-05
2025-09-12T21:30:15.716441,-0.059246842,-1.34242566,1.1225341,-1.445219354,-1.749978367,-0.031461541,0,-0.059246842,-1.34242566,1.1225341,-1.445219354,-1.749978367,-0.031461541,0,-0.0194,-0.8506,0.301,0.04103,0.01169,0.00406
2025-09-12T21:30:15.764517,-0.05504543,-1.34495099,1.124954526,-1.460110978,-1.749871079,-0.032772843,0,-0.05504543,-1.34495099,1.124954526,-1.460110978,-1.749871079,-0.032772843,0,0.7206,-0.4906,0.201,0.04003,0.04669,0.00106
2025-09-12T21:30:15.812489,-0.051244084,-1.347119169,1.126581494,-1.473355607,-1.749896351,-0.033727948,0,-0.051244084,-1.347119169,1.126581494,-1.473355607,-1.749896351,-0.033727948,0,0.5006,-0.4106,0.081,0.03303,0.03369,0.01006
2025-09-12T21:30:15.860531,-0.047969166,-1.349460916,1.127788846,-1.484832124,-1.750151936,-0.034214799,0.001703404,-0.047969166,-1.349460916,1.127788846,-1.484832124,-1.750151936,-0.034214799,0,0.3006,-0.5106,-0.039,0.02303,0.02269,0.00406
2025-09-12T21:30:15.908550,-0.045270268,-1.352063493,1.128803555,-1.493308858,-1.7504409,-0.034464661,0.005863853,-0.045270268,-1.352063493,1.128803555,-1.493308858,-1.7504409,-0.034464661,0,0.4606,-0.8106,-0.059,0.04103,0.03069,0.00406
2025-09-12T21:30:15.956578,-0.043217484,-1.354219274,1.129387204,-1.499757127,-1.750801388,-0.034692113,0.007977165,-0.043217484,-1.354219274,1.129387204,-1.499757127,-1.750801388,-0.034692113,0,0.5006,-0.9306,-0.119,0.04003,0.03569,0.00406
2025-09-12T21:30:16.004644,-0.041762654,-1.35594304,1.129696194,-1.504746274,-1.751101796,-0.034847085,0.012141714,-0.041762654,-1.35594304,1.129696194,-1.504746274,-1.751101796,-0.034847085,0,0.3006,-1.0106,0.041,0.07103,0.02669,0.00506
2025-09-12T21:30:16.052633,-0.040772263,-1.357426004,1.129839245,-1.508554296,-1.751268689,-0.035002534,0.014255067,-0.040772263,-1.357426004,1.129839245,-1.508554296,-1.751268689,-0.035002534,0,0.4606,-0.8106,-0.079,0.04203,0.04169,0.00206
2025-09-12T21:30:16.100638,-0.039959256,-1.358405427,1.130010907,-1.511442022,-1.751412217,-0.035096947,0.010132785,-0.039959256,-1.358405427,1.130010907,-1.511442022,-1.751412217,-0.035096947,0,0.4406,-1.3306,0.001,0.07503,0.02969,0.00206
2025-09-12T21:30:16.148720,-0.039158169,-1.35899003,1.130760495,-1.51634057,-1.75133783,-0.035023514,0.003876439,-0.039158169,-1.35899003,1.130760495,-1.51634057,-1.75133783,-0.035023514,0,0.3806,-1.1506,-0.139,0.05403,0.02569,0.00406
2025-09-12T21:30:16.196737,-0.038523976,-1.359460668,1.132568661,-1.523648576,-1.751192872,-0.034855191,3.88E-05,-0.038523976,-1.359460668,1.132568661,-1.523648576,-1.751192872,-0.034855191,0,0.2406,-1.1106,-0.339,0.06103,0.01369,0.00306
2025-09-12T21:30:16.244748,-0.037840192,-1.360451059,1.13712341,-1.534737424,-1.75101215,-0.034626786,3.88E-07,-0.037840192,-1.360451059,1.13712341,-1.534737424,-1.75101215,-0.034626786,0,0.3206,-1.0706,-0.039,0.07803,0.01769,0.00506
2025-09-12T21:30:16.292786,-0.036877934,-1.36223586,1.143503491,-1.549177007,-1.750830475,-0.034411732,3.88E-09,-0.036877934,-1.36223586,1.143503491,-1.549177007,-1.750830475,-0.034411732,0,0.0406,-1.1906,0.121,0.07903,0.01469,6.00E-05
2025-09-12T21:30:16.340841,-0.035498444,-1.36445363,1.151064221,-1.565774278,-1.750332181,-0.0342086,3.88E-11,-0.035498444,-1.36445363,1.151064221,-1.565774278,-1.750332181,-0.0342086,0,0.1206,-1.6306,0.141,0.08403,0.02569,6.00E-05
2025-09-12T21:30:16.388832,-0.033892457,-1.366115407,1.158188168,-1.582754751,-1.749171082,-0.034053151,3.88E-13,-0.033892457,-1.366115407,1.158188168,-1.582754751,-1.749171082,-0.034053151,0,0.0206,-1.4506,0.021,0.06403,0.01969,6.00E-05
2025-09-12T21:30:16.436892,-0.03192598,-1.36741765,1.164097134,-1.59724774,-1.747632806,-0.033946339,3.88E-15,-0.03192598,-1.36741765,1.164097134,-1.59724774,-1.747632806,-0.033946339,0,0.5606,-1.1706,-0.059,0.07803,0.02769,0.00406
2025-09-12T21:30:16.484933,-0.02990133,-1.368067579,1.168379132,-1.609689375,-1.746812646,-0.033898656,3.88E-17,-0.02990133,-1.368067579,1.168379132,-1.609689375,-1.746812646,-0.033898656,0,0.2006,-1.4306,-0.579,0.07703,0.01469,0.00306
2025-09-12T21:30:16.532977,-0.027784173,-1.367469148,1.171850506,-1.618633886,-1.746928994,-0.033862893,3.88E-19,-0.027784173,-1.367469148,1.171850506,-1.618633886,-1.746928994,-0.033862893,0,0.4206,-1.5106,-0.119,0.10303,0.02769,0.00306
2025-09-12T21:30:16.581019,-0.026054207,-1.366082982,1.174663846,-1.625608107,-1.747486893,-0.033791367,3.88E-21,-0.026054207,-1.366082982,1.174663846,-1.625608107,-1.747486893,-0.033791367,0,0.2406,-1.5106,-0.279,0.09303,0.03069,0.00406
2025-09-12T21:30:16.629046,-0.024812524,-1.36415656,1.177437131,-1.630985876,-1.748658959,-0.03378946,3.88E-23,-0.024812524,-1.36415656,1.177437131,-1.630985876,-1.748658959,-0.03378946,0,0.3006,-1.2106,-0.319,0.06503,0.01669,0.00306
2025-09-12T21:30:16.677037,-0.023866955,-1.361649827,1.180265729,-1.634788652,-1.749726597,-0.033459489,3.88E-25,-0.023866955,-1.361649827,1.180265729,-1.634788652,-1.749726597,-0.033459489,0,-0.0194,-1.9506,-0.379,0.10103,0.01569,0.00306
2025-09-12T21:30:16.725047,-0.023053471,-1.357266263,1.182876889,-1.637438913,-1.750467602,-0.032510106,3.88E-27,-0.023053471,-1.357266263,1.182876889,-1.637438913,-1.750467602,-0.032510106,0,0.1406,-1.7106,-0.019,0.09703,0.01969,0.00206
2025-09-12T21:30:16.773060,-0.022504632,-1.352037744,1.185495679,-1.639686724,-1.750972573,-0.031165425,3.88E-29,-0.022504632,-1.352037744,1.185495679,-1.639686724,-1.750972573,-0.031165425,0,0.3206,-0.9906,-0.719,0.05303,0.02569,0.00106
2025-09-12T21:30:16.821127,-0.022255246,-1.345685796,1.188421551,-1.640974661,-1.751477067,-0.029631917,3.88E-31,-0.022255246,-1.345685796,1.188421551,-1.640974661,-1.751477067,-0.029631917,0,0.3406,-1.2106,0.181,0.07103,0.02669,0.00206
2025-09-12T21:30:16.869132,-0.022087876,-1.339524583,1.191274945,-1.64253821,-1.751909558,-0.028416936,3.88E-33,-0.022087876,-1.339524583,1.191274945,-1.64253821,-1.751909558,-0.028416936,0,0.1406,-1.1906,-0.359,0.05803,0.02069,0.00206
2025-09-12T21:30:16.917162,-0.02196819,-1.332594709,1.193617169,-1.643464228,-1.752281014,-0.027482335,3.88E-35,-0.02196819,-1.332594709,1.193617169,-1.643464228,-1.752281014,-0.027482335,0,0.3806,-1.3706,0.321,0.07403,0.02969,6.00E-05
2025-09-12T21:30:16.965163,-0.021858994,-1.325846986,1.195289914,-1.644147059,-1.752582852,-0.026477639,3.88E-37,-0.021858994,-1.325846986,1.195289914,-1.644147059,-1.752582852,-0.026477639,0,0.0806,-1.1906,-0.119,0.06303,0.01469,0.00206
2025-09-12T21:30:17.013298,-0.021436993,-1.31886609,1.196691815,-1.644637724,-1.75294191,-0.025835816,3.88E-39,-0.021436993,-1.31886609,1.196691815,-1.644637724,-1.75294191,-0.025835816,0,0.2606,-1.3306,0.001,0.07103,0.02369,6.00E-05
2025-09-12T21:30:17.061229,-0.021078889,-1.311429815,1.197634045,-1.645107409,-1.753145997,-0.025427643,3.88E-41,-0.021078889,-1.311429815,1.197634045,-1.645107409,-1.753145997,-0.025427643,0,0.1406,-1.3906,-0.079,0.07903,0.01669,6.00E-05
2025-09-12T21:30:17.109333,-0.020815674,-1.303310708,1.198255841,-1.645717283,-1.753264729,-0.024707143,3.88E-43,-0.020815674,-1.303310708,1.198255841,-1.645717283,-1.753264729,-0.024707143,0,0.2406,-1.2306,0.021,0.06803,0.01469,0.00106
2025-09-12T21:30:17.157325,-0.020685975,-1.295045213,1.198564831,-1.646148344,-1.753139798,-0.024013344,3.88E-45,-0.020685975,-1.295045213,1.198564831,-1.646148344,-1.753139798,-0.024013344,0,0.2206,-1.0906,-0.059,0.05803,0.02469,0.00206
2025-09-12T21:30:17.205395,-0.020686452,-1.286773042,1.198755566,-1.646424433,-1.752619092,-0.023320023,3.88E-47,-0.020686452,-1.286773042,1.198755566,-1.646424433,-1.752619092,-0.023320023,0,0.0006,-0.9706,0.161,0.05203,0.01769,0.00206
2025-09-12T21:30:17.253406,-0.020613496,-1.2786835,1.198862378,-1.646687647,-1.751590554,-0.022794549,3.88E-49,-0.020613496,-1.2786835,1.198862378,-1.646687647,-1.751590554,-0.022794549,0,0.1006,-0.9306,-0.299,0.06103,0.01069,6.00E-05
2025-09-12T21:30:17.301473,-0.020504777,-1.270115213,1.199030224,-1.646842619,-1.750328366,-0.02247316,3.88E-51,-0.020504777,-1.270115213,1.199030224,-1.646842619,-1.750328366,-0.02247316,0,0.2806,-0.9706,0.221,0.05403,0.02469,6.00E-05
2025-09-12T21:30:17.349436,-0.020362202,-1.261535959,1.198978726,-1.647048136,-1.749115769,-0.022246186,3.88E-53,-0.020362202,-1.261535959,1.198978726,-1.647048136,-1.749115769,-0.022246186,0,0.3206,-0.7906,-0.039,0.05103,0.01869,0.00106
2025-09-12T21:30:17.397548,-0.020435635,-1.252994851,1.198614422,-1.64750876,-1.748166863,-0.022019211,3.88E-55,-0.020435635,-1.252994851,1.198614422,-1.64750876,-1.748166863,-0.022019211,0,0.2006,-0.8906,0.241,0.05303,0.02369,0.00106
2025-09-12T21:30:17.445511,-0.020459954,-1.244542913,1.198074643,-1.648820063,-1.747435872,-0.02183849,3.88E-57,-0.020459954,-1.244542913,1.198074643,-1.648820063,-1.747435872,-0.02183849,0,0.2606,-1.2106,0.381,0.07403,0.03069,0.00106
2025-09-12T21:30:17.493534,-0.020713631,-1.236414747,1.197464291,-1.65350165,-1.746992413,-0.021502797,3.88E-59,-0.020713631,-1.236414747,1.197464291,-1.65350165,-1.746992413,-0.021502797,0,0.4406,-1.3106,0.601,0.09703,0.03969,6.00E-05
2025-09-12T21:30:17.541556,-0.021014992,-1.22966464,1.196779553,-1.661246916,-1.74669439,-0.021190468,3.88E-61,-0.021014992,-1.22966464,1.196779553,-1.661246916,-1.74669439,-0.021190468,0,0.2606,-1.2706,0.061,0.07703,0.02169,0.00106
2025-09-12T21:30:17.589558,-0.021496121,-1.223275022,1.196180646,-1.672476908,-1.746610943,-0.020674054,3.88E-63,-0.021496121,-1.223275022,1.196180646,-1.672476908,-1.746610943,-0.020674054,0,0.3006,-1.1106,-0.039,0.05603,0.02769,6.00E-05
2025-09-12T21:30:17.637586,-0.022207085,-1.216746644,1.195751492,-1.684933325,-1.746598069,-0.020084683,3.88E-65,-0.022207085,-1.216746644,1.195751492,-1.684933325,-1.746598069,-0.020084683,0,0.1606,-0.9706,0.001,0.05203,0.02569,0.00306
2025-09-12T21:30:17.685608,-0.023351971,-1.209931211,1.195246045,-1.698318144,-1.746489827,-0.019110505,3.88E-67,-0.023351971,-1.209931211,1.195246045,-1.698318144,-1.746489827,-0.019110505,0,0.3206,-0.6706,0.041,0.03603,0.02769,0.00306
2025-09-12T21:30:17.733625,-0.02495176,-1.203580217,1.194801633,-1.71053042,-1.746343915,-0.017645661,3.88E-69,-0.02495176,-1.203580217,1.194801633,-1.71053042,-1.746343915,-0.017645661,0,0.5006,-0.7906,-0.179,0.05103,0.03269,6.00E-05
2025-09-12T21:30:17.781681,-0.02716047,-1.197798089,1.194189374,-1.720556875,-1.746030156,-0.013913933,3.88E-71,-0.02716047,-1.197798089,1.194189374,-1.720556875,-1.746030156,-0.013913933,0,0.1806,-0.8906,0.181,0.04303,0.02469,0.00106
2025-09-12T21:30:17.829754,-0.029865567,-1.192473726,1.193590466,-1.729204794,-1.74562246,-0.00766832,3.88E-73,-0.029865567,-1.192473726,1.193590466,-1.729204794,-1.74562246,-0.00766832,0,0.8006,-0.9506,-0.279,0.05903,0.05969,0.00206
2025-09-12T21:30:17.877747,-0.033934895,-1.187229947,1.193260495,-1.735677382,-1.745478455,0.000889778,3.88E-75,-0.033934895,-1.187229947,1.193260495,-1.735677382,-1.745478455,0.000889778,0,-0.0394,-0.8906,0.121,0.05003,0.01469,6.00E-05
2025-09-12T21:30:17.925766,-0.03882486,-1.182540731,1.193373028,-1.740498205,-1.745239083,0.011293888,3.88E-77,-0.03882486,-1.182540731,1.193373028,-1.740498205,-1.745239083,0.011293888,0,0.4006,-0.7706,-0.179,0.04503,0.04069,0.00106
2025-09-12T21:30:17.973892,-0.044499699,-1.177714185,1.194034878,-1.744104048,-1.745166127,0.022315502,3.88E-79,-0.044499699,-1.177714185,1.194034878,-1.744104048,-1.745166127,0.022315502,0,-0.0994,-0.3506,-0.159,0.01103,0.00869,6.00E-05
2025-09-12T21:30:18.021809,-0.049625222,-1.173168973,1.194790188,-1.746419569,-1.745046918,0.030939102,3.88E-81,-0.049625222,-1.173168973,1.194790188,-1.746419569,-1.745046918,0.030939102,0,0.0806,-0.8106,-0.199,0.04603,0.01969,-0.00094
2025-09-12T21:30:18.069838,-0.054676835,-1.167690591,1.19508392,-1.748157164,-1.745024029,0.038604259,3.88E-83,-0.054676835,-1.167690591,1.19508392,-1.748157164,-1.745024029,0.038604259,0,-0.0994,-1.2106,0.161,0.08003,-0.00031,-0.00094
2025-09-12T21:30:18.117882,-0.058452908,-1.162127809,1.194948498,-1.750017782,-1.745121304,0.044099331,3.88E-85,-0.058452908,-1.162127809,1.194948498,-1.750017782,-1.745121304,0.044099331,0,-0.2594,-1.1306,-0.179,0.06703,-0.00931,-0.00094
2025-09-12T21:30:18.165915,-0.061731164,-1.15566905,1.194465939,-1.751710554,-1.745205228,0.048299789,3.88E-87,-0.061731164,-1.15566905,1.194465939,-1.751710554,-1.745205228,0.048299789,0,0.3206,-1.4106,0.281,0.08103,0.02569,-0.00294
2025-09-12T21:30:18.213961,-0.064841096,-1.149159269,1.193779294,-1.754297873,-1.745385949,0.051470757,3.88E-89,-0.064841096,-1.149159269,1.193779294,-1.754297873,-1.745385949,0.051470757,0,-0.0394,-0.7706,0.041,0.03803,0.00169,-0.00194
2025-09-12T21:30:18.261971,-0.068144623,-1.143134908,1.193050687,-1.756738802,-1.745410268,0.053556919,3.88E-91,-0.068144623,-1.143134908,1.193050687,-1.756738802,-1.745410268,0.053556919,0,-0.0994,-0.5906,0.581,0.02403,0.01269,6.00E-05
2025-09-12T21:30:18.309988,-0.07089359,-1.138987378,1.192474667,-1.758440157,-1.745494668,0.054530621,3.88E-93,-0.07089359,-1.138987378,1.192474667,-1.758440157,-1.745494668,0.054530621,0,0.3806,-0.7306,0.441,0.04503,0.02869,-0.00294
2025-09-12T21:30:18.358041,-0.073524777,-1.136314706,1.191950146,-1.760230204,-1.745736424,0.055211544,3.88E-95,-0.073524777,-1.136314706,1.191950146,-1.760230204,-1.745736424,0.055211544,0,-0.0794,-0.3106,0.041,0.01503,-0.00031,6.00E-05
2025-09-12T21:30:18.406053,-0.075542275,-1.134689168,1.191883389,-1.76117911,-1.746089284,0.055774689,3.88E-97,-0.075542275,-1.134689168,1.191883389,-1.76117911,-1.746089284,0.055774689,0,0.2206,-0.7706,0.181,0.04103,0.02369,-0.00194
2025-09-12T21:30:18.454130,-0.077445332,-1.133627252,1.192125622,-1.761801382,-1.746933285,0.056444645,3.88E-99,-0.077445332,-1.133627252,1.192125622,-1.761801382,-1.746933285,0.056444645,0,-0.1394,-0.6906,0.121,0.04103,-0.00331,-0.00094
2025-09-12T21:30:18.502125,-0.079142872,-1.132958726,1.192730252,-1.762084147,-1.747479741,0.05697298,3.88E-101,-0.079142872,-1.132958726,1.192730252,-1.762084147,-1.747479741,0.05697298,0,0.0206,-0.6106,0.061,0.02903,0.00869,6.00E-05
2025-09-12T21:30:18.550154,-0.080915753,-1.132796602,1.193617169,-1.761973997,-1.747441594,0.057934284,3.88E-103,-0.080915753,-1.132796602,1.193617169,-1.761973997,-1.747441594,0.057934284,0,-0.0394,-0.7906,0.141,0.04303,0.01569,-0.00194
2025-09-12T21:30:18.598194,-0.082577054,-1.132928686,1.194626156,-1.761611601,-1.747268502,0.059002876,3.88E-105,-0.082577054,-1.132928686,1.194626156,-1.761611601,-1.747268502,0.059002876,0,-0.0794,-0.7306,0.001,0.04003,0.00869,6.00E-05
2025-09-12T21:30:18.646223,-0.083925072,-1.133074121,1.195827786,-1.761167666,-1.746822659,0.060758591,3.88E-107,-0.083925072,-1.133074121,1.195827786,-1.761167666,-1.746822659,0.060758591,0,-0.0794,-0.7306,0.141,0.04403,0.00569,-0.00094
2025-09-12T21:30:18.694206,-0.084662263,-1.133350686,1.197038953,-1.760772368,-1.746316735,0.062842846,3.88E-109,-0.084662263,-1.133350686,1.197038953,-1.760772368,-1.746316735,0.062842846,0,-0.1194,-0.8106,0.001,0.04503,0.00569,-0.00594
2025-09-12T21:30:18.742347,-0.085102383,-1.133479432,1.198030774,-1.760414263,-1.745763127,0.06729269,3.88E-111,-0.085102383,-1.133479432,1.198030774,-1.760414263,-1.745763127,0.06729269,0,-0.0994,-0.8306,0.201,0.04903,0.00269,-0.00094
2025-09-12T21:30:18.790287,-0.085340325,-1.13341792,1.198612515,-1.760356089,-1.745004956,0.072132111,3.88E-113,-0.085340325,-1.13341792,1.198612515,-1.760356089,-1.745004956,0.072132111,0,0.1206,-0.8906,0.001,0.05003,0.00969,-0.00194
2025-09-12T21:30:18.838308,-0.085471455,-1.133088903,1.19864494,-1.760611197,-1.744633977,0.076503277,3.88E-115,-0.085471455,-1.133088903,1.19864494,-1.760611197,-1.744633977,0.076503277,0,-0.0394,-0.8306,-0.059,0.04803,0.00069,-0.00494
2025-09-12T21:30:18.886363,-0.08557922,-1.13215907,1.1986087,-1.760912081,-1.744179074,0.081552982,3.88E-117,-0.08557922,-1.13215907,1.1986087,-1.760912081,-1.744179074,0.081552982,0,0.0806,-0.7706,-0.119,0.04803,0.01169,-0.00294
2025-09-12T21:30:18.934399,-0.085723225,-1.130934553,1.198671643,-1.761259695,-1.744048421,0.086232662,3.88E-119,-0.085723225,-1.130934553,1.198671643,-1.761259695,-1.744048421,0.086232662,0,0.0006,-0.7106,0.121,0.04103,0.00969,-0.00494
2025-09-12T21:30:18.982410,-0.085879628,-1.129637555,1.198902432,-1.761607309,-1.743976418,0.091816902,3.88E-121,-0.085879628,-1.129637555,1.198902432,-1.761607309,-1.743976418,0.091816902,0,0.1806,-0.7306,-0.199,0.03903,0.01669,-0.00494
2025-09-12T21:30:19.030423,-0.086436574,-1.128279523,1.199577634,-1.761822363,-1.743991677,0.096909523,3.88E-123,-0.086436574,-1.128279523,1.199577634,-1.761822363,-1.743991677,0.096909523,0,0.1206,-0.7906,0.041,0.04203,0.01369,-0.00594
2025-09-12T21:30:19.078458,-0.087374989,-1.126617746,1.200430218,-1.762075563,-1.744610135,0.101633072,3.88E-125,-0.087374989,-1.126617746,1.200430218,-1.762075563,-1.744610135,0.101633072,0,0.3606,-0.7906,-0.439,0.05403,0.02469,-0.00294
2025-09-12T21:30:19.126515,-0.089113537,-1.12406476,1.201269452,-1.762411734,-1.745405976,0.10517168,3.88E-127,-0.089113537,-1.12406476,1.201269452,-1.762411734,-1.745405976,0.10517168,0,0.2406,-0.9506,-0.079,0.05603,0.01569,-0.00394
2025-09-12T21:30:19.174537,-0.092492882,-1.120855169,1.201935116,-1.762870451,-1.746075455,0.108457088,3.88E-129,-0.092492882,-1.120855169,1.201935116,-1.762870451,-1.746075455,0.108457088,0,0.7006,-0.9906,-0.139,0.05703,0.04269,-0.00594
2025-09-12T21:30:19.222565,-0.098118607,-1.116920785,1.201940838,-1.763468405,-1.74634916,0.111150265,3.88E-131,-0.098118607,-1.116920785,1.201940838,-1.763468405,-1.74634916,0.111150265,0,0.1406,-0.8306,-0.319,0.05303,0.02469,-0.00594
2025-09-12T21:30:19.270605,-0.104945962,-1.112001256,1.201734845,-1.76391234,-1.746677701,0.115054607,3.88E-133,-0.104945962,-1.112001256,1.201734845,-1.76391234,-1.746677701,0.115054607,0,0.3806,-0.9106,-0.319,0.05703,0.03169,-0.00494
2025-09-12T21:30:19.318686,-0.112718407,-1.105626897,1.201340024,-1.764297148,-1.747342412,0.119465828,3.88E-135,-0.112718407,-1.105626897,1.201340024,-1.764297148,-1.747342412,0.119465828,0,0.1806,-1.0706,0.141,0.06303,0.02069,-0.00594
2025-09-12T21:30:19.366627,-0.12133104,-1.098478631,1.200992886,-1.765100142,-1.748341386,0.124430656,3.88E-137,-0.12133104,-1.098478631,1.200992886,-1.765100142,-1.748341386,0.124430656,0,0.2206,-1.1906,-0.339,0.06803,0.01769,-0.00694
2025-09-12T21:30:19.398686,-0.131347958,-1.090118245,1.200634305,-1.76825585,-1.749033753,0.129208088,3.88E-139,-0.131347958,-1.090118245,1.200634305,-1.76825585,-1.749033753,0.129208088,0,0.0406,-0.5506,0.001,0.03203,0.00769,-0.00394
2025-09-12T21:30:19.430702,-0.138550584,-1.084189729,1.200624768,-1.771497866,-1.749188248,0.131931305,3.88E-141,-0.138550584,-1.084189729,1.200624768,-1.771497866,-1.749188248,0.131931305,0,0.6006,-1.0306,-0.239,0.06303,0.03369,-0.00994
2025-09-12T21:30:19.462697,-0.146354024,-1.077892141,1.200626675,-1.77580752,-1.749308411,0.135095596,3.88E-143,-0.146354024,-1.077892141,1.200626675,-1.77580752,-1.749308411,0.135095596,0,0.1006,-0.7506,0.221,0.04503,0.01769,-0.00694
2025-09-12T21:30:19.494706,-0.154615704,-1.071641759,1.200710599,-1.780486723,-1.749367062,0.137827873,3.88E-145,-0.154615704,-1.071641759,1.200710599,-1.780486723,-1.749367062,0.137827873,0,-0.0594,-0.2906,0.361,0.01003,0.00469,-0.00394
2025-09-12T21:30:19.542774,-0.16289312,-1.065707521,1.200880353,-1.785389563,-1.749354664,0.14052248,3.88E-147,-0.16289312,-1.065707521,1.200880353,-1.785389563,-1.749354664,0.14052248,0,0.1806,-0.4506,0.181,0.01803,0.03069,-0.00694
2025-09-12T21:30:19.590786,-0.174917046,-1.057185964,1.201254193,-1.791824957,-1.749339883,0.144496918,3.88E-149,-0.174917046,-1.057185964,1.201254193,-1.791824957,-1.749339883,0.144496918,0,-0.1794,-0.5106,0.361,0.03103,-0.00131,-0.00694
2025-09-12T21:30:19.638809,-0.185775105,-1.049544172,1.201793973,-1.797043463,-1.74901468,0.1483922,3.88E-151,-0.185775105,-1.049544172,1.201793973,-1.797043463,-1.74901468,0.1483922,0,-0.1594,-0.3106,0.441,3.00E-05,0.00169,-0.00594
2025-09-12T21:30:19.670878,-0.195195977,-1.043259458,1.202526395,-1.801454683,-1.748899285,0.152502537,3.88E-153,-0.195195977,-1.043259458,1.202526395,-1.801454683,-1.748899285,0.152502537,0,-0.1994,-0.9306,0.281,0.06103,-0.02631,-0.00694
2025-09-12T21:30:19.718861,-0.200860802,-1.039800958,1.203020398,-1.804504534,-1.749181096,0.155515671,3.88E-155,-0.200860802,-1.039800958,1.203020398,-1.804504534,-1.749181096,0.155515671,0,-0.3394,-0.3506,0.361,0.01203,-0.01831,-0.00994
2025-09-12T21:30:19.750878,-0.20828325,-1.035213785,1.203859631,-1.809702536,-1.75007755,0.15914011,3.88E-157,-0.20828325,-1.035213785,1.203859631,-1.809702536,-1.75007755,0.15914011,0,-0.3994,-0.4706,0.421,0.03303,-0.02531,-0.00894
2025-09-12T21:30:19.782961,-0.212381665,-1.032713727,1.204462353,-1.813363215,-1.750883881,0.161397457,3.88E-159,-0.212381665,-1.032713727,1.204462353,-1.813363215,-1.750883881,0.161397457,0,0.2006,-0.4706,0.201,0.02803,0.01669,-0.00694
2025-09-12T21:30:19.830915,-0.216555897,-1.030633764,1.205511395,-1.817367216,-1.751785103,0.163341999,3.88E-161,-0.216555897,-1.030633764,1.205511395,-1.817367216,-1.751785103,0.163341999,0,0.0806,-0.1106,0.021,3.00E-05,0.01869,-0.00594
2025-09-12T21:30:19.862953,-0.221932236,-1.028385,1.207449261,-1.822712084,-1.752694909,0.165282726,3.88E-163,-0.221932236,-1.028385,1.207449261,-1.822712084,-1.752694909,0.165282726,0,-0.1994,-0.4506,0.281,0.02903,-0.01331,-0.00394
2025-09-12T21:30:19.895013,-0.225218598,-1.027339773,1.209202115,-1.82575049,-1.753188435,0.166230679,3.88E-165,-0.225218598,-1.027339773,1.209202115,-1.82575049,-1.753188435,0.166230679,0,-0.2794,-0.9106,0.461,0.04203,-0.01231,-0.00594
2025-09-12T21:30:19.926943,-0.228168313,-1.02697833,1.211113278,-1.828347822,-1.753571812,0.167318344,3.88E-167,-0.228168313,-1.02697833,1.211113278,-1.828347822,-1.753571812,0.167318344,0,-0.1394,-0.3506,0.541,0.02303,-0.00431,-0.00794
2025-09-12T21:30:19.958950,-0.230562989,-1.02715476,1.213089291,-1.830729147,-1.753968541,0.168076515,3.88E-169,-0.230562989,-1.02715476,1.213089291,-1.830729147,-1.753968541,0.168076515,0,-0.0994,-0.0306,0.341,-0.00597,0.01069,-0.00494
2025-09-12T21:30:19.991030,-0.23226339,-1.02789052,1.21499664,-1.832797667,-1.75433952,0.168600559,3.88E-171,-0.23226339,-1.02789052,1.21499664,-1.832797667,-1.75433952,0.168600559,0,-0.1394,-0.6706,-0.019,0.04503,0.00169,-0.00694
2025-09-12T21:30:20.023037,-0.233380143,-1.028526143,1.216839139,-1.834531446,-1.754531209,0.168857098,3.88E-173,-0.233380143,-1.028526143,1.216839139,-1.834531446,-1.754531209,0.168857098,0,-0.4794,-0.5106,0.341,0.03103,-0.02831,-0.00394
2025-09-12T21:30:20.055066,-0.234018628,-1.029185609,1.2184642,-1.836040636,-1.754625622,0.168562412,3.88E-175,-0.234018628,-1.029185609,1.2184642,-1.836040636,-1.754625622,0.168562412,0,0.0006,-0.7306,0.401,0.03603,0.00369,-0.00594
2025-09-12T21:30:20.103088,-0.234168355,-1.030039625,1.219791714,-1.837597509,-1.754732434,0.167972088,3.88E-177,-0.234168355,-1.030039625,1.219791714,-1.837597509,-1.754732434,0.167972088,0,-0.1794,-0.5506,-0.059,0.02503,-0.01231,-0.00594
2025-09-12T21:30:20.151095,-0.233924214,-1.031008081,1.221350018,-1.839149614,-1.754670445,0.166598797,3.88E-179,-0.233924214,-1.031008081,1.221350018,-1.839149614,-1.754670445,0.166598797,0,0.0606,-0.6506,0.161,0.03003,0.00569,-0.00394
2025-09-12T21:30:20.200125,-0.233479802,-1.031893567,1.22293121,-1.840588232,-1.754438702,0.165049076,3.88E-181,-0.233479802,-1.031893567,1.22293121,-1.840588232,-1.754438702,0.165049076,0,-0.0594,-0.5306,-0.039,0.02903,0.00669,-0.00494
2025-09-12T21:30:20.247144,-0.232734982,-1.032224492,1.224808041,-1.84160914,-1.753982846,0.163247585,3.88E-183,-0.232734982,-1.032224492,1.224808041,-1.84160914,-1.753982846,0.163247585,0,0.0606,-0.5106,-0.099,0.03003,0.01169,-0.00494
2025-09-12T21:30:20.279254,-0.231905762,-1.032538251,1.227361981,-1.842824122,-1.753815476,0.161754131,3.88E-185,-0.231905762,-1.032538251,1.227361981,-1.842824122,-1.753815476,0.161754131,0,-0.0394,-0.3506,-0.059,0.01903,0.00169,-0.00294
2025-09-12T21:30:20.311284,-0.230856721,-1.032752351,1.229667966,-1.843821188,-1.753657643,0.160671234,3.88E-187,-0.230856721,-1.032752351,1.229667966,-1.843821188,-1.753657643,0.160671234,0,-0.2194,-0.5706,0.081,0.03203,-0.00531,-0.00294
2025-09-12T21:30:20.343252,-0.229353253,-1.032750444,1.231993024,-1.845148226,-1.753453557,0.159206867,3.88E-189,-0.229353253,-1.032750444,1.231993024,-1.845148226,-1.753453557,0.159206867,0,-0.2194,-0.6706,0.061,0.03503,-0.00431,-0.00494
2025-09-12T21:30:20.375254,-0.227520291,-1.032650785,1.234245602,-1.847139498,-1.753187005,0.157803059,3.88E-191,-0.227520291,-1.032650785,1.234245602,-1.847139498,-1.753187005,0.157803059,0,-0.0394,-0.3906,-0.039,0.01203,0.00769,-0.00394
2025-09-12T21:30:20.407263,-0.22540981,-1.032346086,1.236437146,-1.848586699,-1.752849881,0.15549469,3.88E-193,-0.22540981,-1.032346086,1.236437146,-1.848586699,-1.752849881,0.15549469,0,-0.0394,-0.7306,0.021,0.04103,0.00269,-0.00294
2025-09-12T21:30:20.439345,-0.223210637,-1.03170617,1.238523785,-1.850410601,-1.752488915,0.152075768,3.88E-195,-0.223210637,-1.03170617,1.238523785,-1.850410601,-1.752488915,0.152075768,0,0.2606,-0.2306,0.001,3.00E-05,0.02969,-0.00494
2025-09-12T21:30:20.471322,-0.221322362,-1.030924158,1.240707699,-1.85163941,-1.752151791,0.147960186,3.88E-197,-0.221322362,-1.030924158,1.240707699,-1.85163941,-1.752151791,0.147960186,0,-0.0594,-0.5906,-0.079,0.03303,0.01069,6.00E-05
2025-09-12T21:30:20.503331,-0.219541852,-1.029948549,1.243074719,-1.853017469,-1.751791779,0.142232895,3.88E-199,-0.219541852,-1.029948549,1.243074719,-1.853017469,-1.751791779,0.142232895,0,0.2006,-0.7506,0.201,0.03903,0.02069,6.00E-05
2025-09-12T21:30:20.535373,-0.217967812,-1.028721647,1.2454837,-1.854786058,-1.751481835,0.135370731,3.88E-201,-0.217967812,-1.028721647,1.2454837,-1.854786058,-1.751481835,0.135370731,0,0.3406,-0.3306,-0.059,0.01903,0.02869,6.00E-05
2025-09-12T21:30:20.567377,-0.216788594,-1.027350263,1.248047177,-1.856798311,-1.751459424,0.127929211,3.88E-203,-0.216788594,-1.027350263,1.248047177,-1.856798311,-1.751459424,0.127929211,0,0.1806,-0.8306,0.061,0.04703,0.02769,0.00106
2025-09-12T21:30:20.599408,-0.215857331,-1.025592641,1.250343625,-1.859433313,-1.751534287,0.120120049,3.88E-205,-0.215857331,-1.025592641,1.250343625,-1.859433313,-1.751534287,0.120120049,0,0.2206,-0.7906,0.221,0.04003,0.02269,0.00106
2025-09-12T21:30:20.631432,-0.215130154,-1.023512678,1.252281491,-1.862674852,-1.751642052,0.112414837,3.88E-207,-0.215130154,-1.023512678,1.252281491,-1.862674852,-1.751642052,0.112414837,0,0.1006,-0.0506,0.001,-0.00497,0.02169,-0.00094
2025-09-12T21:30:20.663439,-0.21459562,-1.021259145,1.253904645,-1.866069456,-1.751727883,0.105457306,3.88E-209,-0.21459562,-1.021259145,1.253904645,-1.866069456,-1.751727883,0.105457306,0,0.5006,-0.5706,0.541,0.01803,0.03969,-0.00294
2025-09-12T21:30:20.695469,-0.214313809,-1.019246416,1.254803006,-1.869399687,-1.751934354,0.099689484,3.88E-211,-0.214313809,-1.019246416,1.254803006,-1.869399687,-1.751934354,0.099689484,0,0.7606,-0.3506,0.201,0.00103,0.04769,6.00E-05
2025-09-12T21:30:20.727473,-0.214425389,-1.017277078,1.254865948,-1.872367521,-1.752284352,0.09480238,3.88E-213,-0.214425389,-1.017277078,1.254865948,-1.872367521,-1.752284352,0.09480238,0,0.1806,-0.2506,0.021,3.00E-05,0.01869,0.00206
2025-09-12T21:30:20.759485,-0.214717213,-1.015201406,1.254415814,-1.87487044,-1.752706353,0.090667725,3.88E-215,-0.214717213,-1.015201406,1.254415814,-1.87487044,-1.752706353,0.090667725,0,0.5006,-0.4706,0.261,0.02703,0.04469,6.00E-05
2025-09-12T21:30:20.791497,-0.215271298,-1.013305978,1.253715817,-1.876514097,-1.753189389,0.087524891,3.88E-217,-0.215271298,-1.013305978,1.253715817,-1.876514097,-1.753189389,0.087524891,0,0.0806,-0.8106,0.001,0.05103,0.00669,0.00306
2025-09-12T21:30:20.823546,-0.216028515,-1.011267976,1.252691571,-1.878115316,-1.753705804,0.084745407,3.88E-219,-0.216028515,-1.011267976,1.252691571,-1.878115316,-1.753705804,0.084745407,0,0.3206,-0.2706,0.381,0.00403,0.02369,0.00306
2025-09-12T21:30:20.855542,-0.217085663,-1.009460763,1.251320187,-1.878959795,-1.75423557,0.082681179,3.88E-221,-0.217085663,-1.009460763,1.251320187,-1.878959795,-1.75423557,0.082681179,0,0.2606,-0.4306,0.381,0.02503,0.03469,0.00106
2025-09-12T21:30:20.887561,-0.218270604,-1.008011655,1.249773328,-1.879798075,-1.754775826,0.08177948,3.88E-223,-0.218270604,-1.008011655,1.249773328,-1.879798075,-1.754775826,0.08177948,0,0.2006,-0.3506,0.001,0.01203,0.01469,0.00106
2025-09-12T21:30:20.919587,-0.219430749,-1.006573038,1.248350445,-1.880480906,-1.75517017,0.081346512,3.88E-225,-0.219430749,-1.006573038,1.248350445,-1.880480906,-1.75517017,0.081346512,0,0.2606,-0.3106,0.201,0.01203,0.02169,0.00206
2025-09-12T21:30:20.967590,-0.220687691,-1.005196409,1.247068707,-1.880979677,-1.755409543,0.081544876,3.88E-227,-0.220687691,-1.005196409,1.247068707,-1.880979677,-1.755409543,0.081544876,0,0.1606,-0.4306,0.201,0.02303,0.01369,0.00206
2025-09-12T21:30:20.999709,-0.222336594,-1.003763513,1.245611493,-1.881372114,-1.755697076,0.08212328,3.88E-229,-0.222336594,-1.003763513,1.245611493,-1.881372114,-1.755697076,0.08212328,0,0.1606,-0.4106,0.241,0.01703,0.01969,6.00E-05
2025-09-12T21:30:21.031659,-0.223352734,-1.003008203,1.244833295,-1.881492277,-1.75584108,0.08279705,3.88E-231,-0.223352734,-1.003008203,1.244833295,-1.881492277,-1.75584108,0.08279705,0,0.0206,-0.2706,0.001,0.01103,0.00669,6.00E-05
2025-09-12T21:30:21.063656,-0.224187676,-1.002348737,1.24426109,-1.881683966,-1.755971734,0.083812714,3.88E-233,-0.224187676,-1.002348737,1.24426109,-1.881683966,-1.755971734,0.083812714,0,-0.0394,-0.4906,0.161,0.02303,0.01069,6.00E-05
2025-09-12T21:30:21.095683,-0.22479469,-1.001654462,1.243891064,-1.881887575,-1.755947415,0.085333824,3.88E-235,-0.22479469,-1.001654462,1.243891064,-1.881887575,-1.755947415,0.085333824,0,0.1006,-0.3906,0.141,0.01503,0.01169,6.00E-05
2025-09-12T21:30:21.127719,-0.225272481,-1.001103715,1.243522946,-1.882006784,-1.75588638,0.086817741,3.88E-237,-0.225272481,-1.001103715,1.243522946,-1.882006784,-1.75588638,0.086817741,0,0.2206,-0.3306,0.081,0.01703,0.02169,6.00E-05
2025-09-12T21:30:21.159755,-0.22577459,-1.000562505,1.243366543,-1.882103582,-1.755737607,0.088407516,3.88E-239,-0.22577459,-1.000562505,1.243366543,-1.882103582,-1.755737607,0.088407516,0,0.0006,-0.5706,0.041,0.03103,-0.00031,6.00E-05
2025-09-12T21:30:21.191777,-0.226155583,-0.999887781,1.243051831,-1.882320066,-1.755362813,0.090285778,3.88E-241,-0.226155583,-0.999887781,1.243051831,-1.882320066,-1.755362813,0.090285778,0,0.0406,-0.5506,0.021,0.02803,0.01069,-0.00294
2025-09-12T21:30:21.223798,-0.226368729,-0.999032812,1.242691342,-1.882523676,-1.754940812,0.094238281,3.88E-243,-0.226368729,-0.999032812,1.242691342,-1.882523676,-1.754940812,0.094238281,0,0.0406,-0.3906,0.001,0.02003,0.00969,-0.00494
2025-09-12T21:30:21.255798,-0.226547066,-0.997926549,1.242187802,-1.882678648,-1.754458253,0.099795818,3.88E-245,-0.226547066,-0.997926549,1.242187802,-1.882678648,-1.754458253,0.099795818,0,0.0206,-0.3706,0.121,0.02203,0.00969,-0.00494
2025-09-12T21:30:21.287815,-0.226666276,-0.996739225,1.241697613,-1.882846972,-1.753919427,0.108253002,3.88E-247,-0.226666276,-0.996739225,1.241697613,-1.882846972,-1.753919427,0.108253002,0,0.1006,-0.5306,0.161,0.01903,0.02169,-0.00394
2025-09-12T21:30:21.335855,-0.226713483,-0.995660619,1.241289441,-1.883014818,-1.753571335,0.117764473,3.88E-249,-0.226713483,-0.995660619,1.241289441,-1.883014818,-1.753571335,0.117764473,0,0.0006,-0.4306,0.101,0.02703,0.02069,-0.00994
2025-09-12T21:30:21.367881,-0.226761643,-0.994149045,1.240824048,-1.883241793,-1.75311691,0.131644726,3.88E-251,-0.226761643,-0.994149045,1.240824048,-1.883241793,-1.75311691,0.131644726,0,0.3406,-0.5906,0.121,0.02503,0.01569,-0.01194
2025-09-12T21:30:21.399873,-0.226845566,-0.993129568,1.240572278,-1.883337637,-1.752998177,0.140941143,3.88E-253,-0.226845566,-0.993129568,1.240572278,-1.883337637,-1.752998177,0.140941143,0,-0.0394,-0.3906,0.261,0.02303,0.00969,-0.00594
2025-09-12T21:30:21.431886,-0.226953332,-0.992134408,1.240333859,-1.883433004,-1.752914731,0.149636745,3.88E-255,-0.226953332,-0.992134408,1.240333859,-1.883433004,-1.752914731,0.149636745,0,0.0606,-0.4106,0.061,0.02503,0.00669,-0.00394
2025-09-12T21:30:21.463922,-0.226952378,-0.991226034,1.240249936,-1.883480688,-1.752878968,0.157634258,3.88E-257,-0.226952378,-0.991226034,1.240249936,-1.883480688,-1.752878968,0.157634258,0,0.0406,-0.4906,0.241,0.03103,0.00569,-0.00394
2025-09-12T21:30:21.496157,-0.22697622,-0.990617113,1.240106885,-1.88354077,-1.752879445,0.165302753,3.88E-259,-0.22697622,-0.990617113,1.240106885,-1.88354077,-1.752879445,0.165302753,0,0.2006,-0.4506,0.101,0.02803,0.02169,-0.00994
2025-09-12T21:30:21.528343,-0.226988141,-0.990127878,1.239950482,-1.883587976,-1.752966706,0.173268318,3.88E-261,-0.226988141,-0.990127878,1.239950482,-1.883587976,-1.752966706,0.173268318,0,0.0206,-0.4906,0.181,0.03003,0.01569,-0.00994
2025-09-12T21:30:21.560002,-0.227000062,-0.989794092,1.239696805,-1.883624216,-1.753185574,0.18030262,3.88E-263,-0.227000062,-0.989794092,1.239696805,-1.883624216,-1.753185574,0.18030262,0,0.1006,-0.5306,0.181,0.02703,0.01669,-0.01094
2025-09-12T21:30:21.591993,-0.226988141,-0.989629106,1.239406888,-1.883600374,-1.753486458,0.187788963,3.88E-265,-0.226988141,-0.989629106,1.239406888,-1.883600374,-1.753486458,0.187788963,0,-0.0194,-0.6106,0.141,0.03303,0.00169,-0.01094
2025-09-12T21:30:21.624017,-0.227023904,-0.989556627,1.238802258,-1.883648058,-1.753812138,0.196260929,3.88E-267,-0.227023904,-0.989556627,1.238802258,-1.883648058,-1.753812138,0.196260929,0,-0.0594,-0.6906,0.141,0.03303,-0.00231,-0.01194
2025-09-12T21:30:21.672064,-0.227023904,-0.989470796,1.23799545,-1.883696219,-1.754258458,0.205195904,3.88E-269,-0.227023904,-0.989470796,1.23799545,-1.883696219,-1.754258458,0.205195904,0,0.0806,-0.5906,0.101,0.03103,-0.00031,-0.00494
2025-09-12T21:30:21.704409,-0.227023904,-0.989085512,1.236263577,-1.8836719,-1.754833047,0.218515873,3.88E-271,-0.227023904,-0.989085512,1.236263577,-1.8836719,-1.754833047,0.218515873,0,-0.1194,-0.5906,0.041,0.03403,-0.00031,-0.01094
2025-09-12T21:30:21.736084,-0.227023904,-0.988770799,1.234993283,-1.883695742,-1.755034749,0.228087902,3.88E-273,-0.227023904,-0.988770799,1.234993283,-1.883695742,-1.755034749,0.228087902,0,0.1206,-0.6306,-0.019,0.02703,0.00669,-0.01794
2025-09-12T21:30:21.768106,-0.227000062,-0.988229589,1.233734433,-1.883707663,-1.755168263,0.238149643,3.88E-275,-0.227000062,-0.988229589,1.233734433,-1.883707663,-1.755168263,0.238149643,0,-0.0794,-0.5906,0.001,0.03603,0.00469,-0.01094
2025-09-12T21:30:21.800144,-0.227023904,-0.987580613,1.232597653,-1.883755823,-1.755312268,0.2480793,3.88E-277,-0.227023904,-0.987580613,1.232597653,-1.883755823,-1.755312268,0.2480793,0,-0.0194,-0.6706,-0.019,0.03403,0.00169,-0.01494
2025-09-12T21:30:21.832130,-0.227023904,-0.986870603,1.231384579,-1.883671423,-1.755492512,0.257274151,3.88E-279,-0.227023904,-0.986870603,1.231384579,-1.883671423,-1.755492512,0.257274151,0,-0.0194,-0.7706,0.041,0.03603,0.00469,-0.00894
2025-09-12T21:30:21.864156,-0.227035824,-0.986079053,1.23017532,-1.883707663,-1.755600754,0.266238689,3.88E-281,-0.227035824,-0.986079053,1.23017532,-1.883707663,-1.755600754,0.266238689,0,-0.0994,-0.7306,0.021,0.03403,-0.00131,-0.01294
2025-09-12T21:30:21.896159,-0.227047745,-0.985359983,1.229072873,-1.883645674,-1.755720441,0.274726868,3.88E-283,-0.227047745,-0.985359983,1.229072873,-1.883645674,-1.755720441,0.274726868,0,-0.0994,-0.6906,0.021,0.03703,-0.00031,-0.01094
2025-09-12T21:30:21.928185,-0.227023904,-0.984736757,1.227812115,-1.883476873,-1.755864445,0.282845497,3.88E-285,-0.227023904,-0.984736757,1.227812115,-1.883476873,-1.755864445,0.282845497,0,-0.0394,-0.6906,0.081,0.03603,0.01069,-0.01794
2025-09-12T21:30:21.960211,-0.227035824,-0.984004812,1.226381604,-1.883237024,-1.755948369,0.291339874,3.88E-287,-0.227035824,-0.984004812,1.226381604,-1.883237024,-1.755948369,0.291339874,0,-0.0794,-0.6906,0.181,0.04303,0.00969,-0.01794
2025-09-12T21:30:22.008214,-0.227011983,-0.983333425,1.224933926,-1.883105417,-1.756093327,0.300299644,3.88E-289,-0.227011983,-0.983333425,1.224933926,-1.883105417,-1.756093327,0.300299644,0,-0.1594,-0.7506,0.061,0.03703,-0.00831,-0.01594
2025-09-12T21:30:22.040291,-0.227047745,-0.982419805,1.223282162,-1.882913252,-1.756164853,0.311730862,3.88E-291,-0.227047745,-0.982419805,1.223282162,-1.882913252,-1.756164853,0.311730862,0,-0.1394,-0.7306,-0.079,0.04503,-0.00331,-0.01794
2025-09-12T21:30:22.072295,-0.227023904,-0.981587247,1.222250287,-1.882805964,-1.756236855,0.320169926,3.88E-293,-0.227023904,-0.981587247,1.222250287,-1.882805964,-1.756236855,0.320169926,0,-0.1594,-0.8106,0.021,0.04403,-0.00631,-0.01894
2025-09-12T21:30:22.104330,-0.227023904,-0.980381326,1.221023862,-1.882624765,-1.756248299,0.329627991,3.88E-295,-0.227023904,-0.980381326,1.221023862,-1.882624765,-1.756248299,0.329627991,0,-0.1994,-0.9306,0.081,0.04803,-0.00231,-0.01394
2025-09-12T21:30:22.136377,-0.227047745,-0.978926496,1.219360654,-1.882456919,-1.756308858,0.339692116,3.88E-297,-0.227047745,-0.978926496,1.219360654,-1.882456919,-1.756308858,0.339692116,0,-0.0194,-0.6706,-0.059,0.04203,-0.00931,-0.01994
2025-09-12T21:30:22.168367,-0.227011983,-0.977255659,1.217487637,-1.882277151,-1.756308858,0.350548744,3.88E-299,-0.227011983,-0.977255659,1.217487637,-1.882277151,-1.756308858,0.350548744,0,-0.0594,-0.8306,0.181,0.05103,-0.01431,-0.01494
2025-09-12T21:30:22.200433,-0.227035824,-0.975195722,1.215275113,-1.882001062,-1.75638086,0.362261772,3.88E-301,-0.227035824,-0.975195722,1.215275113,-1.882001062,-1.75638086,0.362261772,0,-0.0594,-0.9306,0.001,0.04903,-0.01331,-0.01794
2025-09-12T21:30:22.232383,-0.227059666,-0.972636537,1.21238548,-1.881734034,-1.756356541,0.374174595,3.88E-303,-0.227059666,-0.972636537,1.21238548,-1.881734034,-1.756356541,0.374174595,0,-0.2194,-1.0506,0.141,0.04803,-0.00831,-0.02894
2025-09-12T21:30:22.280413,-0.227059666,-0.969518499,1.208755795,-1.88131251,-1.756356541,0.386899471,3.88E-305,-0.227059666,-0.969518499,1.208755795,-1.88131251,-1.756356541,0.386899471,0,-0.2994,-0.9306,0.001,0.04903,-0.00531,-0.02394
2025-09-12T21:30:22.312522,-0.227011983,-0.964691476,1.202959363,-1.880276819,-1.756382291,0.40397501,3.88E-307,-0.227011983,-0.964691476,1.202959363,-1.880276819,-1.756382291,0.40397501,0,-0.1194,-0.7906,0.161,0.04703,-0.00831,-0.01994
2025-09-12T21:30:22.344471,-0.227011983,-0.961311178,1.198957745,-1.879549643,-1.756552998,0.415688038,0.00E+00,-0.227011983,-0.961311178,1.198957745,-1.879549643,-1.756552998,0.415688038,0,-0.1594,-0.7506,-0.299,0.04403,-0.00231,-0.02894
2025-09-12T21:30:22.376487,-0.227023904,-0.957769708,1.195192639,-1.879047533,-1.756866757,0.428701401,3.876439457562e-311,-0.227023904,-0.957769708,1.195192639,-1.879047533,-1.756866757,0.428701401,0,-0.4594,-0.8906,0.061,0.04103,-0.01831,-0.02394
2025-09-12T21:30:22.408461,-0.227023904,-0.954131917,1.191698376,-1.878604551,-1.757179085,0.44218111,3.87643945756e-313,-0.227023904,-0.954131917,1.191698376,-1.878604551,-1.757179085,0.44218111,0,-0.0394,-0.6906,-0.019,0.03003,0.00269,-0.02794
2025-09-12T21:30:22.440473,-0.227011983,-0.950953321,1.18862373,-1.878062864,-1.757480446,0.456679344,3.876439457e-315,-0.227011983,-0.950953321,1.18862373,-1.878062864,-1.757480446,0.456679344,0,-0.3394,-0.9706,0.221,0.05203,-0.00631,-0.03094
2025-09-12T21:30:22.472541,-0.227049176,-0.94806178,1.18595535,-1.877450605,-1.757841412,0.471613407,3.8764396e-317,-0.227049176,-0.94806178,1.18595535,-1.877450605,-1.757841412,0.471613407,0,-0.2394,-0.6906,-0.079,0.03103,-0.00731,-0.03294
2025-09-12T21:30:22.504557,-0.227170293,-0.945454435,1.183801953,-1.876755377,-1.75818855,0.487726212,3.87644e-319,-0.227170293,-0.945454435,1.183801953,-1.876755377,-1.75818855,0.487726212,0,-0.2994,-1.0706,0.161,0.06503,-0.00731,-0.02194
2025-09-12T21:30:22.536675,-0.227399174,-0.943076448,1.181902234,-1.876327177,-1.758379761,0.504277706,3.88e-321,-0.227399174,-0.943076448,1.181902234,-1.876327177,-1.758379761,0.504277706,0,-0.4194,-0.7106,-0.079,0.03303,-0.01431,-0.02994
2025-09-12T21:30:22.568591,-0.22760183,-0.940842466,1.180479352,-1.87590756,-1.758449856,0.521215916,4e-323,-0.22760183,-0.940842466,1.180479352,-1.87590756,-1.758449856,0.521215916,0,-0.3194,-0.9306,0.281,0.05203,-0.00731,-0.02694
2025-09-12T21:30:22.600577,-0.227780167,-0.93893321,1.179331128,-1.875536581,-1.758461777,0.538006306,0,-0.227780167,-0.93893321,1.179331128,-1.875536581,-1.758461777,0.538006306,0,-0.2994,-0.8306,0.141,0.04303,-0.01431,-0.02794
2025-09-12T21:30:22.648635,-0.227899377,-0.937177495,1.178291623,-1.875068327,-1.758449856,0.556578159,0,-0.227899377,-0.937177495,1.178291623,-1.875068327,-1.758449856,0.556578159,0,-0.3394,-0.8506,0.181,0.04603,-0.02031,-0.02094
2025-09-12T21:30:22.680631,-0.228006665,-0.935506658,1.177313153,-1.874589106,-1.758448903,0.577834129,0,-0.228006665,-0.935506658,1.177313153,-1.874589106,-1.758448903,0.577834129,0,-0.3394,-0.9106,0.101,0.05303,-0.02131,-0.02894
2025-09-12T21:30:22.712686,-0.22806627,-0.934529142,1.176761929,-1.87426581,-1.758376424,0.592414379,0,-0.22806627,-0.934529142,1.176761929,-1.87426581,-1.758376424,0.592414379,0,-0.3794,-0.9706,0.121,0.05003,-0.01731,-0.02994
2025-09-12T21:30:22.744662,-0.228137795,-0.933837728,1.176367108,-1.873953959,-1.758303944,0.606440067,0,-0.228137795,-0.933837728,1.176367108,-1.873953959,-1.758303944,0.606440067,0,-0.4594,-1.0506,0.181,0.05603,-0.02031,-0.02994
2025-09-12T21:30:22.776743,-0.2281974,-0.933325128,1.176058118,-1.873776098,-1.758268181,0.619954109,0,-0.2281974,-0.933325128,1.176058118,-1.873776098,-1.758268181,0.619954109,0,-0.4594,-0.7906,0.041,0.04803,-0.02631,-0.02794
2025-09-12T21:30:22.824725,-0.228293244,-0.932739572,1.175890271,-1.873525282,-1.758109872,0.634230614,0,-0.228293244,-0.932739572,1.175890271,-1.873525282,-1.758109872,0.634230614,0,-0.5794,-1.1706,0.161,0.06003,-0.02631,-0.02894
2025-09-12T21:30:22.872745,-0.228365246,-0.932203607,1.175407712,-1.873406073,-1.757844273,0.65175581,0,-0.228365246,-0.932203607,1.175407712,-1.873406073,-1.757844273,0.65175581,0,-0.5794,-1.1906,0.061,0.05903,-0.02731,-0.03494
2025-09-12T21:30:22.904810,-0.22841293,-0.931928949,1.174707715,-1.873214861,-1.757603947,0.665723801,0,-0.22841293,-0.931928949,1.174707715,-1.873214861,-1.757603947,0.665723801,0,-0.6394,-1.2306,0.061,0.06803,-0.03931,-0.03494
2025-09-12T21:30:22.936787,-0.228437726,-0.931628541,1.17382652,-1.873215338,-1.757410351,0.675202847,0,-0.228437726,-0.931628541,1.17382652,-1.873215338,-1.757410351,0.675202847,0,-0.6594,-0.9906,0.101,0.06303,-0.03331,-0.02894
2025-09-12T21:30:22.968786,-0.228678528,-0.931280927,1.172476117,-1.873093267,-1.75706083,0.684509754,0,-0.228678528,-0.931280927,1.172476117,-1.873093267,-1.75706083,0.684509754,0,-0.4994,-1.0506,0.161,0.06203,-0.02331,-0.03794
2025-09-12T21:30:23.016840,-0.228856866,-0.930970506,1.170646969,-1.872851034,-1.756712262,0.693529129,0,-0.228856866,-0.930970506,1.170646969,-1.872851034,-1.756712262,0.693529129,0,-0.5794,-0.9906,0.161,0.05803,-0.04031,-0.03594
2025-09-12T21:30:23.064859,-0.228915517,-0.930624322,1.167860333,-1.872429033,-1.756353203,0.704619408,0,-0.228915517,-0.930624322,1.167860333,-1.872429033,-1.756353203,0.704619408,0,-0.4794,-1.2306,0.121,0.06703,-0.02031,-0.03794
2025-09-12T21:30:23.096905,-0.229084794,-0.930313901,1.164778058,-1.871488234,-1.756223027,0.716311932,0,-0.229084794,-0.930313901,1.164778058,-1.871488234,-1.756223027,0.716311932,0,-0.6394,-1.0106,0.121,0.05603,-0.04231,-0.03394
2025-09-12T21:30:23.128892,-0.229252164,-0.93013318,1.162494961,-1.870559355,-1.756174866,0.724300861,0,-0.229252164,-0.93013318,1.162494961,-1.870559355,-1.756174866,0.724300861,0,-0.6194,-1.2106,0.061,0.06203,-0.03031,-0.03194
2025-09-12T21:30:23.160922,-0.229395215,-0.929902868,1.160185162,-1.869314333,-1.756113831,0.73154974,0,-0.229395215,-0.929902868,1.160185162,-1.869314333,-1.756113831,0.73154974,0,-0.7794,-1.2106,-0.139,0.06403,-0.04631,-0.03594
2025-09-12T21:30:23.192919,-0.229502503,-0.929312066,1.157903973,-1.868516584,-1.755979363,0.737996578,0,-0.229502503,-0.929312066,1.157903973,-1.868516584,-1.755979363,0.737996578,0,-0.6394,-1.1506,0.041,0.06903,-0.03931,-0.03494
2025-09-12T21:30:23.224982,-0.229574505,-0.92853053,1.155430142,-1.867771765,-1.755713765,0.743299961,0,-0.229574505,-0.92853053,1.155430142,-1.867771765,-1.755713765,0.743299961,0,-0.5394,-0.9506,-0.159,0.06103,-0.02931,-0.03894
2025-09-12T21:30:23.256966,-0.229693715,-0.927493886,1.152862851,-1.866917273,-1.755436722,0.747193336,0,-0.229693715,-0.927493886,1.152862851,-1.866917273,-1.755436722,0.747193336,0,-0.8794,-1.1306,-0.239,0.06103,-0.04931,-0.03894
2025-09-12T21:30:23.288992,-0.229716603,-0.925773935,1.150297467,-1.86609759,-1.755100552,0.75036478,0,-0.229716603,-0.925773935,1.150297467,-1.86609759,-1.755100552,0.75036478,0,-0.7594,-1.1706,-0.199,0.06703,-0.05031,-0.03694
2025-09-12T21:30:23.321043,-0.229716126,-0.923636274,1.147999112,-1.86579146,-1.754822556,0.752457142,0,-0.229716126,-0.923636274,1.147999112,-1.86579146,-1.754822556,0.752457142,0,-0.8194,-0.9906,-0.239,0.06403,-0.04031,-0.03694
2025-09-12T21:30:23.353091,-0.229655568,-0.921205358,1.145963971,-1.865769526,-1.754437272,0.753662586,0,-0.229655568,-0.921205358,1.145963971,-1.865769526,-1.754437272,0.753662586,0,-0.7994,-0.9906,0.121,0.05403,-0.03131,-0.03994
2025-09-12T21:30:23.385040,-0.229570214,-0.918690996,1.144171063,-1.865781923,-1.754040066,0.754930973,0,-0.229570214,-0.918690996,1.144171063,-1.865781923,-1.754040066,0.754930973,0,-0.8194,-0.9306,-0.279,0.05603,-0.04231,-0.03894
2025-09-12T21:30:23.417088,-0.229328934,-0.916249112,1.142858807,-1.865831514,-1.753642861,0.755544186,0,-0.229328934,-0.916249112,1.142858807,-1.865831514,-1.753642861,0.755544186,0,-0.7594,-1.0306,0.061,0.06303,-0.04531,-0.03894
2025-09-12T21:30:23.465066,-0.228992287,-0.914001302,1.141882245,-1.866038462,-1.753149335,0.755719185,0,-0.228992287,-0.914001302,1.141882245,-1.866038462,-1.753149335,0.755719185,0,-0.7994,-1.0906,-0.199,0.06503,-0.04531,-0.03794
2025-09-12T21:30:23.497134,-0.228368584,-0.911016302,1.141010586,-1.866531511,-1.75251085,0.755730629,0,-0.228368584,-0.911016302,1.141010586,-1.866531511,-1.75251085,0.755730629,0,-0.7394,-1.1906,0.061,0.07003,-0.04531,-0.03894
2025-09-12T21:30:23.529119,-0.227791135,-0.90884097,1.140604321,-1.866942068,-1.752006833,0.755716324,0,-0.227791135,-0.90884097,1.140604321,-1.866942068,-1.752006833,0.755716324,0,-0.8594,-1.0506,0.061,0.06003,-0.04831,-0.03794
2025-09-12T21:30:23.561164,-0.227008168,-0.90675147,1.140175168,-1.867492338,-1.751671139,0.75551033,0,-0.227008168,-0.90675147,1.140175168,-1.867492338,-1.751671139,0.75551033,0,-0.7594,-0.7306,-0.199,0.04003,-0.04031,-0.03794
2025-09-12T21:30:23.593164,-0.225831811,-0.904578046,1.140230481,-1.867923876,-1.751371686,0.755197525,0,-0.225831811,-0.904578046,1.140230481,-1.867923876,-1.751371686,0.755197525,0,-0.6794,-1.0506,0.041,0.06303,-0.04031,-0.03794
2025-09-12T21:30:23.625263,-0.224647824,-0.902673082,1.140608136,-1.868452688,-1.751132313,0.754884243,0,-0.224647824,-0.902673082,1.140608136,-1.868452688,-1.751132313,0.754884243,0,-0.6794,-1.1306,0.181,0.06503,-0.04031,-0.03694
2025-09-12T21:30:23.657167,-0.223560635,-0.901104288,1.141258542,-1.869053503,-1.750975911,0.754462242,0,-0.223560635,-0.901104288,1.141258542,-1.869053503,-1.750975911,0.754462242,0,-0.5594,-1.1106,0.081,0.06203,-0.02331,-0.03694
2025-09-12T21:30:23.705221,-0.222462002,-0.89970477,1.142219845,-1.869799276,-1.750796143,0.753787041,0,-0.222462002,-0.89970477,1.142219845,-1.869799276,-1.750796143,0.753787041,0,-0.5794,-1.1506,0.201,0.06803,-0.03531,-0.03494
2025-09-12T21:30:23.753319,-0.221243683,-0.898463086,1.143659894,-1.870860716,-1.750652138,0.752521038,0,-0.221243683,-0.898463086,1.143659894,-1.870860716,-1.750652138,0.752521038,0,-0.4794,-0.9306,0.041,0.05503,-0.03431,-0.03194
2025-09-12T21:30:23.785256,-0.220239464,-0.898123102,1.145099942,-1.87133946,-1.750532452,0.749870777,0,-0.220239464,-0.898123102,1.145099942,-1.87133946,-1.750532452,0.749870777,0,-0.5794,-1.0906,0.221,0.05803,-0.03431,-0.03194
2025-09-12T21:30:23.817275,-0.219544713,-0.898418264,1.146107022,-1.87174811,-1.75050861,0.746469021,0,-0.219544713,-0.898418264,1.146107022,-1.87174811,-1.75050861,0.746469021,0,-0.6594,-1.0506,0.281,0.04903,-0.03331,-0.03094
2025-09-12T21:30:23.849355,-0.218790356,-0.898912267,1.147138898,-1.872265001,-1.750473324,0.740530491,0,-0.218790356,-0.898912267,1.147138898,-1.872265001,-1.750473324,0.740530491,0,-0.4194,-1.0706,-0.039,0.04803,-0.02931,-0.03194
2025-09-12T21:30:23.881359,-0.218012635,-0.899453477,1.148252789,-1.872757574,-1.750474278,0.731649399,0,-0.218012635,-0.899453477,1.148252789,-1.872757574,-1.750474278,0.731649399,0,-0.6994,-1.0106,0.121,0.07003,-0.04031,-0.02794
2025-09-12T21:30:23.913388,-0.217284028,-0.900080518,1.14918739,-1.87345471,-1.750595872,0.721180439,0,-0.217284028,-0.900080518,1.14918739,-1.87345471,-1.750595872,0.721180439,0,-0.5394,-1.2506,0.201,0.05403,-0.02931,-0.02294
2025-09-12T21:30:23.945366,-0.216614072,-0.900813894,1.149999921,-1.874038359,-1.750752751,0.709270477,0,-0.216614072,-0.900813894,1.149999921,-1.874038359,-1.750752751,0.709270477,0,-0.5594,-0.9706,0.201,0.05003,-0.02731,-0.01994
2025-09-12T21:30:23.977338,-0.215944115,-0.901533441,1.15063316,-1.874431749,-1.750921551,0.697168827,0,-0.215944115,-0.901533441,1.15063316,-1.874431749,-1.750921551,0.697168827,0,-0.5194,-0.8906,0.061,0.05303,-0.01931,-0.02194
2025-09-12T21:30:24.009402,-0.215311829,-0.902169065,1.151279751,-1.874632975,-1.751039807,0.68535614,0,-0.215311829,-0.902169065,1.151279751,-1.874632975,-1.751039807,0.68535614,0,-0.4994,-0.8106,0.221,0.04803,-0.01431,-0.02594
2025-09-12T21:30:24.057402,-0.214786832,-0.902733163,1.151844327,-1.874751707,-1.751038853,0.674553871,0,-0.214786832,-0.902733163,1.151844327,-1.874751707,-1.751038853,0.674553871,0,-0.3994,-1.1106,0.181,0.04903,-0.02131,-0.02494
2025-09-12T21:30:24.089455,-0.214286629,-0.903331117,1.152599637,-1.874835154,-1.750965897,0.662646294,0,-0.214286629,-0.903331117,1.152599637,-1.874835154,-1.750965897,0.662646294,0,-0.4594,-1.0306,0.061,0.05203,-0.01731,-0.02194
2025-09-12T21:30:24.121449,-0.214073006,-0.903642492,1.153126065,-1.874858519,-1.75096542,0.655237675,0,-0.214073006,-0.903642492,1.153126065,-1.874858519,-1.75096542,0.655237675,0,-0.6194,-0.9306,0.141,0.05203,-0.02431,-0.01694
2025-09-12T21:30:24.169464,-0.213954274,-0.903893785,1.153593365,-1.874860426,-1.750868622,0.647839546,0,-0.213954274,-0.903893785,1.153593365,-1.874860426,-1.750868622,0.647839546,0,-0.3994,-0.8506,0.101,0.04503,-0.02331,-0.01994
2025-09-12T21:30:24.201500,-0.213846985,-0.904108838,1.154253308,-1.875028273,-1.750747983,0.638133049,0,-0.213846985,-0.904108838,1.154253308,-1.875028273,-1.750747983,0.638133049,0,-0.3194,-0.9106,0.081,0.05403,-0.01331,-0.01894
2025-09-12T21:30:24.233500,-0.213751618,-0.90421565,1.154659573,-1.875100752,-1.750640217,0.631854057,0,-0.213751618,-0.90421565,1.154659573,-1.875100752,-1.750640217,0.631854057,0,-0.4794,-0.9106,0.201,0.04803,-0.01131,-0.01694
2025-09-12T21:30:24.265558,-0.21369106,-0.904238061,1.155004803,-1.875207087,-1.750566785,0.625745773,0,-0.21369106,-0.904238061,1.155004803,-1.875207087,-1.750566785,0.625745773,0,-0.3794,-0.8306,0.061,0.03503,-0.01131,-0.01794
2025-09-12T21:30:24.297525,-0.213631455,-0.904126481,1.155306164,-1.875218531,-1.750347916,0.62001276,0.001703404,-0.213631455,-0.904126481,1.155306164,-1.875218531,-1.750347916,0.62001276,0,-0.3194,-0.9706,0.041,0.05203,-0.01531,-0.01794
2025-09-12T21:30:24.329546,-0.213535611,-0.90378745,1.155449216,-1.87520661,-1.749986951,0.614772797,0.010007268,-0.213535611,-0.90378745,1.155449216,-1.87520661,-1.749986951,0.614772797,0,-0.4394,-0.8506,0.061,0.04503,-0.01831,-0.01994
2025-09-12T21:30:24.361586,-0.213427846,-0.903194265,1.155590359,-1.875206133,-1.749625031,0.610490322,0.012162015,-0.213427846,-0.903194265,1.155590359,-1.875206133,-1.749625031,0.610490322,0,-0.4194,-0.7506,-0.039,0.04603,-0.01831,-0.01694
2025-09-12T21:30:24.393568,-0.213392083,-0.902373151,1.155735318,-1.875133654,-1.749288384,0.606814861,0.012183562,-0.213392083,-0.902373151,1.155735318,-1.875133654,-1.749288384,0.606814861,0,-0.3394,-0.9106,0.041,0.04103,-0.01131,-0.01694
2025-09-12T21:30:24.425578,-0.213297669,-0.90136178,1.155842129,-1.875085016,-1.748916928,0.603699684,0.012183778,-0.213297669,-0.90136178,1.155842129,-1.875085016,-1.748916928,0.603699684,0,-0.3194,-0.7906,0.101,0.04403,-0.01331,-0.01694
2025-09-12T21:30:24.457640,-0.213321988,-0.900147275,1.155876462,-1.875001093,-1.748628441,0.600805759,0.014255487,-0.213321988,-0.900147275,1.155876462,-1.875001093,-1.748628441,0.600805759,0,-0.3594,-0.9106,0.261,0.04703,-0.01431,-0.01794
2025-09-12T21:30:24.489638,-0.213334862,-0.898981408,1.155790631,-1.87488093,-1.748339955,0.598519325,0.020491327,-0.213334862,-0.898981408,1.155790631,-1.87488093,-1.748339955,0.598519325,0,-0.3794,-0.8506,0.081,0.04603,-0.01631,-0.01694
2025-09-12T21:30:24.521648,-0.213432614,-0.897794561,1.155695264,-1.874845167,-1.748136346,0.59577322,0.022625393,-0.213432614,-0.897794561,1.155695264,-1.874845167,-1.748136346,0.59577322,0,-0.2194,-0.9706,0.421,0.05303,-0.01031,-0.01594
2025-09-12T21:30:24.553694,-0.213674847,-0.896945314,1.155523602,-1.874748369,-1.747932736,0.593254089,0.026790149,-0.213674847,-0.896945314,1.155523602,-1.874748369,-1.747932736,0.593254089,0,-0.1794,-0.9306,0.201,0.04403,-0.00431,-0.01594
2025-09-12T21:30:24.585729,-0.214191739,-0.896178083,1.155151669,-1.874567648,-1.747776333,0.590716839,0.045477165,-0.214191739,-0.896178083,1.155151669,-1.874567648,-1.747776333,0.590716839,0,-0.2994,-0.7906,0.121,0.04203,-0.01231,-0.01594
2025-09-12T21:30:24.633696,-0.214792554,-0.895459012,1.154743497,-1.874375483,-1.747644726,0.588249207,0.051879158,-0.214792554,-0.895459012,1.154743497,-1.874375483,-1.747644726,0.588249207,0,-0.1194,-0.9706,0.161,0.05603,-0.00331,-0.01694
2025-09-12T21:30:24.665755,-0.216017548,-0.894703702,1.154009167,-1.874027868,-1.747512643,0.585887909,0.051943178,-0.216017548,-0.894703702,1.154009167,-1.874027868,-1.747512643,0.585887909,0,-0.2594,-0.7506,0.081,0.04403,-0.01131,-0.01494
2025-09-12T21:30:24.697787,-0.21696407,-0.894320325,1.153358761,-1.873835703,-1.747428719,0.584255695,0.056087233,-0.21696407,-0.894320325,1.153358761,-1.873835703,-1.747428719,0.584255695,0,-0.3594,-0.9706,0.301,0.05503,-0.01131,-0.01794
2025-09-12T21:30:24.729786,-0.21798021,-0.89396079,1.152481381,-1.873726984,-1.747441594,0.583039761,0.064415504,-0.21798021,-0.89396079,1.152481381,-1.873726984,-1.747441594,0.583039761,0,-0.4194,-0.7306,0.181,0.03603,-0.01831,-0.01794
2025-09-12T21:30:24.761791,-0.218900983,-0.893651323,1.151630704,-1.873377939,-1.747492139,0.581914425,0.068642202,-0.218900983,-0.893651323,1.151630704,-1.873377939,-1.747492139,0.581914425,0,-0.2394,-0.7906,0.221,0.03603,-0.00431,-0.01694
2025-09-12T21:30:24.793831,-0.219833676,-0.893593149,1.150778119,-1.873056074,-1.747687642,0.580899715,0.070756176,-0.219833676,-0.893593149,1.150778119,-1.873056074,-1.747687642,0.580899715,0,-0.3394,-0.9106,0.181,0.04803,-0.01031,-0.01694
2025-09-12T21:30:24.825871,-0.220767323,-0.89364417,1.149854962,-1.872852942,-1.748000447,0.580302715,0.074920731,-0.220767323,-0.89364417,1.149854962,-1.872852942,-1.748000447,0.580302715,0,-0.3594,-0.7706,0.101,0.03603,-0.01331,-0.01794
2025-09-12T21:30:24.857903,-0.221653287,-0.893912153,1.149040524,-1.872599264,-1.748301331,0.579432011,0.087392622,-0.221653287,-0.893912153,1.149040524,-1.872599264,-1.748301331,0.579432011,0,-0.1994,-0.8906,0.321,0.04603,-0.00831,-0.01694
2025-09-12T21:30:24.889903,-0.222551171,-0.894432859,1.148235623,-1.872335573,-1.748649899,0.578093052,0.089589049,-0.222551171,-0.894432859,1.148235623,-1.872335573,-1.748649899,0.578093052,0,-0.3194,-0.7906,0.181,0.04303,-0.00831,-0.01494
2025-09-12T21:30:24.921949,-0.223507229,-0.895155267,1.147434537,-1.872059961,-1.74895126,0.576511383,0.091682721,-0.223507229,-0.895155267,1.147434537,-1.872059961,-1.74895126,0.576511383,0,-0.2994,-0.8106,0.141,0.04103,-0.01531,-0.01594
2025-09-12T21:30:24.953887,-0.22431976,-0.896009759,1.146618191,-1.871700426,-1.749312226,0.574902058,0.093775365,-0.22431976,-0.896009759,1.146618191,-1.871700426,-1.749312226,0.574902058,0,-0.3794,-0.7906,0.141,0.04303,-0.01131,-0.01694
2025-09-12T21:30:24.985922,-0.225035969,-0.897031145,1.145815198,-1.871424337,-1.749686066,0.573291779,0.102083122,-0.225035969,-0.897031145,1.145815198,-1.871424337,-1.749686066,0.573291779,0,-0.3394,-0.7706,0.041,0.03203,-0.01331,-0.01694
2025-09-12T21:30:25.017911,-0.225693051,-0.897907094,1.145170514,-1.871160646,-1.750082318,0.572200775,0.127026691,-0.225693051,-0.897907094,1.145170514,-1.871160646,-1.750082318,0.572200775,0,-0.3394,-0.8106,0.121,0.03903,-0.00931,-0.01594
2025-09-12T21:30:25.066003,-0.226291005,-0.898675756,1.144705121,-1.870910307,-1.750441853,0.570916176,0.141778079,-0.226291005,-0.898675756,1.144705121,-1.870910307,-1.750441853,0.570916176,0,-0.3994,-0.7906,0.001,0.03003,-0.00431,-0.01694
2025-09-12T21:30:25.098001,-0.226959054,-0.899720983,1.144434277,-1.870538374,-1.750729863,0.569579124,0.146069008,-0.226959054,-0.899720983,1.144434277,-1.870538374,-1.750729863,0.569579124,0,-0.4394,-0.9506,0.001,0.04703,-0.01331,-0.01594
2025-09-12T21:30:25.129976,-0.227352921,-0.900549249,1.144253079,-1.870384356,-1.750946347,0.568851471,0.152327041,-0.227352921,-0.900549249,1.144253079,-1.870384356,-1.750946347,0.568851471,0,-0.3794,-0.8106,-0.079,0.05303,-0.01631,-0.01394
2025-09-12T21:30:25.162224,-0.227673356,-0.901244478,1.144024197,-1.870300432,-1.751137559,0.568350315,0.173106697,-0.227673356,-0.901244478,1.144024197,-1.870300432,-1.751137559,0.568350315,0,-0.3394,-0.7306,-0.059,0.04003,-0.01731,-0.01694
2025-09-12T21:30:25.194484,-0.227791611,-0.901723699,1.143808667,-1.870252272,-1.751245801,0.567872047,0.185744739,-0.227791611,-0.901723699,1.143808667,-1.870252272,-1.751245801,0.567872047,0,-0.4394,-0.9506,0.161,0.05203,-0.01331,-0.01694
2025-09-12T21:30:25.226021,-0.227863137,-0.90231307,1.14367706,-1.870133539,-1.751365487,0.567683697,0.187942827,-0.227863137,-0.90231307,1.14367706,-1.870133539,-1.751365487,0.567683697,0,-0.2994,-0.9106,-0.119,0.04703,-0.01231,-0.01694
2025-09-12T21:30:25.258041,-0.227958504,-0.902816133,1.143509213,-1.870121618,-1.751473252,0.567553043,0.192108223,-0.227958504,-0.902816133,1.143509213,-1.870121618,-1.751473252,0.567553043,0,-0.2394,-0.8106,0.241,0.04103,-0.01531,-0.01594
2025-09-12T21:30:25.290072,-0.228042428,-0.90319951,1.143379513,-1.870037695,-1.751521413,0.56750536,0.194221584,-0.228042428,-0.90319951,1.143379513,-1.870037695,-1.751521413,0.56750536,0,-0.2794,-0.7706,-0.039,0.04303,-0.00231,-0.01694
2025-09-12T21:30:25.322077,-0.228113,-0.903593854,1.143356625,-1.870013853,-1.751592938,0.567469597,0.196314426,-0.228113,-0.903593854,1.143356625,-1.870013853,-1.751592938,0.567469597,0,-0.4794,-0.8906,0.041,0.04403,-0.01831,-0.01594
2025-09-12T21:30:25.354169,-0.22807676,-0.903711633,1.143406216,-1.870026251,-1.751678769,0.567446232,0.196335354,-0.22807676,-0.903711633,1.143406216,-1.870026251,-1.751678769,0.567446232,0,-0.2194,-0.9506,0.141,0.03903,-0.01031,-0.01494
2025-09-12T21:30:25.402106,-0.228064839,-0.903796033,1.143465344,-1.86997809,-1.751872365,0.567446232,0.198407271,-0.228064839,-0.903796033,1.143465344,-1.86997809,-1.751872365,0.567446232,0,-0.3194,-0.8106,0.101,0.04303,-0.01331,-0.01594
2025-09-12T21:30:25.434146,-0.227944199,-0.904013471,1.143537823,-1.869966646,-1.752136532,0.567458153,0.20671482,-0.227944199,-0.904013471,1.143537823,-1.869966646,-1.752136532,0.567458153,0,-0.2994,-0.8906,0.121,0.04503,-0.00931,-0.01494
2025-09-12T21:30:25.466145,-0.227884118,-0.904193239,1.143633191,-1.869966646,-1.752292935,0.567433834,0.213013019,-0.227884118,-0.904193239,1.143633191,-1.869966646,-1.752292935,0.567433834,0,-0.3994,-0.7906,0.121,0.04803,-0.00631,-0.01594
2025-09-12T21:30:25.498177,-0.227800671,-0.90438445,1.143743817,-1.869990011,-1.752472703,0.567493916,0.213076001,-0.227800671,-0.90438445,1.143743817,-1.869990011,-1.752472703,0.567493916,0,-0.3194,-0.8106,-0.039,0.04103,-0.00831,-0.01394
2025-09-12T21:30:25.530205,-0.227679078,-0.904370622,1.143925015,-1.869942328,-1.752580945,0.567482471,0.221363461,-0.227679078,-0.904370622,1.143925015,-1.869942328,-1.752580945,0.567482471,0,-0.3594,-0.7906,0.101,0.04203,-0.01031,-0.01694
2025-09-12T21:30:25.562230,-0.227485959,-0.904334382,1.144285504,-1.869942328,-1.75273687,0.567518234,0.233876581,-0.227485959,-0.904334382,1.144285504,-1.869942328,-1.75273687,0.567518234,0,-0.4394,-0.8506,0.241,0.05003,-0.01331,-0.01594
2025-09-12T21:30:25.594223,-0.227162186,-0.904346303,1.144546811,-1.869966646,-1.752869431,0.567506313,0.23607342,-0.227162186,-0.904346303,1.144546811,-1.869966646,-1.752869431,0.567506313,0,-0.3194,-0.8706,-0.019,0.04303,-0.00731,-0.01494
2025-09-12T21:30:25.626277,-0.226816956,-0.904273824,1.144789044,-1.869894644,-1.752929036,0.567518234,0.236095388,-0.226816956,-0.904273824,1.144789044,-1.869894644,-1.752929036,0.567518234,0,-0.3394,-0.9106,0.281,0.05303,-0.00931,-0.01694
2025-09-12T21:30:25.658300,-0.226589505,-0.904238061,1.145149533,-1.869930883,-1.753025357,0.567530155,0.236095608,-0.226589505,-0.904238061,1.145149533,-1.869930883,-1.753025357,0.567530155,0,-0.2594,-0.9106,0.161,0.04603,-0.00931,-0.01494
