ndolphin-github/DIGIT_contact_simulation/RealRobotData/Square_trial1.csv
timestamp,joint_pos_0,joint_pos_1,joint_pos_2,joint_pos_3,joint_pos_4,joint_pos_5,joint_pos_6,joint_vel_0,joint_vel_1,joint_vel_2,joint_vel_3,joint_vel_4,joint_vel_5,joint_vel_6,ft_fx,ft_fy,ft_fz,ft_tx,ft_ty,ft_tz
2025-09-12T21:19:50.142040,-0.172960583,-1.669791838,1.552969281,-1.498359041,-1.701088254,0.030729771,0,-0.172960583,-1.669791838,1.552969281,-1.498359041,-1.701088254,0.030729771,0,0.433,-0.0606,-0.0884,0.00522,0.02485,-0.0019
2025-09-12T21:19:50.173560,-0.172996346,-1.66990008,1.553076092,-1.498370962,-1.701064412,0.03071785,0,-0.172996346,-1.66990008,1.553076092,-1.498370962,-1.701064412,0.03071785,0,0.353,-0.1206,-0.1084,0.00722,0.02185,-0.0009
2025-09-12T21:19:50.205608,-0.173067872,-1.669971605,1.553243939,-1.49843152,-1.701052968,0.030693531,0,-0.173067872,-1.669971605,1.553243939,-1.49843152,-1.701052968,0.030693531,0,0.473,-0.0806,-0.2484,0.00522,0.02385,-0.0009
2025-09-12T21:19:50.253638,-0.173127953,-1.670079371,1.553531949,-1.49843152,-1.700979535,0.03068161,0,-0.173127953,-1.670079371,1.553531949,-1.49843152,-1.700979535,0.03068161,0,0.413,-0.1406,-0.0684,0.01022,0.02385,-0.0019
2025-09-12T21:19:50.285658,-0.173199002,-1.670187613,1.553745572,-1.49847968,-1.700811688,0.030633926,0,-0.173199002,-1.670187613,1.553745572,-1.49847968,-1.700811688,0.030633926,0,0.333,-0.1406,-0.1484,0.00322,0.01785,-0.0029
2025-09-12T21:19:50.317659,-0.173150365,-1.670247217,1.553745572,-1.498563604,-1.700680558,0.030693531,0,-0.173150365,-1.670247217,1.553745572,-1.498563604,-1.700680558,0.030693531,0,0.453,-0.2006,-0.0684,0.01122,0.02785,-0.0029
2025-09-12T21:19:50.349717,-0.173186604,-1.670307299,1.553818051,-1.498551206,-1.700598542,0.030669689,0,-0.173186604,-1.670307299,1.553818051,-1.498551206,-1.700598542,0.030669689,0,0.433,-0.0806,-0.1484,0.00422,0.02485,-0.0029
2025-09-12T21:19:50.381694,-0.173198525,-1.670366427,1.554022137,-1.498563127,-1.700563733,0.03068161,0,-0.173198525,-1.670366427,1.554022137,-1.498563127,-1.700563733,0.03068161,0,0.393,-0.1406,-0.0484,0.00822,0.02285,-0.0029
2025-09-12T21:19:50.413726,-0.173210446,-1.67041411,1.554104153,-1.498635129,-1.700623337,0.030693531,0,-0.173210446,-1.67041411,1.554104153,-1.498635129,-1.700623337,0.030693531,0,0.373,-0.1406,-0.1284,0.00422,0.02285,-0.0039
2025-09-12T21:19:50.445766,-0.173186604,-1.67041411,1.554127041,-1.498635129,-1.700611416,0.030705929,0,-0.173186604,-1.67041411,1.554127041,-1.498635129,-1.700611416,0.030705929,0,0.373,-0.0606,-0.1684,0.01022,0.02585,-0.0019
2025-09-12T21:19:50.477816,-0.173210446,-1.670426031,1.554115597,-1.498658971,-1.700563256,0.030669689,0,-0.173210446,-1.670426031,1.554115597,-1.498658971,-1.700563256,0.030669689,0,0.233,-0.0806,-0.1484,0.00522,0.02185,-0.0009
2025-09-12T21:19:50.509819,-0.173174683,-1.67041411,1.554115597,-1.498658971,-1.700478379,0.030669689,0,-0.173174683,-1.67041411,1.554115597,-1.498658971,-1.700478379,0.030669689,0,0.433,-0.1806,-0.1284,0.00622,0.02585,-0.0009
2025-09-12T21:19:50.541805,-0.173222367,-1.67045035,1.554188077,-1.498646573,-1.700395886,0.030669689,0,-0.173222367,-1.67045035,1.554188077,-1.498646573,-1.700395886,0.030669689,0,0.453,-0.0806,-0.1684,0.00522,0.02485,-0.0029
2025-09-12T21:19:50.574270,-0.173210446,-1.67045035,1.554334942,-1.498682813,-1.700432126,0.030645847,0,-0.173210446,-1.67045035,1.554334942,-1.498682813,-1.700432126,0.030645847,0,0.433,-0.0606,-0.0884,0.00222,0.02685,-0.0039
2025-09-12T21:19:50.621924,-0.173198525,-1.670462271,1.554733578,-1.498682813,-1.700480763,0.030669689,0,-0.173198525,-1.670462271,1.554733578,-1.498682813,-1.700480763,0.030669689,0,0.393,-0.1406,-0.2684,0.00522,0.02285,-0.0039
2025-09-12T21:19:50.653880,-0.173198525,-1.670426031,1.555490796,-1.498670892,-1.700541321,0.030682087,0,-0.173198525,-1.670426031,1.555490796,-1.498670892,-1.700541321,0.030682087,0,0.313,0.0194,-0.2284,0.00222,0.02585,-0.0039
2025-09-12T21:19:50.685886,-0.173246686,-1.670498034,1.556368176,-1.498718576,-1.700636689,0.030693531,0,-0.173246686,-1.670498034,1.556368176,-1.498718576,-1.700636689,0.030693531,0,0.433,-0.1406,-0.0884,0.00522,0.02385,-0.0009
2025-09-12T21:19:50.717921,-0.173282448,-1.670486113,1.557302777,-1.498682813,-1.700708691,0.030669689,0,-0.173282448,-1.670486113,1.557302777,-1.498682813,-1.700708691,0.030669689,0,0.413,-0.0606,-0.3084,0.00622,0.02385,-0.0039
2025-09-12T21:19:50.749966,-0.173270528,-1.670473715,1.558330838,-1.498670892,-1.700792615,0.030669689,0,-0.173270528,-1.670473715,1.558330838,-1.498670892,-1.700792615,0.030669689,0,0.433,-0.0806,-0.0284,0.00622,0.02285,-0.0039
2025-09-12T21:19:50.781949,-0.173306767,-1.670498034,1.559215848,-1.498694734,-1.700900857,0.030669689,0,-0.173306767,-1.670498034,1.559215848,-1.498694734,-1.700900857,0.030669689,0,0.453,-0.0806,-0.0284,0.00622,0.02485,-0.0019
2025-09-12T21:19:50.813973,-0.17334396,-1.670521875,1.55997688,-1.498706655,-1.701082532,0.030657768,0,-0.17334396,-1.670521875,1.55997688,-1.498706655,-1.701082532,0.030657768,0,0.513,-0.1206,-0.0284,0.00522,0.03285,-0.0019
2025-09-12T21:19:50.846017,-0.173476998,-1.670535704,1.560539548,-1.498669938,-1.701467816,0.030645847,0,-0.173476998,-1.670535704,1.560539548,-1.498669938,-1.701467816,0.030645847,0,0.353,-0.0206,-0.1084,0.00322,0.02185,-0.0019
2025-09-12T21:19:50.878003,-0.173765484,-1.67065682,1.561163251,-1.498584585,-1.701827828,0.030693531,0,-0.173765484,-1.67065682,1.561163251,-1.498584585,-1.701827828,0.030693531,0,0.433,-0.0006,-0.1684,0.00022,0.03085,-0.0039
2025-09-12T21:19:50.926073,-0.174186532,-1.670836588,1.561857526,-1.498428659,-1.702203099,0.030705929,0,-0.174186532,-1.670836588,1.561857526,-1.498428659,-1.702203099,0.030705929,0,0.493,-0.0006,-0.1484,0.00322,0.02585,-0.0039
2025-09-12T21:19:50.958075,-0.174892728,-1.671123644,1.562828366,-1.498284177,-1.702914063,0.030657768,0,-0.174892728,-1.671123644,1.562828366,-1.498284177,-1.702914063,0.030657768,0,0.493,-0.1206,-0.0484,0.01022,0.03185,-0.0049
2025-09-12T21:19:50.990078,-0.175445859,-1.671256681,1.563459698,-1.498106794,-1.703516308,0.030693531,0,-0.175445859,-1.671256681,1.563459698,-1.498106794,-1.703516308,0.030693531,0,0.453,-0.1006,-0.0484,0.00122,0.02785,-0.0029
2025-09-12T21:19:51.022063,-0.176236455,-1.671509882,1.564104382,-1.498243646,-1.704067532,0.030668259,0,-0.176236455,-1.671509882,1.564104382,-1.498243646,-1.704067532,0.030668259,0,0.413,-0.1606,0.0516,0.00722,0.02785,-0.0019
2025-09-12T21:19:51.054078,-0.17706186,-1.671858927,1.564459149,-1.49861844,-1.704414193,0.030349731,0,-0.17706186,-1.671858927,1.564459149,-1.49861844,-1.704414193,0.030349731,0,0.473,-0.0606,0.0116,0.00622,0.02585,-0.0009
2025-09-12T21:19:51.086100,-0.177923981,-1.672268053,1.564600293,-1.499222593,-1.704700772,0.02975893,0,-0.177923981,-1.672268053,1.564600293,-1.499222593,-1.704700772,0.02975893,0,0.373,-0.1806,-0.0084,0.00722,0.02085,0.0001
2025-09-12T21:19:51.118136,-0.17879564,-1.672783991,1.564613644,-1.500331716,-1.704844777,0.028793812,0,-0.17879564,-1.672783991,1.564613644,-1.500331716,-1.704844777,0.028793812,0,0.473,-0.0006,-0.1884,0.00022,0.02985,-0.0009
2025-09-12T21:19:51.150127,-0.179596249,-1.67332234,1.564785306,-1.501437978,-1.705001179,0.027611732,0,-0.179596249,-1.67332234,1.564785306,-1.501437978,-1.705001179,0.027611732,0,0.373,0.0194,-0.2484,-0.00478,0.02485,-0.0019
2025-09-12T21:19:51.182165,-0.180226628,-1.673782011,1.565182034,-1.502096013,-1.705107514,0.026722431,0,-0.180226628,-1.673782011,1.565182034,-1.502096013,-1.705107514,0.026722431,0,0.373,-0.0006,0.1316,-0.00078,0.01885,-0.0019
2025-09-12T21:19:51.214246,-0.180640523,-1.674605986,1.565626446,-1.502744512,-1.705179993,0.025650978,0,-0.180640523,-1.674605986,1.565626446,-1.502744512,-1.705179993,0.025650978,0,0.413,-0.0006,0.1316,-0.00078,0.03285,-0.0009
2025-09-12T21:19:51.246230,-0.180634801,-1.676261087,1.566236798,-1.503411607,-1.705253903,0.024348259,0,-0.180634801,-1.676261087,1.566236798,-1.503411607,-1.705253903,0.024348259,0,0.473,0.1994,0.0716,-0.00978,0.03085,-0.0009
2025-09-12T21:19:51.294223,-0.180466954,-1.678828379,1.566858594,-1.503413038,-1.705411259,0.023198605,0,-0.180466954,-1.678828379,1.566858594,-1.503413038,-1.705411259,0.023198605,0,0.473,-0.0406,0.1716,0.00122,0.03185,-0.0009
2025-09-12T21:19:51.326285,-0.180264298,-1.683478495,1.567747418,-1.503066854,-1.705770795,0.021905899,0,-0.180264298,-1.683478495,1.567747418,-1.503066854,-1.705770795,0.021905899,0,0.453,-0.2606,-0.1884,0.01322,0.02685,-0.0029
2025-09-12T21:19:51.358295,-0.180168931,-1.687045237,1.568453137,-1.503057317,-1.705854241,0.021191597,0,-0.180168931,-1.687045237,1.568453137,-1.503057317,-1.705854241,0.021191597,0,0.493,-0.1206,0.2316,0.00222,0.02885,-0.0029
2025-09-12T21:19:51.390270,-0.18003637,-1.691409727,1.569269482,-1.50325282,-1.705925767,0.020690918,0,-0.18003637,-1.691409727,1.569269482,-1.50325282,-1.705925767,0.020690918,0,0.513,-0.0606,0.0516,0.00122,0.02885,-0.0009
2025-09-12T21:19:51.438295,-0.179830853,-1.696324011,1.57020599,-1.503650979,-1.70597345,0.020343781,0,-0.179830853,-1.696324011,1.57020599,-1.503650979,-1.70597345,0.020343781,0,0.413,-0.0206,-0.0684,0.00322,0.02985,-0.0019
2025-09-12T21:19:51.470432,-0.179388348,-1.704020639,1.572021786,-1.504346208,-1.705961529,0.019828796,0,-0.179388348,-1.704020639,1.572021786,-1.504346208,-1.705961529,0.019828796,0,0.533,-0.1406,-0.1884,0.01022,0.03085,-0.0019
2025-09-12T21:19:51.502439,-0.179087464,-1.710358759,1.573986355,-1.504909353,-1.705876652,0.01956749,0,-0.179087464,-1.710358759,1.573986355,-1.504909353,-1.705876652,0.01956749,0,0.353,-0.0606,-0.4284,0.01222,0.03085,0.0001
2025-09-12T21:19:51.534356,-0.178604428,-1.716517111,1.576862637,-1.505266981,-1.70596439,0.019412994,0,-0.178604428,-1.716517111,1.576862637,-1.505266981,-1.70596439,0.019412994,0,0.373,-0.1606,-0.3084,0.01722,0.02885,0.0001
2025-09-12T21:19:51.566357,-0.177777115,-1.723459383,1.581053082,-1.505566434,-1.706315343,0.019341946,0,-0.177777115,-1.723459383,1.581053082,-1.505566434,-1.706315343,0.019341946,0,0.333,-0.1006,-0.3684,0.00722,0.02285,-0.0019
2025-09-12T21:19:51.598403,-0.176916901,-1.73099341,1.586475674,-1.505815343,-1.70647556,0.019318581,0,-0.176916901,-1.73099341,1.586475674,-1.505815343,-1.70647556,0.019318581,0,0.213,-0.3206,-0.3884,0.01722,0.00885,0.0001
2025-09-12T21:19:51.630421,-0.176115815,-1.738937994,1.593124692,-1.505972223,-1.706161801,0.019378662,0,-0.176115815,-1.738937994,1.593124692,-1.505972223,-1.706161801,0.019378662,0,0.533,-0.2806,-0.3884,0.01822,0.03485,0.0001
2025-09-12T21:19:51.662534,-0.175278012,-1.747022768,1.600712125,-1.506248788,-1.705943886,0.019429207,0,-0.175278012,-1.747022768,1.600712125,-1.506248788,-1.705943886,0.019429207,0,0.373,-0.3406,-0.2484,0.02522,0.01985,-0.0049
2025-09-12T21:19:51.694510,-0.174453561,-1.754901072,1.608307187,-1.506500081,-1.70558149,0.019673824,0,-0.174453561,-1.754901072,1.608307187,-1.506500081,-1.70558149,0.019673824,0,0.393,-0.7406,-0.3084,0.03522,0.02985,-0.0039
2025-09-12T21:19:51.742494,-0.173461262,-1.763067385,1.616554562,-1.506849126,-1.705027882,0.020132542,0,-0.173461262,-1.763067385,1.616554562,-1.506849126,-1.705027882,0.020132542,0,0.333,-0.7406,-0.2684,0.04722,0.02085,-0.0039
2025-09-12T21:19:51.774508,-0.172277753,-1.771639486,1.626024548,-1.507460908,-1.704588238,0.021410942,0,-0.172277753,-1.771639486,1.626024548,-1.507460908,-1.704588238,0.021410942,0,0.433,-0.8806,-0.2884,0.05222,0.03185,-0.0059
2025-09-12T21:19:51.806578,-0.171681706,-1.775918623,1.631199185,-1.508091287,-1.704486195,0.0227561,0,-0.171681706,-1.775918623,1.631199185,-1.508091287,-1.704486195,0.0227561,0,0.173,-0.7606,-0.2284,0.04522,0.00885,-0.0039
2025-09-12T21:19:51.838535,-0.171012704,-1.779205938,1.6357711,-1.509213285,-1.703931157,0.023854733,0,-0.171012704,-1.779205938,1.6357711,-1.509213285,-1.703931157,0.023854733,0,0.433,-1.1806,-0.0884,0.07422,0.01885,-0.0039
2025-09-12T21:19:51.870565,-0.170390908,-1.781166693,1.639469449,-1.511541681,-1.703229252,0.024897099,0,-0.170390908,-1.781166693,1.639469449,-1.511541681,-1.703229252,0.024897099,0,0.273,-0.9006,-0.1084,0.05322,0.01785,-0.0009
2025-09-12T21:19:51.902625,-0.169805352,-1.781385561,1.642105405,-1.514609651,-1.702326123,0.025927067,0,-0.169805352,-1.781385561,1.642105405,-1.514609651,-1.702326123,0.025927067,0,0.393,-1.1606,-0.2884,0.07022,0.01185,-0.0029
2025-09-12T21:19:51.934583,-0.169256989,-1.779710909,1.643860165,-1.518078641,-1.701401059,0.02673769,0,-0.169256989,-1.779710909,1.643860165,-1.518078641,-1.701401059,0.02673769,0,0.213,-0.6606,-0.0884,0.03922,0.00885,-0.0059
2025-09-12T21:19:51.966610,-0.168815438,-1.776485582,1.644546811,-1.521451787,-1.700573746,0.027444363,0,-0.168815438,-1.776485582,1.644546811,-1.521451787,-1.700573746,0.027444363,0,0.333,-1.0006,-0.1284,0.04422,0.02185,-0.0019
2025-09-12T21:19:51.998630,-0.168493573,-1.771576544,1.643822018,-1.524647073,-1.699639622,0.028214931,0,-0.168493573,-1.771576544,1.643822018,-1.524647073,-1.699639622,0.028214931,0,0.093,-0.4406,0.1716,0.01522,0.01785,-0.0019
2025-09-12T21:19:52.030595,-0.168121163,-1.765233656,1.641996686,-1.527467565,-1.698444668,0.029113293,0,-0.168121163,-1.765233656,1.641996686,-1.527467565,-1.698444668,0.029113293,0,0.333,-0.4806,-0.0684,0.00422,0.03185,-0.0069
2025-09-12T21:19:52.062642,-0.167528931,-1.757423063,1.639141385,-1.529991941,-1.697345082,0.029779434,0,-0.167528931,-1.757423063,1.639141385,-1.529991941,-1.697345082,0.029779434,0,0.253,-0.2006,-0.4084,-0.00878,0.02385,-0.0029
2025-09-12T21:19:52.094694,-0.166328732,-1.748242041,1.63516647,-1.531988935,-1.69590265,0.030282021,0,-0.166328732,-1.748242041,1.63516647,-1.531988935,-1.69590265,0.030282021,0,-0.047,-0.7606,0.1116,0.04122,0.00785,-0.0009
2025-09-12T21:19:52.126691,-0.163515393,-1.736656805,1.62959129,-1.533724622,-1.693910901,0.030810356,0,-0.163515393,-1.736656805,1.62959129,-1.533724622,-1.693910901,0.030810356,0,-0.567,-0.5206,0.2516,0.02822,-0.03515,-0.0019
2025-09-12T21:19:52.158697,-0.159109418,-1.724442144,1.622965161,-1.535194234,-1.692132775,0.031400204,0,-0.159109418,-1.724442144,1.622965161,-1.535194234,-1.692132775,0.031400204,0,-0.127,-0.6806,-0.1084,0.04322,-0.01515,-0.0019
2025-09-12T21:19:52.190737,-0.152259652,-1.710155149,1.614515607,-1.536416368,-1.690820042,0.032182693,0,-0.152259652,-1.710155149,1.614515607,-1.536416368,-1.690820042,0.032182693,0,-0.567,-0.3406,-0.1884,0.02922,-0.04215,-0.0019
2025-09-12T21:19:52.238766,-0.143475835,-1.694477221,1.604950253,-1.537038164,-1.689904515,0.033238411,0,-0.143475835,-1.694477221,1.604950253,-1.537038164,-1.689904515,0.033238411,0,-0.227,-0.5006,0.3516,0.04022,-0.01315,-0.0009
2025-09-12T21:19:52.270822,-0.130702798,-1.674429079,1.59109718,-1.537792043,-1.689531151,0.034461498,0,-0.130702798,-1.674429079,1.59109718,-1.537792043,-1.689531151,0.034461498,0,-0.047,-0.2406,0.0716,0.01522,0.00685,-0.0009
2025-09-12T21:19:52.302790,-0.120823208,-1.659207006,1.579990689,-1.538074331,-1.689376179,0.035630703,0,-0.120823208,-1.659207006,1.579990689,-1.538074331,-1.689376179,0.035630703,0,0.513,-0.2406,0.2516,0.00422,0.02285,-0.0009
2025-09-12T21:19:52.334846,-0.111015622,-1.643527647,1.566780392,-1.53780158,-1.689448659,0.036908627,0,-0.111015622,-1.643527647,1.566780392,-1.53780158,-1.689448659,0.036908627,0,0.693,-0.0006,0.3516,-0.00878,0.02785,-0.0059
2025-09-12T21:19:52.366813,-0.101821725,-1.627815863,1.55196983,-1.537235574,-1.689398591,0.037949562,0,-0.101821725,-1.627815863,1.55196983,-1.537235574,-1.689398591,0.037949562,0,0.533,-0.3406,0.5716,0.01022,0.03685,-0.0009
2025-09-12T21:19:52.398838,-0.093538586,-1.612749239,1.536051099,-1.53659852,-1.689205949,0.03884697,0,-0.093538586,-1.612749239,1.536051099,-1.53659852,-1.689205949,0.03884697,0,0.513,-0.0606,0.1316,-0.00478,0.04385,0.0001
2025-09-12T21:19:52.430915,-0.086062256,-1.598261019,1.520038907,-1.535840349,-1.688989941,0.039708138,0,-0.086062256,-1.598261019,1.520038907,-1.535840349,-1.688989941,0.039708138,0,0.313,0.1394,0.4916,-0.00978,0.02385,0.0011
2025-09-12T21:19:52.462867,-0.079007928,-1.585279127,1.504247967,-1.534901456,-1.688559357,0.040402412,0,-0.079007928,-1.585279127,1.504247967,-1.534901456,-1.688559357,0.040402412,0,0.113,-0.0206,-0.0484,-0.00678,0.01585,0.0001
2025-09-12T21:19:52.494876,-0.07197601,-1.573441645,1.489137952,-1.533946828,-1.688200776,0.041258335,0,-0.07197601,-1.573441645,1.489137952,-1.533946828,-1.688200776,0.041258335,0,0.473,-0.0006,-0.0484,0.00022,0.02985,0.0001
2025-09-12T21:19:52.526973,-0.064373795,-1.562387781,1.47451431,-1.533435182,-1.687856023,0.042866707,0,-0.064373795,-1.562387781,1.47451431,-1.533435182,-1.687856023,0.042866707,0,0.253,0.1994,-0.6284,-0.00978,0.01185,0.0021
2025-09-12T21:19:52.558969,-0.056989972,-1.55308135,1.462539975,-1.533027963,-1.687618558,0.044793129,0,-0.056989972,-1.55308135,1.462539975,-1.533027963,-1.687618558,0.044793129,0,0.193,0.1194,-0.3684,-0.00278,0.00285,0.0011
2025-09-12T21:19:52.606977,-0.048512761,-1.543864564,1.451444928,-1.532584028,-1.687331978,0.047140121,0,-0.048512761,-1.543864564,1.451444928,-1.532584028,-1.687331978,0.047140121,0,0.173,0.0994,-0.2084,0.00022,0.01085,0.0001
2025-09-12T21:19:52.638989,-0.037727181,-1.53448327,1.440265958,-1.532129602,-1.686976258,0.049670696,0,-0.037727181,-1.53448327,1.440265958,-1.532129602,-1.686976258,0.049670696,0,0.533,0.0594,-0.4884,0.00122,0.02485,0.0001
2025-09-12T21:19:52.670989,-0.030654256,-1.529120283,1.434442822,-1.531879262,-1.686989133,0.051650047,0,-0.030654256,-1.529120283,1.434442822,-1.531879262,-1.686989133,0.051650047,0,0.293,-0.1806,-0.4084,0.02322,0.00485,0.0021
2025-09-12T21:19:52.703013,-0.024348084,-1.524885492,1.430126492,-1.53184493,-1.686928097,0.05304718,0,-0.024348084,-1.524885492,1.430126492,-1.53184493,-1.686928097,0.05304718,0,0.473,-0.1806,-0.4084,0.02022,0.02185,0.0001
2025-09-12T21:19:52.735055,-0.018393342,-1.521247224,1.426735226,-1.531749563,-1.686833207,0.054093838,0,-0.018393342,-1.521247224,1.426735226,-1.531749563,-1.686833207,0.054093838,0,0.173,-0.2006,-0.0484,0.01522,0.01885,0.0001
2025-09-12T21:19:52.767055,-0.012305085,-1.518045263,1.423889462,-1.531749563,-1.686774556,0.054868698,0,-0.012305085,-1.518045263,1.423889462,-1.531749563,-1.686774556,0.054868698,0,0.393,-0.1206,-0.0884,0.00522,0.01985,0.0001
2025-09-12T21:19:52.799067,-0.006510083,-1.515340166,1.421667401,-1.531822042,-1.686736886,0.055515289,0,-0.006510083,-1.515340166,1.421667401,-1.531822042,-1.686736886,0.055515289,0,0.313,-0.1206,-0.2284,0.00422,0.01585,0.0011
2025-09-12T21:19:52.831106,-0.00095493,-1.513130979,1.420145337,-1.531858281,-1.686617676,0.056174278,0,-0.00095493,-1.513130979,1.420145337,-1.531858281,-1.686617676,0.056174278,0,0.253,-0.1806,-0.1684,0.01122,0.01185,0.0011
2025-09-12T21:19:52.863124,0.004523754,-1.511526899,1.419012372,-1.531967477,-1.686521832,0.056746006,0,0.004523754,-1.511526899,1.419012372,-1.531967477,-1.686521832,0.056746006,0,0.133,-0.3006,-0.5084,0.01722,-0.00315,0.0011
2025-09-12T21:19:52.895179,0.010241508,-1.509837942,1.41840965,-1.532150106,-1.686245267,0.057174206,0,0.010241508,-1.509837942,1.41840965,-1.532150106,-1.686245267,0.057174206,0,0.213,-0.3406,-0.1284,0.02122,0.01085,0.0001
2025-09-12T21:19:52.927113,0.015954971,-1.508378343,1.418285672,-1.532463865,-1.685922925,0.05739975,0,0.015954971,-1.508378343,1.418285672,-1.532463865,-1.685922925,0.05739975,0,0.233,-0.1006,-0.0884,0.00422,-0.00015,-0.0009
2025-09-12T21:19:52.975193,0.021998882,-1.507254915,1.418638531,-1.532957391,-1.685673062,0.057641029,0,0.021998882,-1.507254915,1.418638531,-1.532957391,-1.685673062,0.057641029,0,0.293,-0.4406,-0.1884,0.02522,0.02085,-0.0009
2025-09-12T21:19:53.007184,0.029244423,-1.505811052,1.419178311,-1.533824281,-1.685398404,0.058096409,0,0.029244423,-1.505811052,1.419178311,-1.533824281,-1.685398404,0.058096409,0,0.273,-0.5406,-0.2284,0.02722,0.00585,-0.0009
2025-09-12T21:19:53.039204,0.033613682,-1.504591779,1.419523541,-1.534524278,-1.685232464,0.05831337,0,0.033613682,-1.504591779,1.419523541,-1.534524278,-1.685232464,0.05831337,0,0.313,-0.6406,-0.2884,0.03622,0.01585,-0.0009
2025-09-12T21:19:53.071216,0.038478374,-1.502467946,1.419540707,-1.535457448,-1.685198132,0.058758736,0,0.038478374,-1.502467946,1.419540707,-1.535457448,-1.685198132,0.058758736,0,0.473,-0.2006,-0.4884,0.00622,0.02585,0.0001
2025-09-12T21:19:53.103190,0.043011665,-1.4995683,1.419407193,-1.535979585,-1.685186688,0.059444427,0,0.043011665,-1.4995683,1.419407193,-1.535979585,-1.685186688,0.059444427,0,0.313,-0.4406,-0.0284,0.02822,0.03085,0.0001
2025-09-12T21:19:53.135227,0.047181606,-1.496315317,1.419081036,-1.536435441,-1.685234849,0.060163021,0,0.047181606,-1.496315317,1.419081036,-1.536435441,-1.685234849,0.060163021,0,0.233,-0.1606,-0.1284,0.00722,0.01585,0.0001
2025-09-12T21:19:53.167246,0.051120758,-1.492957429,1.418659512,-1.536770658,-1.685186688,0.060878754,0,0.051120758,-1.492957429,1.418659512,-1.536770658,-1.685186688,0.060878754,0,0.413,-0.3606,-0.1684,0.02322,0.02485,0.0001
2025-09-12T21:19:53.199262,0.055491924,-1.489370183,1.418043439,-1.53709443,-1.685234849,0.061488152,0,0.055491924,-1.489370183,1.418043439,-1.53709443,-1.685234849,0.061488152,0,0.073,-0.1606,-0.1484,0.00922,-0.00515,-0.0009
2025-09-12T21:19:53.231373,0.059384346,-1.486192541,1.417249982,-1.537381963,-1.685209576,0.061942577,0,0.059384346,-1.486192541,1.417249982,-1.537381963,-1.685209576,0.061942577,0,0.193,-0.2806,-0.1484,0.01922,0.00285,0.0001
2025-09-12T21:19:53.279341,0.063595772,-1.482783155,1.416168515,-1.537792043,-1.685065571,0.062409401,0,0.063595772,-1.482783155,1.416168515,-1.537792043,-1.685065571,0.062409401,0,0.433,-0.2206,-0.1884,0.01722,0.02685,0.0001
2025-09-12T21:19:53.311343,0.068880558,-1.478054838,1.414545361,-1.538319425,-1.684898678,0.063080311,0,0.068880558,-1.478054838,1.414545361,-1.538319425,-1.684898678,0.063080311,0,0.593,-0.3406,-0.3084,0.02122,0.03985,0.0001
2025-09-12T21:19:53.343313,0.072059631,-1.474718408,1.413099591,-1.538616971,-1.684851472,0.063547134,0,0.072059631,-1.474718408,1.413099591,-1.538616971,-1.684851472,0.063547134,0,0.133,-0.2006,0.1316,0.01122,0.00785,0.0001
2025-09-12T21:19:53.375424,0.074724197,-1.471602754,1.411356274,-1.53885682,-1.684767548,0.063941002,0,0.074724197,-1.471602754,1.411356274,-1.53885682,-1.684767548,0.063941002,0,0.393,-0.2406,-0.0284,0.01222,0.01685,0.0001
2025-09-12T21:19:53.407374,0.077127934,-1.468498067,1.409448926,-1.53902419,-1.684672181,0.064275265,0,0.077127934,-1.468498067,1.409448926,-1.53902419,-1.684672181,0.064275265,0,0.213,-0.1406,-0.2884,0.01222,0.00985,0.0021
2025-09-12T21:19:53.439401,0.07957983,-1.464800672,1.40706474,-1.5392278,-1.684636418,0.0645504,0,0.07957983,-1.464800672,1.40706474,-1.5392278,-1.684636418,0.0645504,0,0.173,-0.2606,-0.1684,0.01622,0.01485,0.0001
2025-09-12T21:19:53.471415,0.081923962,-1.460482911,1.403999631,-1.539347963,-1.684576813,0.064764977,0,0.081923962,-1.460482911,1.403999631,-1.539347963,-1.684576813,0.064764977,0,0.273,-0.1606,-0.2084,0.00922,0.01585,0.0011
2025-09-12T21:19:53.503437,0.084079742,-1.455891446,1.400440518,-1.539503412,-1.684517209,0.06501627,0,0.084079742,-1.455891446,1.400440518,-1.539503412,-1.684517209,0.06501627,0,0.193,-0.2006,0.0516,0.01322,0.02285,0.0001
2025-09-12T21:19:53.535438,0.086455345,-1.451084451,1.396454159,-1.539647416,-1.684493367,0.065231323,0,0.086455345,-1.451084451,1.396454159,-1.539647416,-1.684493367,0.065231323,0,0.113,0.0194,-0.0084,-0.00378,0.00285,0.0001
2025-09-12T21:19:53.567526,0.089076519,-1.446079091,1.391859357,-1.539730863,-1.684410397,0.065362453,0,0.089076519,-1.446079091,1.391859357,-1.539730863,-1.684410397,0.065362453,0,0.333,-0.3206,-0.1284,0.02022,0.02385,0.0001
2025-09-12T21:19:53.615503,0.091831207,-1.440808133,1.386673276,-1.539838628,-1.684446637,0.065505505,0,0.091831207,-1.440808133,1.386673276,-1.539838628,-1.684446637,0.065505505,0,0.033,-0.0806,-0.1284,0.00822,-0.00715,0.0011
2025-09-12T21:19:53.647499,0.095093727,-1.434090928,1.379690472,-1.539935426,-1.684375111,0.06561327,0,0.095093727,-1.434090928,1.379690472,-1.539935426,-1.684375111,0.06561327,0,0.173,-0.2606,-0.2084,0.02122,0.00485,0.0001
2025-09-12T21:19:53.679508,0.097079277,-1.429727868,1.375070874,-1.540091352,-1.684375111,0.065744877,0,0.097079277,-1.429727868,1.375070874,-1.540091352,-1.684375111,0.065744877,0,0.073,-0.2606,-0.1884,0.01522,-0.01315,0.0001
2025-09-12T21:19:53.711537,0.099102497,-1.424967603,1.370077435,-1.540285901,-1.684350316,0.065780163,0,0.099102497,-1.424967603,1.370077435,-1.540285901,-1.684350316,0.065780163,0,0.493,-0.0806,-0.1684,0.00222,0.03485,-0.0019
2025-09-12T21:19:53.743590,0.101273537,-1.419646577,1.364670102,-1.540635423,-1.684351269,0.065815926,0,0.101273537,-1.419646577,1.364670102,-1.540635423,-1.684351269,0.065815926,0,-0.047,0.0594,-0.0884,-0.01978,-0.00415,0.0001
2025-09-12T21:19:53.775595,0.103826523,-1.414230184,1.359014813,-1.541182355,-1.68436319,0.065851688,0,0.103826523,-1.414230184,1.359014813,-1.541182355,-1.68436319,0.065851688,0,0.293,-0.2206,-0.0484,0.01722,0.01585,0.0001
2025-09-12T21:19:53.807603,0.106663227,-1.408692674,1.353285138,-1.542490796,-1.68431503,0.06587553,0,0.106663227,-1.408692674,1.353285138,-1.542490796,-1.68431503,0.06587553,0,0.053,-0.0206,-0.0884,0.00622,-0.00215,0.0011
2025-09-12T21:19:53.839599,0.109805584,-1.403270082,1.34755737,-1.544124917,-1.684351269,0.065899372,0,0.109805584,-1.403270082,1.34755737,-1.544124917,-1.684351269,0.065899372,0,0.213,-0.3606,-0.3684,0.02722,0.00085,0.0041
2025-09-12T21:19:53.871584,0.11329174,-1.397751169,1.342163388,-1.546832399,-1.68440086,0.065935135,0,0.11329174,-1.397751169,1.342163388,-1.546832399,-1.68440086,0.065935135,0,0.193,0.0594,-0.5484,0.00322,0.00785,0.0001
2025-09-12T21:19:53.903751,0.117530823,-1.391571836,1.336424176,-1.550331907,-1.684531037,0.065923214,0,0.117530823,-1.391571836,1.336424176,-1.550331907,-1.684531037,0.065923214,0,0.313,-0.5806,-0.0284,0.03622,0.01485,0.0011
2025-09-12T21:19:53.935753,0.121331692,-1.386405782,1.33155853,-1.553718404,-1.684579198,0.065911293,0,0.121331692,-1.386405782,1.33155853,-1.553718404,-1.684579198,0.065911293,0,0.193,-0.1006,-0.2884,0.02822,-0.00615,0.0011
2025-09-12T21:19:53.967706,0.125109673,-1.381512956,1.326862637,-1.557152109,-1.6845668,0.065935135,0,0.125109673,-1.381512956,1.326862637,-1.557152109,-1.6845668,0.065935135,0,0.393,-0.6006,-0.3084,0.02922,0.02685,0.0011
2025-09-12T21:19:54.015680,0.128849506,-1.376194791,1.321897809,-1.560407953,-1.684590642,0.065947056,0,0.128849506,-1.376194791,1.321897809,-1.560407953,-1.684590642,0.065947056,0,0.333,-0.2606,-0.3084,0.03022,0.00985,0.0001
2025-09-12T21:19:54.047787,0.132983685,-1.369355993,1.316255871,-1.564069108,-1.684578244,0.065947056,0,0.132983685,-1.369355993,1.316255871,-1.564069108,-1.684578244,0.065947056,0,0.473,0.1994,-0.2084,-0.01278,0.03185,0.0001
2025-09-12T21:19:54.079770,0.135743618,-1.364175634,1.31224281,-1.566242055,-1.684589688,0.065958977,0,0.135743618,-1.364175634,1.31224281,-1.566242055,-1.684589688,0.065958977,0,0.313,-0.6006,0.0716,0.04722,0.01685,-0.0009
2025-09-12T21:19:54.111834,0.138462067,-1.359219865,1.308321301,-1.568363027,-1.684577767,0.065947056,0,0.138462067,-1.359219865,1.308321301,-1.568363027,-1.684577767,0.065947056,0,-0.287,-0.2606,-0.1084,0.01222,-0.02315,0.0011
2025-09-12T21:19:54.143880,0.141331673,-1.354360418,1.304426495,-1.570238428,-1.684529606,0.065947056,0,0.141331673,-1.354360418,1.304426495,-1.570238428,-1.684529606,0.065947056,0,0.213,-0.1406,-0.2484,0.01422,0.01785,0.0001
2025-09-12T21:19:54.175841,0.144377232,-1.349426584,1.30061752,-1.571568628,-1.684481446,0.065935135,0,0.144377232,-1.349426584,1.30061752,-1.571568628,-1.684481446,0.065935135,0,0.213,-0.1406,-0.4684,0.00322,0.01285,0.0011
2025-09-12T21:19:54.207863,0.147809982,-1.343957738,1.296802823,-1.572592398,-1.684445683,0.065958977,0,0.147809982,-1.343957738,1.296802823,-1.572592398,-1.684445683,0.065958977,0,0.173,-0.2206,-0.0484,0.00822,0.01085,0.0001
2025-09-12T21:19:54.239853,0.15106535,-1.338562803,1.29315788,-1.573798319,-1.684421841,0.065982819,0,0.15106535,-1.338562803,1.29315788,-1.573798319,-1.684421841,0.065982819,0,0.433,-0.2206,-0.2884,0.00822,0.02585,0.0011
2025-09-12T21:19:54.271844,0.1542449,-1.332976179,1.289440457,-1.574428221,-1.684422795,0.065958977,0,0.1542449,-1.332976179,1.289440457,-1.574428221,-1.684422795,0.065958977,0,0.173,-0.0806,-0.1084,-0.00478,0.00785,0.0021
2025-09-12T21:19:54.303876,0.157375336,-1.327030496,1.285507504,-1.574896475,-1.684436623,0.065958977,0,0.157375336,-1.327030496,1.285507504,-1.574896475,-1.684436623,0.065958977,0,0.453,-0.3406,-0.1084,0.02322,0.02985,0.0011
2025-09-12T21:19:54.351883,0.160202503,-1.321180658,1.281242673,-1.575301786,-1.684592549,0.065958977,0,0.160202503,-1.321180658,1.281242673,-1.575301786,-1.684592549,0.065958977,0,0.253,-0.2606,-0.2284,0.02922,0.01085,0.0021
2025-09-12T21:19:54.383943,0.16304493,-1.313734846,1.275955502,-1.575538298,-1.684759919,0.065982819,0,0.16304493,-1.313734846,1.275955502,-1.575538298,-1.684759919,0.065982819,0,0.233,-0.3406,-0.1484,0.01722,0.01985,0.0001
2025-09-12T21:19:54.415930,0.164827347,-1.307918386,1.272077862,-1.575657984,-1.684990708,0.065934658,0,0.164827347,-1.307918386,1.272077862,-1.575657984,-1.684990708,0.065934658,0,0.433,-0.3006,-0.4084,0.01322,0.02385,0.0011
2025-09-12T21:19:54.447951,0.166283131,-1.301610307,1.268125836,-1.575681349,-1.685436551,0.065958977,0,0.166283131,-1.301610307,1.268125836,-1.575681349,-1.685436551,0.065958977,0,0.453,-0.0006,-0.2284,-0.00278,0.03185,0.0011
2025-09-12T21:19:54.479981,0.167441845,-1.295006589,1.264339749,-1.575729033,-1.686337773,0.065934658,0,0.167441845,-1.295006589,1.264339749,-1.575729033,-1.686337773,0.065934658,0,0.413,-0.1606,0.0316,0.00622,0.02185,0.0001
2025-09-12T21:19:54.511965,0.168385983,-1.288718061,1.260639493,-1.57565703,-1.687281434,0.065923214,0,0.168385983,-1.288718061,1.260639493,-1.57565703,-1.687281434,0.065923214,0,0.453,-0.0806,-0.1284,0.00322,0.03185,0.0001
2025-09-12T21:19:54.544008,0.169161797,-1.282623128,1.257164303,-1.575740953,-1.68837959,0.065934658,0,0.169161797,-1.282623128,1.257164303,-1.575740953,-1.68837959,0.065934658,0,0.173,-0.0806,0.0316,0.00422,0.01485,0.0021
2025-09-12T21:19:54.576040,0.16972208,-1.27668126,1.253887479,-1.575718542,-1.689467732,0.065958977,0,0.16972208,-1.27668126,1.253887479,-1.575718542,-1.689467732,0.065958977,0,0.313,-0.0406,-0.3084,0.00122,0.02285,0.0021
2025-09-12T21:19:54.608054,0.170138359,-1.270450906,1.250854794,-1.575900694,-1.690512005,0.065872192,0,0.170138359,-1.270450906,1.250854794,-1.575900694,-1.690512005,0.065872192,0,0.293,-0.1406,0.0316,0.01122,0.01785,0.0001
2025-09-12T21:19:54.640077,0.170437336,-1.264437036,1.248030011,-1.5762526,-1.691251103,0.065765858,0,0.170437336,-1.264437036,1.248030011,-1.5762526,-1.691251103,0.065765858,0,0.333,0.0394,0.1116,0.00122,0.02085,0.0011
2025-09-12T21:19:54.688056,0.170638561,-1.258963422,1.245060269,-1.576892992,-1.692090336,0.065670967,0,0.170638561,-1.258963422,1.245060269,-1.576892992,-1.692090336,0.065670967,0,0.373,-0.1806,0.0716,0.01522,0.02485,0.0021
2025-09-12T21:19:54.720110,0.17062521,-1.252446012,1.241155926,-1.578242918,-1.693281476,0.065647125,0,0.17062521,-1.252446012,1.241155926,-1.578242918,-1.693281476,0.065647125,0,0.073,-0.0606,-0.0684,0.00522,0.00585,0.0021
2025-09-12T21:19:54.752108,0.170672894,-1.247590856,1.238388364,-1.580131193,-1.693923775,0.065647602,0,0.170672894,-1.247590856,1.238388364,-1.580131193,-1.693923775,0.065647602,0,0.353,-0.4406,0.1316,0.02722,0.02985,0.0031
2025-09-12T21:19:54.784198,0.170649052,-1.242799119,1.235702817,-1.583595415,-1.694592301,0.065671444,0,0.170649052,-1.242799119,1.235702817,-1.583595415,-1.694592301,0.065671444,0,0.053,-0.1406,0.1916,0.01622,-0.00015,0.0031
2025-09-12T21:19:54.816144,0.170624733,-1.238355951,1.233284299,-1.588488718,-1.695152585,0.065684795,0,0.170624733,-1.238355951,1.233284299,-1.588488718,-1.695152585,0.065684795,0,0.433,0.0194,0.2716,0.00322,0.02385,0.0041
2025-09-12T21:19:54.848180,0.170513153,-1.234424905,1.230961148,-1.594704767,-1.695725266,0.065853596,0,0.170513153,-1.234424905,1.230961148,-1.594704767,-1.695725266,0.065853596,0,0.633,-0.2806,-0.0684,0.01622,0.04485,0.0021
2025-09-12T21:19:54.880235,0.170162678,-1.230972604,1.22883064,-1.602388521,-1.696165387,0.066022873,0,0.170162678,-1.230972604,1.22883064,-1.602388521,-1.696165387,0.066022873,0,0.233,-0.0006,-0.2684,-0.00478,0.01085,0.0041
2025-09-12T21:19:54.912206,0.169682503,-1.227444009,1.226867978,-1.610994478,-1.696617428,0.06632185,0,0.169682503,-1.227444009,1.226867978,-1.610994478,-1.696617428,0.06632185,0,0.453,-0.2406,-0.0284,0.00922,0.03085,0.0031
2025-09-12T21:19:54.944328,0.169141769,-1.224191026,1.225202862,-1.61898913,-1.696890179,0.066492081,0,0.169141769,-1.224191026,1.225202862,-1.61898913,-1.696890179,0.066492081,0,0.213,-0.0006,-0.1084,0.00822,0.01985,0.0061
2025-09-12T21:19:54.976217,0.168468952,-1.220962362,1.223676984,-1.627221724,-1.697117154,0.067034721,0,0.168468952,-1.220962362,1.223676984,-1.627221724,-1.697117154,0.067034721,0,0.273,-0.2606,-0.2684,0.00522,0.01985,0.0031
2025-09-12T21:19:55.024275,0.167665005,-1.217922525,1.22249252,-1.635123869,-1.697247807,0.067878246,0,0.167665005,-1.217922525,1.22249252,-1.635123869,-1.697247807,0.067878246,0,0.253,-0.1406,-0.1884,0.00822,0.02685,0.0021
2025-09-12T21:19:55.056275,0.166599274,-1.214224653,1.221206967,-1.643565794,-1.697473828,0.069491863,0,0.166599274,-1.214224653,1.221206967,-1.643565794,-1.697473828,0.069491863,0,0.253,-0.2006,-0.0084,0.01222,0.02385,0.0021
2025-09-12T21:19:55.088296,0.165881634,-1.211650686,1.220018689,-1.648786684,-1.697604481,0.071550846,0,0.165881634,-1.211650686,1.220018689,-1.648786684,-1.697604481,0.071550846,0,0.293,-0.1206,-0.1084,0.00522,0.02285,0.0021
2025-09-12T21:19:55.120344,0.16524744,-1.209002332,1.218660657,-1.653372904,-1.697735612,0.074172974,0,0.16524744,-1.209002332,1.218660657,-1.653372904,-1.697735612,0.074172974,0,0.053,-0.1806,-0.2884,0.02022,0.01185,0.0031
2025-09-12T21:19:55.152347,0.164710522,-1.206309633,1.217344586,-1.65718331,-1.697794739,0.07686758,0,0.164710522,-1.206309633,1.217344586,-1.65718331,-1.697794739,0.07686758,0,0.133,-0.4006,0.1316,0.04422,0.01085,0.0001
2025-09-12T21:19:55.184336,0.164328575,-1.203759031,1.215925519,-1.660515448,-1.697769944,0.080378532,0,0.164328575,-1.203759031,1.215925519,-1.660515448,-1.697769944,0.080378532,0,0.113,-0.4406,-0.0684,0.03622,0.00885,0.0021
2025-09-12T21:19:55.216353,0.163957596,-1.201270418,1.214290921,-1.663185736,-1.697769467,0.083202839,0,0.163957596,-1.201270418,1.214290921,-1.663185736,-1.697769467,0.083202839,0,-0.107,-0.9206,0.2316,0.06722,-0.00015,0.0021
2025-09-12T21:19:55.248447,0.163694382,-1.198944883,1.2124427,-1.666065832,-1.697758023,0.086147785,0,0.163694382,-1.198944883,1.2124427,-1.666065832,-1.697758023,0.086147785,0,0.053,-0.5406,-0.2884,0.03022,-0.01015,0.0041
2025-09-12T21:19:55.280437,0.163321495,-1.196173505,1.210693661,-1.669747969,-1.69772226,0.089144707,0,0.163321495,-1.196173505,1.210693661,-1.669747969,-1.69772226,0.089144707,0,0.133,-0.6206,-0.2884,0.02122,0.01585,0.0001
2025-09-12T21:19:55.312454,0.162974358,-1.193161802,1.208977048,-1.674130102,-1.697698418,0.091425896,0,0.162974358,-1.193161802,1.208977048,-1.674130102,-1.697698418,0.091425896,0,0.293,-0.4406,-0.3484,0.04122,0.02385,0.0041
2025-09-12T21:19:55.344454,0.162555218,-1.189663724,1.207107846,-1.679412504,-1.697722737,0.094063282,0,0.162555218,-1.189663724,1.207107846,-1.679412504,-1.697722737,0.094063282,0,0.313,-0.5006,-0.1084,0.02022,0.03485,0.0001
2025-09-12T21:19:55.376771,0.162244797,-1.186384038,1.205299679,-1.684838911,-1.697770898,0.096088409,0,0.162244797,-1.186384038,1.205299679,-1.684838911,-1.697770898,0.096088409,0,0.113,-0.5006,-0.2484,0.03122,0.01185,0.0021
2025-09-12T21:19:55.424519,0.162042618,-1.183341817,1.203596417,-1.689811846,-1.697818104,0.097651958,0,0.162042618,-1.183341817,1.203596417,-1.689811846,-1.697818104,0.097651958,0,0.073,-0.5606,-0.2884,0.02122,0.01985,0.0011
2025-09-12T21:19:55.456542,0.161838531,-1.179159955,1.201694791,-1.695827147,-1.697792832,0.100176334,0,0.161838531,-1.179159955,1.201694791,-1.695827147,-1.697792832,0.100176334,0,0.153,-0.3806,-0.3684,0.02822,0.02385,0.0001
2025-09-12T21:19:55.488526,0.161633968,-1.176039533,1.200311963,-1.699520727,-1.697684113,0.101985931,0,0.161633968,-1.176039533,1.200311963,-1.699520727,-1.697684113,0.101985931,0,0.273,-0.3606,-0.0084,0.02322,0.02785,0.0001
2025-09-12T21:19:55.520583,0.161383152,-1.173058824,1.198862378,-1.702726027,-1.697589223,0.10358429,0,0.161383152,-1.173058824,1.198862378,-1.702726027,-1.697589223,0.10358429,0,0.153,-0.5206,-0.0684,0.02822,0.02485,0.0011
2025-09-12T21:19:55.552589,0.161226749,-1.170367078,1.197372739,-1.705207487,-1.697421376,0.105557442,0,0.161226749,-1.170367078,1.197372739,-1.705207487,-1.697421376,0.105557442,0,0.213,-1.0806,0.1116,0.06522,0.02485,0.0011
2025-09-12T21:19:55.584571,0.160963535,-1.167791204,1.195640866,-1.70718207,-1.697326485,0.107247353,0,0.160963535,-1.167791204,1.195640866,-1.70718207,-1.697326485,0.107247353,0,-0.287,-0.7606,-0.1084,0.04622,-0.00215,0.0021
2025-09-12T21:19:55.616608,0.160725594,-1.164999799,1.193525616,-1.709053179,-1.697182957,0.108610153,0,0.160725594,-1.164999799,1.193525616,-1.709053179,-1.697182957,0.108610153,0,0.173,-0.3606,-0.2084,0.01822,0.01585,0.0001
2025-09-12T21:19:55.648718,0.160570145,-1.162170247,1.191355054,-1.710180899,-1.697062794,0.109596729,0,0.160570145,-1.162170247,1.191355054,-1.710180899,-1.697062794,0.109596729,0,0.133,-0.6406,-0.3684,0.04022,0.02785,0.0011
2025-09-12T21:19:55.680630,0.160415173,-1.15869029,1.188772504,-1.711324354,-1.696980778,0.110349178,0,0.160415173,-1.15869029,1.188772504,-1.711324354,-1.696980778,0.110349178,0,0.253,-0.8006,0.0516,0.04422,0.01585,0.0001
2025-09-12T21:19:55.712668,0.160331726,-1.155869798,1.186397854,-1.712286612,-1.696847741,0.110973358,0,0.160331726,-1.155869798,1.186397854,-1.712286612,-1.696847741,0.110973358,0,0.013,-0.4406,-0.4684,0.03322,0.00885,0.0011
2025-09-12T21:19:55.744680,0.1601758,-1.152557687,1.183759991,-1.712773462,-1.696644608,0.1116786,0,0.1601758,-1.152557687,1.183759991,-1.712773462,-1.696644608,0.1116786,0,0.153,-0.7406,-0.1084,0.04722,0.01085,0.0011
2025-09-12T21:19:55.776700,0.160104275,-1.149126844,1.181169812,-1.713240763,-1.696367566,0.112215042,0,0.160104275,-1.149126844,1.181169812,-1.713240763,-1.696367566,0.112215042,0,0.173,-0.6606,-0.1084,0.03822,0.00985,0.0001
2025-09-12T21:19:55.824749,0.159948826,-1.145923929,1.178762738,-1.713623663,-1.696069543,0.112511635,0,0.159948826,-1.145923929,1.178762738,-1.713623663,-1.696069543,0.112511635,0,0.013,-0.5806,-0.3684,0.03422,0.00585,0.0021
2025-09-12T21:19:55.857689,0.159793854,-1.142083959,1.176248852,-1.713957449,-1.695602719,0.112750053,0,0.159793854,-1.142083959,1.176248852,-1.713957449,-1.695602719,0.112750053,0,0.173,-0.8006,-0.1684,0.04122,0.01685,0.0001
2025-09-12T21:19:55.888801,0.159745693,-1.139208154,1.174475018,-1.714268347,-1.695135895,0.112893581,0,0.159745693,-1.139208154,1.174475018,-1.714268347,-1.695135895,0.112893581,0,0.033,-0.5006,-0.0484,0.03422,0.01085,-0.0009
2025-09-12T21:19:55.920775,0.159710884,-1.136424379,1.172773663,-1.714349409,-1.694486443,0.113037586,0,0.159710884,-1.136424379,1.172773663,-1.714349409,-1.694486443,0.113037586,0,0.073,-0.5206,-0.3484,0.03522,0.01585,0.0001
2025-09-12T21:19:55.952788,0.159663677,-1.133711175,1.171205823,-1.714288374,-1.693647687,0.113132954,0,0.159663677,-1.133711175,1.171205823,-1.714288374,-1.693647687,0.113132954,0,-0.007,-0.6606,-0.1084,0.04322,0.00585,0.0001
2025-09-12T21:19:55.986030,0.159639359,-1.130843,1.169597928,-1.714263578,-1.69238979,0.113203526,0,0.159639359,-1.130843,1.169597928,-1.714263578,-1.69238979,0.113203526,0,0.193,-0.6006,-0.3484,0.03022,0.00785,0.0001
2025-09-12T21:19:56.016886,0.159651279,-1.128168897,1.168295209,-1.714190146,-1.691331689,0.113238335,0,0.159651279,-1.128168897,1.168295209,-1.714190146,-1.691331689,0.113238335,0,0.213,-0.6406,-0.0484,0.04022,0.02585,0.0001
2025-09-12T21:19:56.048872,0.159615517,-1.125459985,1.16717178,-1.714082857,-1.690316025,0.113214493,0,0.159615517,-1.125459985,1.16717178,-1.714082857,-1.690316025,0.113214493,0,-0.007,-0.4006,-0.1084,0.02922,0.00685,0.0001
2025-09-12T21:19:56.080917,0.159700394,-1.123195962,1.166300122,-1.714022776,-1.689057652,0.11314106,0,0.159700394,-1.123195962,1.166300122,-1.714022776,-1.689057652,0.11314106,0,0.073,-0.5806,-0.1284,0.03422,0.01385,0.0001
2025-09-12T21:19:56.112958,0.159760475,-1.120811777,1.165643994,-1.713855883,-1.68773729,0.11300993,0,0.159760475,-1.120811777,1.165643994,-1.713855883,-1.68773729,0.11300993,0,0.153,-0.5206,-0.1084,0.02922,0.01585,0.0001
2025-09-12T21:19:56.144953,0.159833431,-1.118689851,1.165115658,-1.713771959,-1.68679649,0.112997532,0,0.159833431,-1.118689851,1.165115658,-1.713771959,-1.68679649,0.112997532,0,0.093,-0.5406,-0.1484,0.03822,0.01285,0.0001
2025-09-12T21:19:56.192947,0.160000801,-1.116613702,1.164673154,-1.713724276,-1.685950581,0.112865448,0,0.160000801,-1.116613702,1.164673154,-1.713724276,-1.685950581,0.112865448,0,0.033,-0.4406,-0.0884,0.03222,0.01285,0.0001
2025-09-12T21:19:56.224987,0.160180569,-1.114279107,1.164137189,-1.713639399,-1.685166661,0.112722397,0,0.160180569,-1.114279107,1.164137189,-1.713639399,-1.685166661,0.112722397,0,0.093,-0.4406,-0.0284,0.03622,0.01085,0.0001
2025-09-12T21:19:56.256973,0.16032362,-1.112780885,1.163826291,-1.713516851,-1.684703175,0.112735748,0,0.16032362,-1.112780885,1.163826291,-1.713516851,-1.684703175,0.112735748,0,0.073,-0.4206,-0.3084,0.03322,0.01485,0.0001
2025-09-12T21:19:56.289022,0.160467148,-1.111147718,1.163791958,-1.713239809,-1.684491936,0.112736225,0,0.160467148,-1.111147718,1.163791958,-1.713239809,-1.684491936,0.112736225,0,0.033,-0.5806,-0.1484,0.03322,0.01285,-0.0009
2025-09-12T21:19:56.321022,0.160586834,-1.109554605,1.163793866,-1.712782999,-1.684374158,0.112807751,0,0.160586834,-1.109554605,1.163793866,-1.712782999,-1.684374158,0.112807751,0,0.073,-0.4806,0.0116,0.03122,0.00985,0.0001
2025-09-12T21:19:56.353059,0.160682201,-1.108249025,1.163828198,-1.712350031,-1.684375111,0.112795353,0,0.160682201,-1.108249025,1.163828198,-1.712350031,-1.684375111,0.112795353,0,0.113,-0.4806,-0.1684,0.02722,0.00885,0.0001
2025-09-12T21:19:56.385091,0.16078949,-1.106952505,1.163732831,-1.711662909,-1.684375588,0.112746716,0,0.16078949,-1.106952505,1.163732831,-1.711662909,-1.684375588,0.112746716,0,0.013,-0.3806,-0.2884,0.02622,0.00685,0.0001
2025-09-12T21:19:56.417142,0.160885334,-1.105595426,1.163706128,-1.710869928,-1.684387509,0.112662315,0,0.160885334,-1.105595426,1.163706128,-1.710869928,-1.684387509,0.112662315,0,0.053,-0.5406,-0.0484,0.03622,0.01185,0.0001
2025-09-12T21:19:56.449255,0.160895348,-1.104146795,1.163425748,-1.710084101,-1.684422795,0.112565994,0,0.160895348,-1.104146795,1.163425748,-1.710084101,-1.684422795,0.112565994,0,0.193,-0.5606,0.0716,0.03422,0.01385,0.0001
2025-09-12T21:19:56.481124,0.160871506,-1.103176431,1.162884061,-1.7094933,-1.684459035,0.11250639,0,0.160871506,-1.103176431,1.162884061,-1.7094933,-1.684459035,0.11250639,0,0.093,-0.3006,-0.0284,0.01822,0.00485,0.0001
2025-09-12T21:19:56.513157,0.160907269,-1.101972417,1.162124936,-1.708443304,-1.684422795,0.112398624,0,0.160907269,-1.101972417,1.162124936,-1.708443304,-1.684422795,0.112398624,0,0.133,-0.4006,-0.3284,0.02322,0.01085,0.0001
2025-09-12T21:19:56.545160,0.160883904,-1.100429849,1.161272351,-1.707076689,-1.684435193,0.112265587,0,0.160883904,-1.100429849,1.161272351,-1.707076689,-1.684435193,0.112265587,0,0.173,-0.6006,-0.4684,0.03822,0.00385,0.0001
2025-09-12T21:19:56.593313,0.160919666,-1.098267869,1.160362546,-1.706077238,-1.684458558,0.112084866,0,0.160919666,-1.098267869,1.160362546,-1.706077238,-1.684458558,0.112084866,0,0.013,-0.3006,-0.0484,0.01922,0.01185,0.0011
2025-09-12T21:19:56.625255,0.160931587,-1.095980005,1.15933067,-1.705033442,-1.684410874,0.111725807,0,0.160931587,-1.095980005,1.15933067,-1.705033442,-1.684410874,0.111725807,0,0.033,-0.3206,-0.0884,0.02222,0.00685,0.0001
2025-09-12T21:19:56.657629,0.16088295,-1.094504194,1.158468548,-1.704327723,-1.684410397,0.111557484,0,0.16088295,-1.094504194,1.158468548,-1.704327723,-1.684410397,0.111557484,0,-0.007,-0.3606,-0.1684,0.02622,0.00985,0.0001
2025-09-12T21:19:56.689382,0.160871506,-1.09279807,1.157738034,-1.703734537,-1.684313122,0.111208916,0,0.160871506,-1.09279807,1.157738034,-1.703734537,-1.684313122,0.111208916,0,0.073,-0.4406,-0.3484,0.02822,0.01185,0.0001
2025-09-12T21:19:56.721262,0.160895348,-1.090692834,1.15706474,-1.703521868,-1.684145276,0.11077404,0,0.160895348,-1.090692834,1.15706474,-1.703521868,-1.684145276,0.11077404,0,0.093,-0.4006,-0.2884,0.02122,0.01385,0.0001
2025-09-12T21:19:56.753287,0.160859585,-1.088310556,1.156187359,-1.703365942,-1.683978383,0.110088825,0,0.160859585,-1.088310556,1.156187359,-1.703365942,-1.683978383,0.110088825,0,-0.047,-0.2606,-0.0884,0.01922,-0.00015,0.0001
2025-09-12T21:19:56.785324,0.160883904,-1.085473852,1.155199353,-1.70322146,-1.683799092,0.10919857,0,0.160883904,-1.085473852,1.155199353,-1.70322146,-1.683799092,0.10919857,0,0.173,-0.4806,-0.2084,0.02422,0.01985,0.0001
2025-09-12T21:19:56.817321,0.160835743,-1.082475023,1.153873746,-1.702957769,-1.683596436,0.108082771,0,0.160835743,-1.082475023,1.153873746,-1.702957769,-1.683596436,0.108082771,0,-0.047,-0.4206,-0.0084,0.03122,0.00785,0.0001
2025-09-12T21:19:56.849358,0.160883904,-1.079150037,1.152118985,-1.702873846,-1.683465306,0.107033253,0,0.160883904,-1.079150037,1.152118985,-1.702873846,-1.683465306,0.107033253,0,0.093,-0.1606,-0.3084,0.01322,0.01485,0.0001
2025-09-12T21:19:56.881355,0.160871983,-1.075984792,1.150383298,-1.702658793,-1.683322255,0.106220245,0,0.160871983,-1.075984792,1.150383298,-1.702658793,-1.683322255,0.106220245,0,-0.047,-0.3206,-0.0084,0.02122,0.00185,0.0021
2025-09-12T21:19:56.913350,0.160883904,-1.072974519,1.148849789,-1.702564379,-1.683153931,0.105515003,0,0.160883904,-1.072974519,1.148849789,-1.702564379,-1.683153931,0.105515003,0,0.033,-0.3006,-0.0884,0.01222,0.01585,0.0001
2025-09-12T21:19:56.945394,0.160883904,-1.069978551,1.147463147,-1.702529093,-1.682974164,0.104784489,0,0.160883904,-1.069978551,1.147463147,-1.702529093,-1.682974164,0.104784489,0,0.033,-0.4006,-0.0084,0.02822,0.01385,0.0001
2025-09-12T21:19:56.977430,0.160907745,-1.067138986,1.146032635,-1.702591558,-1.682688061,0.104067326,0,0.160907745,-1.067138986,1.146032635,-1.702591558,-1.682688061,0.104067326,0,0.113,-0.1206,-0.0284,0.01222,0.01485,0.0001
2025-09-12T21:19:57.025449,0.160907745,-1.064262704,1.144363705,-1.702956339,-1.682400052,0.103567123,0,0.160907745,-1.064262704,1.144363705,-1.702956339,-1.682400052,0.103567123,0,0.073,-0.3806,-0.0084,0.02122,0.00185,0.0001
2025-09-12T21:19:57.057547,0.160920143,-1.061540918,1.142490689,-1.703595778,-1.681969468,0.103160381,0,0.160920143,-1.061540918,1.142490689,-1.703595778,-1.681969468,0.103160381,0,0.053,-0.4006,-0.1684,0.03022,0.00385,0.0001
2025-09-12T21:19:57.089522,0.160943985,-1.059382276,1.140833203,-1.704490801,-1.681648556,0.102838039,0,0.160943985,-1.059382276,1.140833203,-1.704490801,-1.681648556,0.102838039,0,0.173,-0.3806,0.0916,0.02322,0.01685,0.0001
2025-09-12T21:19:57.121529,0.160992146,-1.057190732,1.13876373,-1.705538889,-1.681508366,0.102673054,0,0.160992146,-1.057190732,1.13876373,-1.705538889,-1.681508366,0.102673054,0,0.013,-0.2406,0.0716,0.02122,0.00385,0.0001
2025-09-12T21:19:57.153625,0.160992622,-1.05518897,1.136217419,-1.706282755,-1.681364838,0.102553844,0,0.160992622,-1.05518897,1.136217419,-1.706282755,-1.681364838,0.102553844,0,-0.007,-0.3206,0.0516,0.00922,0.00985,0.0011
2025-09-12T21:19:57.185557,0.161039352,-1.053285913,1.133240048,-1.707256456,-1.681281869,0.102506161,0,0.161039352,-1.053285913,1.133240048,-1.707256456,-1.681281869,0.102506161,0,0.213,-0.5006,0.2516,0.02722,0.03085,0.0011
2025-09-12T21:19:57.217554,0.161026478,-1.051546888,1.13000137,-1.708423754,-1.681307618,0.102458954,0,0.161026478,-1.051546888,1.13000137,-1.708423754,-1.681307618,0.102458954,0,0.173,-0.0606,-0.1284,-0.00078,0.02285,0.0031
2025-09-12T21:19:57.249591,0.160893917,-1.049659566,1.126015011,-1.709430834,-1.681452576,0.102471352,0,0.160893917,-1.049659566,1.126015011,-1.709430834,-1.681452576,0.102471352,0,0.113,-0.5206,-0.1684,0.02622,0.01285,0.0001
2025-09-12T21:19:57.281681,0.160871506,-1.047688321,1.122465436,-1.709958693,-1.681608502,0.10264492,0,0.160871506,-1.047688321,1.122465436,-1.709958693,-1.681608502,0.10264492,0,-0.047,-0.3206,0.0916,0.01922,-0.00215,0.0021
2025-09-12T21:19:57.313585,0.160857201,-1.045396642,1.118086163,-1.710619589,-1.681727711,0.103041172,0,0.160857201,-1.045396642,1.118086163,-1.710619589,-1.681727711,0.103041172,0,0.153,-0.5406,-0.1084,0.03522,0.02085,0.0011
2025-09-12T21:19:57.345640,0.160666943,-1.042906598,1.11343414,-1.711435457,-1.681930844,0.10355854,0,0.160666943,-1.042906598,1.11343414,-1.711435457,-1.681930844,0.10355854,0,-0.087,-0.2206,-0.4084,0.00722,0.00285,0.0031
2025-09-12T21:19:57.393682,0.160656452,-1.039877729,1.108791176,-1.711860796,-1.682085339,0.104219437,0,0.160656452,-1.039877729,1.108791176,-1.711860796,-1.682085339,0.104219437,0,0.293,-0.5806,-0.0084,0.04522,0.01385,0.0021
2025-09-12T21:19:57.425721,0.160656452,-1.036106901,1.102869813,-1.712315222,-1.682263676,0.10506773,0,0.160656452,-1.036106901,1.102869813,-1.712315222,-1.682263676,0.10506773,0,-0.067,-0.3006,-0.2484,0.00822,0.00685,0.0041
2025-09-12T21:19:57.457733,0.16063261,-1.032889203,1.097992722,-1.712470194,-1.682250325,0.105578899,0,0.16063261,-1.032889203,1.097992722,-1.712470194,-1.682250325,0.105578899,0,0.273,-0.4006,-0.2084,0.02122,0.01885,0.0001
2025-09-12T21:19:57.489730,0.160680294,-1.029489831,1.093106095,-1.712638041,-1.68215305,0.105877876,0,0.160680294,-1.029489831,1.093106095,-1.712638041,-1.68215305,0.105877876,0,0.173,-0.3006,-0.3284,0.01022,0.02785,0.0011
2025-09-12T21:19:57.521763,0.160620689,-1.02592595,1.088370148,-1.712780615,-1.682164017,0.1061759,0,0.160620689,-1.02592595,1.088370148,-1.712780615,-1.682164017,0.1061759,0,-0.087,-0.4806,-0.3884,0.03022,-0.00015,0.0001
2025-09-12T21:19:57.553772,0.160680771,-1.022254781,1.084063355,-1.712887903,-1.681973759,0.106379032,0,0.160680771,-1.022254781,1.084063355,-1.712887903,-1.681973759,0.106379032,0,0.233,-0.6206,-0.1884,0.03922,0.00985,0.0001
2025-09-12T21:19:57.585848,0.160656452,-1.018744783,1.080065552,-1.712996145,-1.68185455,0.106617928,0,0.160656452,-1.018744783,1.080065552,-1.712996145,-1.68185455,0.106617928,0,-0.107,-0.3406,-0.0284,0.03022,-0.00115,0.0011
2025-09-12T21:19:57.617900,0.160704613,-1.015533285,1.076422516,-1.713151117,-1.68177015,0.106615543,0,0.160704613,-1.015533285,1.076422516,-1.713151117,-1.68177015,0.106615543,0,0.033,-0.4006,-0.1884,0.02422,0.02485,0.0011
2025-09-12T21:19:57.649862,0.160752773,-1.012428121,1.073057,-1.713200232,-1.681663338,0.106563091,0,0.160752773,-1.012428121,1.073057,-1.713200232,-1.681663338,0.106563091,0,0.033,-0.4006,-0.2084,0.02522,0.01485,0.0011
2025-09-12T21:19:57.681822,0.160812855,-1.009527997,1.069933716,-1.713258406,-1.681579892,0.106237888,0,0.160812855,-1.009527997,1.069933716,-1.713258406,-1.681579892,0.106237888,0,0.093,-0.6206,0.0116,0.04022,0.01385,0.0011
2025-09-12T21:19:57.713836,0.160824776,-1.006709413,1.066620652,-1.71323361,-1.681569401,0.105805874,0,0.160824776,-1.006709413,1.066620652,-1.71323361,-1.681569401,0.105805874,0,-0.067,-0.3806,-0.1484,0.02622,0.00485,0.0011
2025-09-12T21:19:57.745853,0.160896301,-1.004034833,1.063267533,-1.713159224,-1.681534592,0.105264664,0,0.160896301,-1.004034833,1.063267533,-1.713159224,-1.681534592,0.105264664,0,0.073,-0.3806,-0.0684,0.03022,0.01385,0.0001
2025-09-12T21:19:57.793897,0.160932064,-1.001457052,1.05980951,-1.712979456,-1.681690995,0.104665279,0,0.160932064,-1.001457052,1.05980951,-1.712979456,-1.681690995,0.104665279,0,0.053,-0.6606,-0.1084,0.04322,0.00985,0.0001
2025-09-12T21:19:57.825939,0.161028862,-0.998410539,1.055514161,-1.712834021,-1.681858365,0.103972435,0,0.161028862,-0.998410539,1.055514161,-1.712834021,-1.681858365,0.103972435,0,-0.027,-0.4006,-0.1884,0.01522,0.00085,0.0011
2025-09-12T21:19:57.857924,0.161015511,-0.99603589,1.052357499,-1.712508818,-1.681989972,0.103531361,0,0.161015511,-0.99603589,1.052357499,-1.712508818,-1.681989972,0.103531361,0,0.153,-0.4806,-0.0284,0.02922,0.01885,0.0001
2025-09-12T21:19:57.889976,0.16100359,-0.99368556,1.04928476,-1.71216025,-1.682156865,0.103208542,0,0.16100359,-0.99368556,1.04928476,-1.71216025,-1.682156865,0.103208542,0,-0.027,-0.4606,-0.1084,0.03022,0.00885,0.0001
2025-09-12T21:19:57.921980,0.161027431,-0.991466836,1.046202485,-1.711702963,-1.682215993,0.102885246,0,0.161027431,-0.991466836,1.046202485,-1.711702963,-1.682215993,0.102885246,0,0.133,-0.3006,-0.3084,0.02722,0.01485,0.0001
2025-09-12T21:19:57.954025,0.161026955,-0.989298181,1.043492142,-1.711138865,-1.682359044,0.102562904,0,0.161026955,-0.989298181,1.043492142,-1.711138865,-1.682359044,0.102562904,0,-0.087,-0.5206,0.0516,0.03422,0.00585,0.0001
2025-09-12T21:19:57.986129,0.161039352,-0.987332181,1.041038338,-1.710710188,-1.682454411,0.102299213,0,0.161039352,-0.987332181,1.041038338,-1.710710188,-1.682454411,0.102299213,0,0.033,-0.4206,-0.3484,0.03022,0.01285,0.0021
2025-09-12T21:19:58.018081,0.161039352,-0.985293226,1.038773362,-1.71035256,-1.682490174,0.101926327,0,0.161039352,-0.985293226,1.038773362,-1.71035256,-1.682490174,0.101926327,0,-0.007,-0.4206,-0.0084,0.02522,0.00585,0.0011
2025-09-12T21:19:58.050092,0.161039352,-0.983568982,1.036783997,-1.710198065,-1.682561223,0.101555824,0,0.161039352,-0.983568982,1.036783997,-1.710198065,-1.682561223,0.101555824,0,0.073,-0.4406,-0.1084,0.03022,0.01285,0.0011
2025-09-12T21:19:58.082107,0.161039352,-0.981679754,1.034677331,-1.709909102,-1.682585065,0.10119772,0,0.161039352,-0.981679754,1.034677331,-1.709909102,-1.682585065,0.10119772,0,-0.047,-0.5606,-0.2884,0.03322,0.00385,0.0001
2025-09-12T21:19:58.114084,0.161051273,-0.97934802,1.032065217,-1.709584375,-1.682680432,0.100934505,0,0.161051273,-0.97934802,1.032065217,-1.709584375,-1.682680432,0.100934505,0,-0.047,-0.7406,0.1916,0.04122,0.01285,-0.0009
2025-09-12T21:19:58.146087,0.161039352,-0.977103547,1.029223267,-1.709260126,-1.682644669,0.100683212,0,0.161039352,-0.977103547,1.029223267,-1.709260126,-1.682644669,0.100683212,0,-0.007,-0.6806,0.0516,0.04922,0.00885,0.0021
2025-09-12T21:19:58.194150,0.161039352,-0.974568681,1.025350396,-1.708887239,-1.682656113,0.100528717,0,0.161039352,-0.974568681,1.025350396,-1.708887239,-1.682656113,0.100528717,0,0.013,-0.3606,-0.3484,0.02422,0.01085,0.0021
2025-09-12T21:19:58.226171,0.161075115,-0.971347646,1.020823304,-1.708070894,-1.68273956,0.100300312,0,0.161075115,-0.971347646,1.020823304,-1.708070894,-1.68273956,0.100300312,0,0.133,-0.6206,0.0316,0.04522,0.01685,0.0011
2025-09-12T21:19:58.258174,0.161075115,-0.969027357,1.017153565,-1.707617422,-1.682751958,0.100095749,0,0.161075115,-0.969027357,1.017153565,-1.707617422,-1.682751958,0.100095749,0,0.033,-0.3806,-0.2084,0.02522,0.00785,0.0021
2025-09-12T21:19:58.290171,0.161063194,-0.966596441,1.013489548,-1.707234999,-1.68273956,0.099796295,0,0.161063194,-0.966596441,1.013489548,-1.707234999,-1.68273956,0.099796295,0,0.073,-0.5006,-0.1084,0.03422,0.01485,0.0031
2025-09-12T21:19:58.322215,0.161027431,-0.964228467,1.010156457,-1.707033773,-1.682775323,0.099509716,0,0.161027431,-0.964228467,1.010156457,-1.707033773,-1.682775323,0.099509716,0,-0.027,-0.4406,-0.1084,0.02722,0.01285,0.0031
2025-09-12T21:19:58.354259,0.161051273,-0.961894349,1.007033173,-1.706876894,-1.682715718,0.099342346,0,0.161051273,-0.961894349,1.007033173,-1.706876894,-1.682715718,0.099342346,0,0.093,-0.4006,-0.1684,0.02422,0.01785,0.0011
2025-09-12T21:19:58.386232,0.161051273,-0.959562139,1.004324738,-1.706599852,-1.682885472,0.099150658,0,0.161051273,-0.959562139,1.004324738,-1.706599852,-1.682885472,0.099150658,0,0.093,-0.4006,-0.1884,0.02922,0.01385,0.0011
2025-09-12T21:19:58.418258,0.161015034,-0.95724328,1.001786057,-1.706192633,-1.683040921,0.09892416,0,0.161015034,-0.95724328,1.001786057,-1.706192633,-1.683040921,0.09892416,0,0.013,-0.5406,0.0516,0.02922,0.00785,0.0011
2025-09-12T21:19:58.450343,0.161026955,-0.955257253,0.999480073,-1.705929419,-1.683219258,0.098792553,0,0.161026955,-0.955257253,0.999480073,-1.705929419,-1.683219258,0.098792553,0,0.153,-0.5206,-0.2684,0.02822,0.01085,0.0011
2025-09-12T21:19:58.482260,0.160965443,-0.953280286,0.997215096,-1.705604692,-1.683374707,0.098661423,0,0.160965443,-0.953280286,0.997215096,-1.705604692,-1.683374707,0.098661423,0,0.133,-0.6806,-0.2484,0.04622,0.00785,0.0011
2025-09-12T21:19:58.514296,0.160797119,-0.951132612,0.994744126,-1.705366274,-1.683517758,0.098518372,0,0.160797119,-0.951132612,0.994744126,-1.705366274,-1.683517758,0.098518372,0,-0.007,-0.7006,-0.2484,0.04422,0.00485,0.0011
2025-09-12T21:19:58.546350,0.160654068,-0.94864829,0.99207956,-1.705136438,-1.683660809,0.098470688,0,0.160654068,-0.94864829,0.99207956,-1.705136438,-1.683660809,0.098470688,0,-0.047,-0.4606,-0.2484,0.03222,0.00485,0.0021
2025-09-12T21:19:58.578333,0.160474777,-0.945653753,0.988898102,-1.704681536,-1.683756177,0.098423004,0,0.160474777,-0.945653753,0.988898102,-1.704681536,-1.683756177,0.098423004,0,0.113,-0.7206,0.1116,0.05322,0.01085,0.0031
2025-09-12T21:19:58.626397,0.160367012,-0.94272025,0.985207383,-1.70439448,-1.683875386,0.098339081,0,0.160367012,-0.94272025,0.985207383,-1.70439448,-1.683875386,0.098339081,0,-0.047,-0.4206,-0.3484,0.02522,0.00685,0.0041
2025-09-12T21:19:58.658397,0.160163403,-0.939334707,0.981232468,-1.703951498,-1.683982197,0.098279476,0,0.160163403,-0.939334707,0.981232468,-1.703951498,-1.683982197,0.098279476,0,0.093,-0.7406,0.0516,0.04922,0.00985,0.0021
2025-09-12T21:19:58.690406,0.160056114,-0.936604337,0.977905099,-1.703845163,-1.684066121,0.098291874,0,0.160056114,-0.936604337,0.977905099,-1.703845163,-1.684066121,0.098291874,0,0.053,-0.6406,-0.2484,0.03522,0.01185,0.0041
2025-09-12T21:19:58.722430,0.159912586,-0.933887796,0.974626366,-1.703690191,-1.684113328,0.098267555,0,0.159912586,-0.933887796,0.974626366,-1.703690191,-1.684113328,0.098267555,0,0.033,-0.3606,-0.0084,0.02722,0.01885,0.0031
2025-09-12T21:19:58.754438,0.159793377,-0.931134061,0.971438233,-1.703449865,-1.68414909,0.098219872,0,0.159793377,-0.931134061,0.971438233,-1.703449865,-1.68414909,0.098219872,0,0.033,-0.6806,-0.0084,0.04122,0.01685,0.0051
2025-09-12T21:19:58.786483,0.159722805,-0.928119974,0.967812363,-1.703318258,-1.684196297,0.098219872,0,0.159722805,-0.928119974,0.967812363,-1.703318258,-1.684196297,0.098219872,0,-0.007,-0.3406,-0.1884,0.02422,0.01285,0.0021
2025-09-12T21:19:58.818506,0.159747124,-0.925439672,0.964627091,-1.703222891,-1.684208218,0.098231792,0,0.159747124,-0.925439672,0.964627091,-1.703222891,-1.684208218,0.098231792,0,0.133,-0.7406,-0.0284,0.04422,0.01285,0.0031
2025-09-12T21:19:58.850504,0.159698963,-0.922830419,0.961345498,-1.703138491,-1.684220139,0.098207951,0,0.159698963,-0.922830419,0.961345498,-1.703138491,-1.684220139,0.098207951,0,0.073,-0.5406,-0.0084,0.03622,0.00485,0.0011
2025-09-12T21:19:58.882486,0.159687042,-0.920187787,0.957920853,-1.703029772,-1.68423206,0.098184109,0,0.159687042,-0.920187787,0.957920853,-1.703029772,-1.68423206,0.098184109,0,0.093,-0.5406,-0.0484,0.02922,0.00885,0.0031
2025-09-12T21:19:58.914494,0.159687042,-0.917563753,0.954445664,-1.702837606,-1.684255902,0.098207951,0,0.159687042,-0.917563753,0.954445664,-1.702837606,-1.684255902,0.098207951,0,-0.047,-0.5006,-0.2884,0.03022,0.01285,0.0021
2025-09-12T21:19:58.946644,0.159626961,-0.914994077,0.951258485,-1.702597757,-1.684255902,0.09815836,0,0.159626961,-0.914994077,0.951258485,-1.702597757,-1.684255902,0.09815836,0,0.073,-0.7206,0.2316,0.04522,0.01285,0.0031
2025-09-12T21:19:58.994568,0.159603119,-0.91283925,0.948332612,-1.702430864,-1.684291665,0.098037243,0,0.159603119,-0.91283925,0.948332612,-1.702430864,-1.684291665,0.098037243,0,0.053,-0.4406,-0.4484,0.02422,0.01085,0.0021
2025-09-12T21:19:59.026580,0.159555435,-0.909955339,0.944966141,-1.70216622,-1.684279744,0.097786427,0,0.159555435,-0.909955339,0.944966141,-1.70216622,-1.684279744,0.097786427,0,0.113,-0.6406,0.0316,0.03822,0.01085,0.0021
2025-09-12T21:19:59.058594,0.159555435,-0.907601194,0.942488496,-1.702023645,-1.684327428,0.09761858,0,0.159555435,-0.907601194,0.942488496,-1.702023645,-1.684327428,0.09761858,0,-0.007,-0.5206,-0.3084,0.02322,0.01885,0.0031
2025-09-12T21:19:59.090619,0.159543514,-0.905170755,0.940134827,-1.701879164,-1.684303586,0.09748745,0,0.159543514,-0.905170755,0.940134827,-1.701879164,-1.684303586,0.09748745,0,-0.007,-0.5406,-0.1684,0.03222,0.01085,0.0031
2025-09-12T21:19:59.122611,0.159555435,-0.902514295,0.93784887,-1.701833864,-1.684291188,0.097367764,0,0.159555435,-0.902514295,0.93784887,-1.701833864,-1.684291188,0.097367764,0,0.173,-0.6406,-0.0684,0.03322,0.01385,0.0041
2025-09-12T21:19:59.154655,0.159579754,-0.899932222,0.935835663,-1.701845785,-1.684291188,0.097188473,0,0.159579754,-0.899932222,0.935835663,-1.701845785,-1.684291188,0.097188473,0,0.093,-0.6006,-0.3484,0.03522,0.01185,0.0051
2025-09-12T21:19:59.186661,0.159567833,-0.897204236,0.934136216,-1.701871058,-1.684327428,0.09715271,0,0.159567833,-0.897204236,0.934136216,-1.701871058,-1.684327428,0.09715271,0,-0.047,-0.5006,-0.1084,0.03422,0.00985,0.0041
2025-09-12T21:19:59.218686,0.159531593,-0.89457591,0.932763878,-1.701919695,-1.684327428,0.097009182,0,0.159531593,-0.89457591,0.932763878,-1.701919695,-1.684327428,0.097009182,0,0.073,-0.5806,0.0516,0.03722,0.01185,0.0031
2025-09-12T21:19:59.250698,0.159507751,-0.892032461,0.931690041,-1.702098986,-1.684339348,0.096925259,0,0.159507751,-0.892032461,0.931690041,-1.702098986,-1.684339348,0.096925259,0,-0.007,-0.4006,-0.0884,0.03022,0.00885,0.0021
2025-09-12T21:19:59.282731,0.159531593,-0.88983901,0.930950944,-1.702195307,-1.684303586,0.096878052,0,0.159531593,-0.88983901,0.930950944,-1.702195307,-1.684303586,0.096878052,0,0.053,-0.6406,0.1916,0.04022,0.01685,0.0011
2025-09-12T21:19:59.314778,0.159495831,-0.88804038,0.930473153,-1.70231547,-1.684303586,0.096830368,0,0.159495831,-0.88804038,0.930473153,-1.70231547,-1.684303586,0.096830368,0,0.033,-0.4606,-0.2084,0.02822,0.01385,0.0011
2025-09-12T21:19:59.346770,0.159507751,-0.886333303,0.93029863,-1.702374121,-1.684351269,0.096794128,0,0.159507751,-0.886333303,0.93029863,-1.702374121,-1.684351269,0.096794128,0,0.033,-0.5006,-0.3684,0.03822,0.00285,0.0021
2025-09-12T21:19:59.394767,0.159508228,-0.884554223,0.930359666,-1.702422281,-1.684303586,0.096758842,0,0.159508228,-0.884554223,0.930359666,-1.702422281,-1.684303586,0.096758842,0,0.153,-0.5206,0.0516,0.03822,0.00785,0.0041
2025-09-12T21:19:59.426803,0.15953207,-0.882366495,0.93037111,-1.702530523,-1.684303586,0.096735001,0,0.15953207,-0.882366495,0.93037111,-1.702530523,-1.684303586,0.096735001,0,0.033,-0.3806,-0.3284,0.03122,0.00785,0.0031
2025-09-12T21:19:59.458850,0.15953207,-0.880355672,0.930383507,-1.702553888,-1.684303586,0.096674919,0,0.15953207,-0.880355672,0.930383507,-1.702553888,-1.684303586,0.096674919,0,0.033,-0.4806,-0.1084,0.03422,0.01585,0.0021
2025-09-12T21:19:59.490869,0.15948391,-0.878278093,0.930516068,-1.702601572,-1.684327428,0.096687317,0,0.15948391,-0.878278093,0.930516068,-1.702601572,-1.684327428,0.096687317,0,-0.027,-0.5606,0.1516,0.03522,0.01585,0.0011
2025-09-12T21:19:59.522855,0.159519672,-0.876443223,0.930563752,-1.702625891,-1.684339348,0.096675396,0,0.159519672,-0.876443223,0.930563752,-1.702625891,-1.684339348,0.096675396,0,0.073,-0.3006,-0.1884,0.03422,0.00985,0.0021
2025-09-12T21:19:59.554856,0.159508228,-0.874654607,0.930599991,-1.702649733,-1.684279744,0.096663475,0,0.159508228,-0.874654607,0.930599991,-1.702649733,-1.684279744,0.096663475,0,0.153,-0.4206,-0.1484,0.02922,0.00885,0.0031
2025-09-12T21:19:59.586884,0.159519672,-0.872961835,0.930758301,-1.702673098,-1.684327428,0.096687317,0,0.159519672,-0.872961835,0.930758301,-1.702673098,-1.684327428,0.096687317,0,-0.007,-0.4806,-0.0484,0.02922,0.01185,0.0021
2025-09-12T21:19:59.618887,0.159519672,-0.871354894,0.931120698,-1.702831408,-1.684315507,0.096663475,0,0.159519672,-0.871354894,0.931120698,-1.702831408,-1.684315507,0.096663475,0,0.053,-0.4206,-0.0484,0.02922,0.00885,0.0041
2025-09-12T21:19:59.650920,0.159508228,-0.869855718,0.931505982,-1.702951094,-1.684291188,0.096639156,0,0.159508228,-0.869855718,0.931505982,-1.702951094,-1.684291188,0.096639156,0,0.113,-0.3406,-0.0884,0.02522,0.01085,0.0031
2025-09-12T21:19:59.682923,0.159519672,-0.86850007,0.932046715,-1.70311894,-1.684303586,0.096675396,0,0.159519672,-0.86850007,0.932046715,-1.70311894,-1.684303586,0.096675396,0,0.073,-0.4606,0.0316,0.03122,0.01785,0.0031
2025-09-12T21:19:59.714989,0.159542561,-0.867517309,0.932538811,-1.703287264,-1.684327428,0.096663475,0,0.159542561,-0.867517309,0.932538811,-1.703287264,-1.684327428,0.096663475,0,0.073,-0.3806,-0.0084,0.02022,0.01685,0.0011
2025-09-12T21:19:59.746970,0.159409523,-0.866596059,0.933152024,-1.703394552,-1.684291188,0.096639156,0,0.159409523,-0.866596059,0.933152024,-1.703394552,-1.684291188,0.096639156,0,0.173,-0.4206,0.0316,0.02822,0.01485,0.0021
2025-09-12T21:19:59.778971,0.159181595,-0.865962819,0.933764283,-1.703599115,-1.684315507,0.096663475,0,0.159181595,-0.865962819,0.933764283,-1.703599115,-1.684315507,0.096663475,0,-0.027,-0.3806,0.1316,0.02422,0.01585,0.0021
2025-09-12T21:19:59.827040,0.158965111,-0.865508394,0.934387032,-1.703765532,-1.684327428,0.096651077,0,0.158965111,-0.865508394,0.934387032,-1.703765532,-1.684327428,0.096651077,0,0.213,-0.3406,-0.1084,0.02722,0.01985,0.0021
2025-09-12T21:19:59.859008,0.158593178,-0.865076856,0.934998337,-1.703849455,-1.684303586,0.096651077,0,0.158593178,-0.865076856,0.934998337,-1.703849455,-1.684303586,0.096651077,0,0.133,-0.4006,-0.0884,0.02822,0.00885,0.0011
2025-09-12T21:19:59.891008,0.158195972,-0.864751653,0.935415093,-1.703944822,-1.684327428,0.096651554,0,0.158195972,-0.864751653,0.935415093,-1.703944822,-1.684327428,0.096651554,0,0.033,-0.3806,-0.0084,0.02522,0.00885,0.0011
2025-09-12T21:19:59.923044,0.157666683,-0.864389257,0.935702149,-1.704064508,-1.684327428,0.096627712,0,0.157666683,-0.864389257,0.935702149,-1.704064508,-1.684327428,0.096627712,0,0.293,-0.3806,-0.2484,0.02622,0.02985,0.0021
2025-09-12T21:19:59.955042,0.156789303,-0.863772706,0.935990159,-1.704064032,-1.684303586,0.096639156,0,0.156789303,-0.863772706,0.935990159,-1.704064032,-1.684303586,0.096639156,0,0.093,-0.3006,-0.1684,0.02722,0.01785,0.0001
2025-09-12T21:19:59.987058,0.155832767,-0.862953977,0.936253373,-1.70408835,-1.684327428,0.096615314,0,0.155832767,-0.862953977,0.936253373,-1.70408835,-1.684327428,0.096615314,0,0.033,-0.2606,-0.1684,0.02222,0.00985,0.0011
2025-09-12T21:20:00.019102,0.154806137,-0.861871557,0.936419312,-1.704159876,-1.684303586,0.096627712,0,0.154806137,-0.861871557,0.936419312,-1.704159876,-1.684303586,0.096627712,0,-0.047,-0.3006,0.0516,0.02022,0.00285,0.0021
2025-09-12T21:20:00.051148,0.154018402,-0.860862092,0.93647844,-1.704210421,-1.684339348,0.096603394,0,0.154018402,-0.860862092,0.93647844,-1.704210421,-1.684339348,0.096603394,0,0.033,-0.4006,0.0316,0.02622,0.01185,0.0001
2025-09-12T21:20:00.083127,0.153456688,-0.860006647,0.936466996,-1.704452654,-1.684401814,0.096651554,0,0.153456688,-0.860006647,0.936466996,-1.704452654,-1.684401814,0.096651554,0,0.053,-0.4406,-0.2084,0.02622,0.01185,0.0001
2025-09-12T21:20:00.115151,0.152823925,-0.858801679,0.936550919,-1.704788824,-1.684582059,0.096639156,0,0.152823925,-0.858801679,0.936550919,-1.704788824,-1.684582059,0.096639156,0,0.093,-0.4006,-0.1084,0.02022,0.01485,0.0011
2025-09-12T21:20:00.147228,0.152250767,-0.857271985,0.93652517,-1.705222269,-1.68489391,0.096639156,0,0.152250767,-0.857271985,0.93652517,-1.705222269,-1.68489391,0.096639156,0,0.133,-0.3206,-0.1684,0.02122,0.01485,0.0011
2025-09-12T21:20:00.195154,0.151797295,-0.855626897,0.936536614,-1.705774447,-1.685411278,0.096712112,0,0.151797295,-0.855626897,0.936536614,-1.705774447,-1.685411278,0.096712112,0,0.033,-0.2406,0.0516,0.02122,0.00785,0.0001
2025-09-12T21:20:00.227190,0.15135622,-0.854008512,0.936500374,-1.706459185,-1.686153714,0.096712112,0,0.15135622,-0.854008512,0.936500374,-1.706459185,-1.686153714,0.096712112,0,0.053,-0.3006,0.0316,0.02422,0.00885,0.0021
2025-09-12T21:20:00.259187,0.151044369,-0.85297902,0.936440293,-1.707130571,-1.68686897,0.096846104,0,0.151044369,-0.85297902,0.936440293,-1.707130571,-1.68686897,0.096846104,0,0.213,-0.3606,-0.0884,0.02322,0.02285,0.0011
2025-09-12T21:20:00.291223,0.150697231,-0.851956205,0.93635637,-1.707874914,-1.687648598,0.096989632,0,0.150697231,-0.851956205,0.93635637,-1.707874914,-1.687648598,0.096989632,0,0.053,-0.2006,-0.1284,0.01622,0.01585,0.0021
2025-09-12T21:20:00.323271,0.150351524,-0.850899057,0.936345879,-1.708482405,-1.688605611,0.097157478,0,0.150351524,-0.850899057,0.936345879,-1.708482405,-1.688605611,0.097157478,0,0.033,-0.2606,-0.0484,0.02122,0.01185,0.0011
2025-09-12T21:20:00.355280,0.150136948,-0.849781827,0.936394517,-1.708792349,-1.689522568,0.097336769,0,0.150136948,-0.849781827,0.936394517,-1.708792349,-1.689522568,0.097336769,0,0.073,-0.2606,-0.1684,0.02122,0.01085,0.0021
2025-09-12T21:20:00.387296,0.149725437,-0.848649816,0.936576668,-1.709188124,-1.690414731,0.097517014,0,0.149725437,-0.848649816,0.936576668,-1.709188124,-1.690414731,0.097517014,0,0.153,-0.3406,0.0116,0.02522,0.02385,0.0021
2025-09-12T21:20:00.419292,0.149158478,-0.847768621,0.936865632,-1.709571978,-1.691071335,0.097635746,0,0.149158478,-0.847768621,0.936865632,-1.709571978,-1.691071335,0.097635746,0,0.353,-0.4006,0.0316,0.02322,0.02785,0.0021
2025-09-12T21:20:00.451313,0.148064613,-0.847041444,0.937142197,-1.709920069,-1.691752736,0.097732544,0,0.148064613,-0.847041444,0.937142197,-1.709920069,-1.691752736,0.097732544,0,0.433,-0.3206,-0.1484,0.02222,0.03085,0.0021
2025-09-12T21:20:00.483308,0.146526814,-0.846193151,0.937416855,-1.710400721,-1.692601506,0.098036289,0,0.146526814,-0.846193151,0.937416855,-1.710400721,-1.692601506,0.098036289,0,0.373,-0.4206,-0.0084,0.02322,0.03085,0.0031
2025-09-12T21:20:00.515342,0.144825935,-0.845429258,0.937619988,-1.710978647,-1.693387334,0.098541737,0,0.144825935,-0.845429258,0.937619988,-1.710978647,-1.693387334,0.098541737,0,0.093,-0.2806,-0.0084,0.01722,0.00985,0.0021
2025-09-12T21:20:00.547362,0.143069267,-0.844689683,0.937799279,-1.711574694,-1.694029633,0.099276543,0,0.143069267,-0.844689683,0.937799279,-1.711574694,-1.694029633,0.099276543,0,-0.047,-0.1606,-0.1484,0.00922,0.00585,0.0011
2025-09-12T21:20:00.595357,0.141432762,-0.843925313,0.937956635,-1.711920401,-1.694542233,0.100345135,0,0.141432762,-0.843925313,0.937956635,-1.711920401,-1.694542233,0.100345135,0,0.233,-0.3006,-0.1284,0.02122,0.02185,0.0001
2025-09-12T21:20:00.627410,0.139685154,-0.84311326,0.938294236,-1.712229868,-1.695018117,0.101845741,0,0.139685154,-0.84311326,0.938294236,-1.712229868,-1.695018117,0.101845741,0,0.093,-0.2406,-0.1684,0.01822,0.01285,0.0031
2025-09-12T21:20:00.659452,0.138129234,-0.842431859,0.938618485,-1.712397715,-1.695315663,0.10299015,0,0.138129234,-0.842431859,0.938618485,-1.712397715,-1.695315663,0.10299015,0,0.273,-0.2806,-0.0884,0.01722,0.02285,0.0011
2025-09-12T21:20:00.691447,0.136501312,-0.841704683,0.939015214,-1.712601801,-1.695600812,0.104109764,0,0.136501312,-0.841704683,0.939015214,-1.712601801,-1.695600812,0.104109764,0,0.153,-0.2206,-0.0884,0.01722,0.01885,0.0001
2025-09-12T21:20:00.723536,0.134947777,-0.841048078,0.939472024,-1.712709089,-1.6957925,0.105680943,0,0.134947777,-0.841048078,0.939472024,-1.712709089,-1.6957925,0.105680943,0,-0.027,-0.2406,0.0916,0.01122,0.00985,0.0031
2025-09-12T21:20:00.755521,0.13354063,-0.840343789,0.94000322,-1.712865015,-1.696066682,0.107173443,0,0.13354063,-0.840343789,0.94000322,-1.712865015,-1.696066682,0.107173443,0,0.033,-0.1006,-0.2084,0.01022,0.01185,0.0001
2025-09-12T21:20:00.787480,0.132369995,-0.839685754,0.940832917,-1.713007589,-1.696245019,0.108357906,0,0.132369995,-0.839685754,0.940832917,-1.713007589,-1.696245019,0.108357906,0,0.153,-0.2006,-0.0484,0.01522,0.01585,0.0001
2025-09-12T21:20:00.819497,0.131283283,-0.838946657,0.941757981,-1.713091513,-1.696544949,0.109455585,0,0.131283283,-0.838946657,0.941757981,-1.713091513,-1.696544949,0.109455585,0,0.113,-0.2206,-0.0084,0.01722,0.01285,0.0001
2025-09-12T21:20:00.851634,0.130279064,-0.838352041,0.942692582,-1.713187357,-1.69677097,0.110425472,0,0.130279064,-0.838352041,0.942692582,-1.713187357,-1.69677097,0.110425472,0,0.133,-0.2606,0.0316,0.01822,0.01485,0.0001
2025-09-12T21:20:00.883629,0.129349232,-0.837827997,0.943457429,-1.71327128,-1.697020833,0.111544609,0,0.129349232,-0.837827997,0.943457429,-1.71327128,-1.697020833,0.111544609,0,-0.007,-0.0806,0.1116,0.00922,0.00785,0.0001
2025-09-12T21:20:00.931582,0.128693581,-0.837435083,0.944116418,-1.713329931,-1.697199647,0.112811089,0,0.128693581,-0.837435083,0.944116418,-1.713329931,-1.697199647,0.112811089,0,0.133,-0.2406,0.0316,0.01322,0.01685,0.0001
2025-09-12T21:20:00.963565,0.12808466,-0.837089853,0.944763962,-1.713306089,-1.697318856,0.113946915,0,0.12808466,-0.837089853,0.944763962,-1.713306089,-1.697318856,0.113946915,0,0.133,-0.2606,-0.0084,0.01422,0.01885,0.0001
2025-09-12T21:20:00.995650,0.127533436,-0.836791353,0.945305649,-1.713390013,-1.69749767,0.114908695,0,0.127533436,-0.836791353,0.945305649,-1.713390013,-1.69749767,0.114908695,0,0.233,-0.1806,-0.2284,0.01522,0.02385,-0.0009
2025-09-12T21:20:01.027598,0.126933575,-0.836650209,0.946198289,-1.713390013,-1.697604958,0.116158962,0,0.126933575,-0.836650209,0.946198289,-1.713390013,-1.697604958,0.116158962,0,0.253,-0.1206,-0.1484,0.01322,0.02485,0.0001
2025-09-12T21:20:01.059597,0.12620306,-0.836519079,0.9473303,-1.713401934,-1.697723691,0.117598057,0,0.12620306,-0.836519079,0.9473303,-1.713401934,-1.697723691,0.117598057,0,0.073,-0.1806,-0.1284,0.00622,0.01485,0.0001
2025-09-12T21:20:01.091639,0.125475407,-0.836436109,0.948710267,-1.713401934,-1.697746579,0.119719028,0,0.125475407,-0.836436109,0.948710267,-1.713401934,-1.697746579,0.119719028,0,0.173,-0.2206,-0.1284,0.01522,0.01585,0.0001
2025-09-12T21:20:01.123655,0.124854088,-0.836376504,0.950079743,-1.713390013,-1.697734181,0.122014523,0,0.124854088,-0.836376504,0.950079743,-1.713390013,-1.697734181,0.122014523,0,0.093,-0.2006,-0.0084,0.00222,0.01785,0.0001
2025-09-12T21:20:01.155653,0.124425888,-0.836317376,0.951496903,-1.713437696,-1.697733704,0.123825073,0,0.124425888,-0.836317376,0.951496903,-1.713437696,-1.697733704,0.123825073,0,0.053,-0.1006,-0.1284,0.00722,0.01185,0.0001
2025-09-12T21:20:01.187710,0.124104977,-0.836305456,0.95300657,-1.713449617,-1.697577302,0.125351429,0,0.124104977,-0.836305456,0.95300657,-1.713449617,-1.697577302,0.125351429,0,0.053,-0.2006,0.0116,0.01722,0.01985,-0.0009
2025-09-12T21:20:01.219773,0.1238904,-0.836257295,0.954335038,-1.713437696,-1.697505299,0.127119064,0,0.1238904,-0.836257295,0.954335038,-1.713437696,-1.697505299,0.127119064,0,0.173,-0.2006,0.0516,0.00922,0.01685,-0.0009
2025-09-12T21:20:01.267794,0.123699665,-0.836174325,0.955434624,-1.713462969,-1.69734985,0.128418922,0,0.123699665,-0.836174325,0.955434624,-1.713462969,-1.69734985,0.128418922,0,0.093,-0.2406,-0.0084,0.01022,0.01885,-0.0009
2025-09-12T21:20:01.299742,0.12354517,-0.836126165,0.956412141,-1.713680407,-1.697193925,0.129769325,0,0.12354517,-0.836126165,0.956412141,-1.713680407,-1.697193925,0.129769325,0,0.273,-0.2206,0.0116,0.01022,0.01985,-0.0009
2025-09-12T21:20:01.331813,0.123473167,-0.836126642,0.956866089,-1.713776251,-1.697001759,0.130424976,0,0.123473167,-0.836126642,0.956866089,-1.713776251,-1.697001759,0.130424976,0,0.113,-0.1806,-0.0484,0.01022,0.01585,-0.0009
2025-09-12T21:20:01.363856,0.123365402,-0.8361028,0.957257096,-1.713944098,-1.696629826,0.131046772,0,0.123365402,-0.8361028,0.957257096,-1.713944098,-1.696629826,0.131046772,0,0.113,-0.1806,0.0516,0.00822,0.02285,0.0001
2025-09-12T21:20:01.395869,0.123233795,-0.836055116,0.957386796,-1.714124342,-1.696198765,0.131804466,0,0.123233795,-0.836055116,0.957386796,-1.714124342,-1.696198765,0.131804466,0,0.113,-0.2006,0.0116,0.00622,0.01885,-0.0019
2025-09-12T21:20:01.427810,0.123138428,-0.836078958,0.957373444,-1.714522978,-1.695781056,0.132556915,0,0.123138428,-0.836078958,0.957373444,-1.714522978,-1.695781056,0.132556915,0,0.093,-0.1406,-0.1484,0.00822,0.02085,-0.0019
2025-09-12T21:20:01.459840,0.123030663,-0.835883932,0.957300965,-1.714944025,-1.695352856,0.13313961,0,0.123030663,-0.835883932,0.957300965,-1.714944025,-1.695352856,0.13313961,0,0.113,-0.1406,-0.2284,0.00722,0.02085,-0.0029
2025-09-12T21:20:01.491838,0.122911453,-0.835475759,0.957348649,-1.715732237,-1.695031468,0.133556843,0,0.122911453,-0.835475759,0.957348649,-1.715732237,-1.695031468,0.133556843,0,0.173,-0.1606,-0.0084,0.01322,0.01485,-0.0019
2025-09-12T21:20:01.523861,0.122839928,-0.834986524,0.957313363,-1.717050692,-1.694770638,0.133782864,0,0.122839928,-0.834986524,0.957313363,-1.717050692,-1.694770638,0.133782864,0,0.093,-0.2806,0.0516,0.02222,0.01785,-0.0009
2025-09-12T21:20:01.555886,0.122816563,-0.834617452,0.957337205,-1.719844957,-1.69466335,0.134058475,0,0.122816563,-0.834617452,0.957337205,-1.719844957,-1.69466335,0.134058475,0,0.213,0.1794,-0.0284,-0.01478,0.02385,-0.0009
2025-09-12T21:20:01.587879,0.12282896,-0.834392385,0.957508866,-1.723364492,-1.694435422,0.134261131,0,0.12282896,-0.834392385,0.957508866,-1.723364492,-1.694435422,0.134261131,0,0.513,-0.0406,-0.2284,0.00022,0.03985,0.0001
2025-09-12T21:20:01.619957,0.122817039,-0.834165887,0.957697694,-1.726938387,-1.694305722,0.134416103,0,0.122817039,-0.834165887,0.957697694,-1.726938387,-1.694305722,0.134416103,0,0.213,-0.0606,-0.0684,0.00422,0.02485,-0.0039
2025-09-12T21:20:01.651928,0.122781277,-0.833963231,0.957695786,-1.730888983,-1.694138829,0.134535789,0,0.122781277,-0.833963231,0.957695786,-1.730888983,-1.694138829,0.134535789,0,0.073,0.0394,-0.0084,-0.00878,0.02585,-0.0029
2025-09-12T21:20:01.683926,0.1227808,-0.83382018,0.957600419,-1.734373232,-1.694017712,0.134703159,0,0.1227808,-0.83382018,0.957600419,-1.734373232,-1.694017712,0.134703159,0,0.253,-0.0806,-0.2084,0.00022,0.01985,-0.0029
2025-09-12T21:20:01.731961,0.122756958,-0.833724813,0.957550828,-1.737376352,-1.693741147,0.134726524,0,0.122756958,-0.833724813,0.957550828,-1.737376352,-1.693741147,0.134726524,0,0.333,-0.0006,-0.2684,-0.00378,0.02485,-0.0029
2025-09-12T21:20:01.763996,0.1227808,-0.833581285,0.957417313,-1.740300795,-1.693322484,0.134798527,0,0.1227808,-0.833581285,0.957417313,-1.740300795,-1.693322484,0.134798527,0,0.353,-0.0606,-0.2884,0.01022,0.03285,-0.0039
2025-09-12T21:20:01.796028,0.122733116,-0.833414869,0.957154099,-1.742131849,-1.692880456,0.134760857,0,0.122733116,-0.833414869,0.957154099,-1.742131849,-1.692880456,0.134760857,0,0.013,-0.5806,-0.0284,0.04722,-0.00615,-0.0029
2025-09-12T21:20:01.828026,0.122733116,-0.833330945,0.957060639,-1.743964811,-1.692402665,0.134711266,0,0.122733116,-0.833330945,0.957060639,-1.743964811,-1.692402665,0.134711266,0,-0.147,-0.1006,-0.1884,0.00522,-0.01015,-0.0019
2025-09-12T21:20:01.860068,0.122733116,-0.833113508,0.957012955,-1.745103975,-1.691790883,0.1345191,0,0.122733116,-0.833113508,0.957012955,-1.745103975,-1.691790883,0.1345191,0,0.233,-0.5406,-0.2884,0.04022,0.01985,-0.0019
2025-09-12T21:20:01.892084,0.122721195,-0.832801656,0.957026307,-1.746538778,-1.691134278,0.134363651,0,0.122721195,-0.832801656,0.957026307,-1.746538778,-1.691134278,0.134363651,0,0.133,-0.0006,-0.1884,0.00422,0.02185,-0.0009
2025-09-12T21:20:01.924107,0.122709274,-0.832431154,0.957037751,-1.747264048,-1.690391843,0.134195805,0,0.122709274,-0.832431154,0.957037751,-1.747264048,-1.690391843,0.134195805,0,0.093,-0.2606,-0.3284,0.01722,0.01085,-0.0029
2025-09-12T21:20:01.956091,0.122733116,-0.831940488,0.957037751,-1.747813364,-1.689469163,0.134052277,0,0.122733116,-0.831940488,0.957037751,-1.747813364,-1.689469163,0.134052277,0,0.073,-0.4406,-0.0884,0.03022,0.01185,-0.0009
2025-09-12T21:20:01.988204,0.122709274,-0.831522779,0.957001511,-1.748461386,-1.688432995,0.133944988,0,0.122709274,-0.831522779,0.957001511,-1.748461386,-1.688432995,0.133944988,0,0.053,-0.3206,-0.2084,0.02322,0.00485,-0.0019
2025-09-12T21:20:02.020183,0.122721195,-0.831057863,0.956990067,-1.748999258,-1.687647168,0.133862495,0,0.122721195,-0.831057863,0.956990067,-1.748999258,-1.687647168,0.133862495,0,-0.007,-0.3006,-0.1684,0.02622,0.00585,-0.0029
2025-09-12T21:20:02.052147,0.122733116,-0.830616788,0.957014863,-1.749319216,-1.687041108,0.133815289,0,0.122733116,-0.830616788,0.957014863,-1.749319216,-1.687041108,0.133815289,0,0.133,-0.3006,-0.0884,0.02322,0.01485,-0.0029
2025-09-12T21:20:02.084160,0.122721195,-0.830427961,0.957075898,-1.749498507,-1.686565701,0.133850574,0,0.122721195,-0.830427961,0.957075898,-1.749498507,-1.686565701,0.133850574,0,0.053,-0.3406,-0.1684,0.02122,0.00885,-0.0009
2025-09-12T21:20:02.132215,0.122697353,-0.830188112,0.957182709,-1.7496654,-1.686135594,0.133814812,0,0.122697353,-0.830188112,0.957182709,-1.7496654,-1.686135594,0.133814812,0,0.033,-0.3406,-0.1684,0.02522,0.01485,-0.0019
2025-09-12T21:20:02.164210,0.122721195,-0.829817609,0.957230393,-1.749797007,-1.68577892,0.13386488,0,0.122721195,-0.829817609,0.957230393,-1.749797007,-1.68577892,0.13386488,0,0.113,-0.3206,-0.0884,0.02822,0.00685,-0.0019
2025-09-12T21:20:02.196269,0.122709274,-0.829578714,0.957217042,-1.749928614,-1.685481373,0.13387537,0,0.122709274,-0.829578714,0.957217042,-1.749928614,-1.685481373,0.13387537,0,0.053,-0.3006,-0.1684,0.02622,0.00185,-0.0019
2025-09-12T21:20:02.228298,0.122721195,-0.829181985,0.957253281,-1.749988218,-1.685290639,0.133985519,0,0.122721195,-0.829181985,0.957253281,-1.749988218,-1.685290639,0.133985519,0,-0.027,-0.3006,-0.2884,0.02422,0.01185,-0.0019
2025-09-12T21:20:02.260337,0.122709274,-0.828593568,0.957241837,-1.75001206,-1.685064618,0.13411665,0,0.122709274,-0.828593568,0.957241837,-1.75001206,-1.685064618,0.13411665,0,0.073,-0.3606,-0.1484,0.02322,0.00985,-0.0019
2025-09-12T21:20:02.292316,0.122709274,-0.827852563,0.957230393,-1.750072142,-1.684970204,0.134126663,0,0.122709274,-0.827852563,0.957230393,-1.750072142,-1.684970204,0.134126663,0,-0.027,-0.2606,-0.2284,0.01722,0.00685,-0.0009
2025-09-12T21:20:02.324340,0.122781754,-0.826991395,0.957266633,-1.750131269,-1.684826676,0.134102345,0,0.122781754,-0.826991395,0.957266633,-1.750131269,-1.684826676,0.134102345,0,-0.047,-0.3006,-0.1284,0.02422,0.01085,-0.0029
2025-09-12T21:20:02.356334,0.122830868,-0.826059179,0.957325761,-1.750178953,-1.684731785,0.134065628,0,0.122830868,-0.826059179,0.957325761,-1.750178953,-1.684731785,0.134065628,0,-0.027,-0.3006,-0.0084,0.02522,0.00585,-0.0009
2025-09-12T21:20:02.388330,0.122961521,-0.825225667,0.957325761,-1.750191351,-1.684612576,0.133993149,0,0.122961521,-0.825225667,0.957325761,-1.750191351,-1.684612576,0.133993149,0,0.093,-0.3006,0.0116,0.02722,0.01185,-0.0009
2025-09-12T21:20:02.420415,0.122961998,-0.82461913,0.957348649,-1.750250956,-1.684565369,0.133933544,0,0.122961998,-0.82461913,0.957348649,-1.750250956,-1.684565369,0.133933544,0,0.033,-0.2206,-0.0284,0.01922,0.00585,-0.0009
2025-09-12T21:20:02.452388,0.123082161,-0.824129896,0.957337205,-1.750226637,-1.684493367,0.13388586,0,0.123082161,-0.824129896,0.957337205,-1.750226637,-1.684493367,0.13388586,0,-0.007,-0.3206,-0.0484,0.01722,0.00585,-0.0019
2025-09-12T21:20:02.500384,0.123262882,-0.823605375,0.957337205,-1.750190874,-1.68440992,0.133729935,0,0.123262882,-0.823605375,0.957337205,-1.750190874,-1.68440992,0.133729935,0,0.033,-0.3606,-0.0084,0.02222,0.01885,-0.0019
2025-09-12T21:20:02.532503,0.12348938,-0.823080854,0.957313363,-1.750239035,-1.684410397,0.133694172,0,0.12348938,-0.823080854,0.957313363,-1.750239035,-1.684410397,0.133694172,0,0.113,-0.3406,-0.1084,0.01922,0.00985,-0.0019
2025-09-12T21:20:02.564442,0.123535156,-0.822735624,0.957337205,-1.750250956,-1.684398476,0.133670807,0,0.123535156,-0.822735624,0.957337205,-1.750250956,-1.684398476,0.133670807,0,0.133,-0.3606,-0.1484,0.02622,0.01985,-0.0039
2025-09-12T21:20:02.596520,0.123608112,-0.822328882,0.957313363,-1.750250956,-1.684375111,0.133586884,0,0.123608112,-0.822328882,0.957313363,-1.750250956,-1.684375111,0.133586884,0,-0.107,-0.3006,-0.0484,0.01322,-0.00015,-0.0019
2025-09-12T21:20:02.628516,0.123728752,-0.821848707,0.957337205,-1.750286718,-1.684374634,0.133575439,0,0.123728752,-0.821848707,0.957337205,-1.750286718,-1.684374634,0.133575439,0,0.053,-0.3806,-0.2284,0.02622,0.01885,-0.0029
2025-09-12T21:20:02.660485,0.123786926,-0.821115331,0.957264725,-1.750262877,-1.684326951,0.133575439,0,0.123786926,-0.821115331,0.957264725,-1.750262877,-1.684326951,0.133575439,0,0.033,-0.2406,-0.3084,0.01422,0.00885,-0.0019
2025-09-12T21:20:02.692510,0.123822212,-0.820074396,0.957277123,-1.750239035,-1.684339348,0.133527756,0,0.123822212,-0.820074396,0.957277123,-1.750239035,-1.684339348,0.133527756,0,-0.047,-0.2806,0.0516,0.02022,0.00385,-0.0019
2025-09-12T21:20:02.724560,0.123906612,-0.819072084,0.957107369,-1.750250956,-1.684206311,0.133503437,0,0.123906612,-0.819072084,0.957107369,-1.750250956,-1.684206311,0.133503437,0,0.153,-0.3206,-0.0084,0.02322,0.01785,-0.0019
2025-09-12T21:20:02.756561,0.123942375,-0.818140344,0.956940476,-1.750274797,-1.6841839,0.133480072,0,0.123942375,-0.818140344,0.956940476,-1.750274797,-1.6841839,0.133480072,0,0.013,-0.1206,-0.1684,0.01222,0.00885,-0.0009
2025-09-12T21:20:02.788560,0.123990059,-0.817138032,0.956820313,-1.750226637,-1.68414766,0.133491993,0,0.123990059,-0.817138032,0.956820313,-1.750226637,-1.68414766,0.133491993,0,0.113,-0.2406,-0.0084,0.01922,0.01585,0.0001
2025-09-12T21:20:02.820648,0.124013901,-0.816146211,0.956676308,-1.750250956,-1.684134785,0.133467674,0,0.124013901,-0.816146211,0.956676308,-1.750250956,-1.684134785,0.133467674,0,-0.047,-0.3206,-0.2084,0.01822,0.00585,-0.0019
2025-09-12T21:20:02.852618,0.124097347,-0.815081434,0.956446473,-1.750311991,-1.684040372,0.133480072,0,0.124097347,-0.815081434,0.956446473,-1.750311991,-1.684040372,0.133480072,0,0.053,-0.4206,-0.1684,0.03022,0.00385,-0.0009
2025-09-12T21:20:02.900644,0.124085903,-0.813763933,0.956047837,-1.750434538,-1.68402702,0.133443832,0,0.124085903,-0.813763933,0.956047837,-1.750434538,-1.68402702,0.133443832,0,0.153,-0.3006,-0.1284,0.02622,0.00485,-0.0009
2025-09-12T21:20:02.932703,0.124133587,-0.812129335,0.955313508,-1.750807901,-1.683883015,0.133467674,0,0.124133587,-0.812129335,0.955313508,-1.750807901,-1.683883015,0.133467674,0,0.073,-0.3406,-0.0484,0.02322,0.00485,-0.0019
2025-09-12T21:20:02.980668,0.124204636,-0.810217218,0.954279725,-1.752064367,-1.683692757,0.133480072,0,0.124204636,-0.810217218,0.954279725,-1.752064367,-1.683692757,0.133480072,0,-0.047,-0.5406,0.0116,0.04322,0.00385,-0.0019
2025-09-12T21:20:03.012693,0.124204636,-0.80887969,0.953537766,-1.754417559,-1.683501546,0.133467674,0,0.124204636,-0.80887969,0.953537766,-1.754417559,-1.683501546,0.133467674,0,0.033,-0.2206,-0.1684,0.00622,-0.00315,-0.0009
2025-09-12T21:20:03.044747,0.124180794,-0.807422475,0.952782456,-1.757518431,-1.683369939,0.133443832,0,0.124180794,-0.807422475,0.952782456,-1.757518431,-1.683369939,0.133443832,0,0.353,-0.1406,-0.3084,0.01722,0.02685,-0.0009
2025-09-12T21:20:03.076711,0.124228477,-0.8060015,0.952172105,-1.760708471,-1.683310811,0.133443832,0,0.124228477,-0.8060015,0.952172105,-1.760708471,-1.683310811,0.133443832,0,0.133,-0.6406,-0.0084,0.05022,0.00385,-0.0029
2025-09-12T21:20:03.108727,0.124192715,-0.804655389,0.951704804,-1.763747831,-1.683203999,0.133444309,0,0.124192715,-0.804655389,0.951704804,-1.763747831,-1.683203999,0.133444309,0,-0.327,-0.6806,0.1316,0.04822,-0.02115,-0.0029
2025-09-12T21:20:03.140748,0.124217033,-0.803511457,0.951202218,-1.766765734,-1.68308479,0.133419991,0,0.124217033,-0.803511457,0.951202218,-1.766765734,-1.68308479,0.133419991,0,-0.027,-0.7806,-0.1284,0.06322,-0.00915,-0.0009
2025-09-12T21:20:03.172820,0.124204636,-0.802534418,0.950758759,-1.769713541,-1.683012787,0.133444309,0,0.124204636,-0.802534418,0.950758759,-1.769713541,-1.683012787,0.133444309,0,-0.027,-0.1806,0.0116,0.01222,-0.00115,0.0001
2025-09-12T21:20:03.220873,0.124204636,-0.801283197,0.950135056,-1.774281164,-1.682977978,0.133480072,0,0.124204636,-0.801283197,0.950135056,-1.774281164,-1.682977978,0.133480072,0,-0.207,-0.6806,-0.0084,0.05722,-0.01515,-0.0009
2025-09-12T21:20:03.268899,0.124228477,-0.800234155,0.949583832,-1.77870812,-1.682918374,0.133444309,0,0.124228477,-0.800234155,0.949583832,-1.77870812,-1.682918374,0.133444309,0,0.273,-0.0206,-0.2284,0.00322,0.02585,0.0001
2025-09-12T21:20:03.316984,0.124228477,-0.799281911,0.949263398,-1.782745977,-1.682822529,0.133455753,0,0.124228477,-0.799281911,0.949263398,-1.782745977,-1.682822529,0.133455753,0,0.033,-0.1406,-0.1284,0.00722,0.01485,0.0001
2025-09-12T21:20:03.365038,0.124217033,-0.798855619,0.949097459,-1.786130091,-1.682846848,0.133468151,0,0.124217033,-0.798855619,0.949097459,-1.786130091,-1.682846848,0.133468151,0,-0.307,-0.4006,0.0116,0.03622,-0.01915,-0.0019
2025-09-12T21:20:03.413048,0.124240398,-0.798641519,0.949086014,-1.788834711,-1.682799164,0.133455753,0,0.124240398,-0.798641519,0.949086014,-1.788834711,-1.682799164,0.133455753,0,-0.187,-0.3206,-0.1284,0.03022,-0.01315,0.0001
2025-09-12T21:20:03.461021,0.124180317,-0.7984031,0.94911081,-1.790590426,-1.682811085,0.133468151,0,0.124180317,-0.7984031,0.94911081,-1.790590426,-1.682811085,0.133468151,0,-0.107,-0.5006,-0.1284,0.02422,-0.00015,0.0001
2025-09-12T21:20:03.492938,0.124168873,-0.798343973,0.949159447,-1.791754862,-1.682787244,0.133444309,0,0.124168873,-0.798343973,0.949159447,-1.791754862,-1.682787244,0.133444309,0,-0.007,-0.5206,-0.1884,0.03822,0.00385,-0.0009
2025-09-12T21:20:03.524968,0.124156952,-0.798224763,0.949452225,-1.792243143,-1.682834927,0.133455753,0,0.124156952,-0.798224763,0.949452225,-1.792243143,-1.682834927,0.133455753,0,-0.067,-0.4206,-0.1884,0.02922,-0.00015,0.0001
2025-09-12T21:20:03.557017,0.124168873,-0.798092679,0.949836556,-1.792710444,-1.682799164,0.133468151,0,0.124168873,-0.798092679,0.949836556,-1.792710444,-1.682799164,0.133468151,0,0.113,-0.5406,-0.2484,0.03522,0.00785,0.0001
2025-09-12T21:20:03.588987,0.124156952,-0.797935323,0.950356309,-1.793118616,-1.682787244,0.133455753,0,0.124156952,-0.797935323,0.950356309,-1.793118616,-1.682787244,0.133455753,0,0.053,-0.4006,-0.3684,0.02622,0.00885,-0.0009
2025-09-12T21:20:03.637070,0.124180794,-0.797469453,0.951584641,-1.793704649,-1.682775323,0.133480072,0,0.124180794,-0.797469453,0.951584641,-1.793704649,-1.682775323,0.133480072,0,0.033,-0.4006,-0.0084,0.02822,0.01085,-0.0019
2025-09-12T21:20:03.669183,0.124144554,-0.797266797,0.952751938,-1.794004103,-1.682751481,0.133444309,0,0.124144554,-0.797266797,0.952751938,-1.794004103,-1.682751481,0.133444309,0,0.053,-0.3406,-0.2884,0.02922,0.00685,-0.0039
2025-09-12T21:20:03.717040,0.12413311,-0.796846704,0.954676453,-1.794241568,-1.682775323,0.133444309,0,0.12413311,-0.796846704,0.954676453,-1.794241568,-1.682775323,0.133444309,0,0.073,-0.3606,-0.2284,0.03122,0.00585,-0.0019
2025-09-12T21:20:03.749113,0.124192715,-0.796453313,0.956173722,-1.794301649,-1.682775323,0.133444309,0,0.124192715,-0.796453313,0.956173722,-1.794301649,-1.682775323,0.133444309,0,0.073,-0.4606,-0.0484,0.03022,0.01485,0.0001
2025-09-12T21:20:03.797221,0.124145031,-0.795842962,0.958473984,-1.794468542,-1.682763402,0.133469105,0,0.124145031,-0.795842962,0.958473984,-1.794468542,-1.682763402,0.133469105,0,0.013,-0.3806,-0.1884,0.03122,0.00985,-0.0009
2025-09-12T21:20:03.845180,0.124156952,-0.795113401,0.960423295,-1.794576784,-1.682775323,0.133600712,0,0.124156952,-0.795113401,0.960423295,-1.794576784,-1.682775323,0.133600712,0,-0.027,-0.3406,-0.0084,0.02422,0.00985,0.0001
2025-09-12T21:20:03.877256,0.124168873,-0.794673757,0.961689774,-1.794612547,-1.682823006,0.133660316,0,0.124168873,-0.794673757,0.961689774,-1.794612547,-1.682823006,0.133660316,0,0.033,-0.4606,-0.0084,0.03122,0.00585,-0.0009
2025-09-12T21:20:03.925166,0.124168873,-0.794184522,0.963109795,-1.794723173,-1.682775323,0.133647442,0,0.124168873,-0.794184522,0.963109795,-1.794723173,-1.682775323,0.133647442,0,0.053,-0.3606,-0.0884,0.02522,0.00985,-0.0019
2025-09-12T21:20:03.957262,0.124156952,-0.793849782,0.963729684,-1.794902464,-1.68273956,0.133683681,0,0.124156952,-0.793849782,0.963729684,-1.794902464,-1.68273956,0.133683681,0,0.033,-0.3006,-0.0484,0.02522,0.00585,0.0001
2025-09-12T21:20:03.989191,0.124192715,-0.793503599,0.964266602,-1.794912001,-1.682763402,0.133671761,0,0.124192715,-0.793503599,0.964266602,-1.794912001,-1.682763402,0.133671761,0,0.073,-0.4406,-0.0484,0.02522,0.01185,0.0001
2025-09-12T21:20:04.021226,0.124168873,-0.793228464,0.964648072,-1.794972559,-1.682787244,0.133695126,0,0.124168873,-0.793228464,0.964648072,-1.794972559,-1.682787244,0.133695126,0,0.033,-0.3006,-0.1484,0.02122,0.00785,0.0001
2025-09-12T21:20:04.053225,0.124180794,-0.79283555,0.965066735,-1.794960161,-1.682763402,0.133671284,0,0.124180794,-0.79283555,0.965066735,-1.794960161,-1.682763402,0.133671284,0,0.013,-0.2806,0.0316,0.02522,0.01185,0.0001
2025-09-12T21:20:04.085288,0.124205112,-0.792696313,0.965316598,-1.794936319,-1.682763402,0.133622646,0,0.124205112,-0.792696313,0.965316598,-1.794936319,-1.682763402,0.133622646,0,0.033,-0.4406,0.0716,0.02722,0.00985,-0.0029
2025-09-12T21:20:04.117284,0.124168873,-0.792672471,0.965493981,-1.795032164,-1.682775323,0.133624554,0,0.124168873,-0.792672471,0.965493981,-1.795032164,-1.682775323,0.133624554,0,0.033,-0.2006,-0.2284,0.01722,0.00885,-0.0009
2025-09-12T21:20:04.149318,0.124204636,-0.792661027,0.965626542,-1.794972082,-1.682787244,0.133635521,0.009990234,0.124204636,-0.792661027,0.965626542,-1.794972082,-1.682787244,0.133635521,0,0.033,-0.4606,0.0516,0.02622,0.01385,-0.0029
2025-09-12T21:20:04.181321,0.124228477,-0.792661504,0.965745751,-1.794935843,-1.682727639,0.133671761,0.034950628,0.124228477,-0.792661504,0.965745751,-1.794935843,-1.682727639,0.133671761,0,0.013,-0.3206,-0.1484,0.01422,0.00985,0.0001
2025-09-12T21:20:04.213327,0.124228477,-0.792661504,0.965877358,-1.794887205,-1.682763402,0.133635521,0.091136337,0.124228477,-0.792661504,0.965877358,-1.794887205,-1.682763402,0.133635521,0,-0.047,-0.3206,-0.2284,0.02522,0.01185,0.0001
2025-09-12T21:20:04.261412,0.124217033,-0.792649583,0.96611673,-1.794875284,-1.682763878,0.133647442,0.114486977,0.124217033,-0.792649583,0.96611673,-1.794875284,-1.682763878,0.133647442,0,0.073,-0.2206,-0.1084,0.02422,0.01585,0.0001
2025-09-12T21:20:04.309378,0.124216557,-0.792661504,0.966259782,-1.794839998,-1.682931725,0.133623123,0.116792191,0.124216557,-0.792661504,0.966259782,-1.794839998,-1.682931725,0.133623123,0,0.053,-0.4406,-0.2884,0.03522,0.00685,0.0001
2025-09-12T21:20:04.357412,0.124252796,-0.792697267,0.966295067,-1.794986864,-1.682978932,0.133598804,0.116815243,0.124252796,-0.792697267,0.966295067,-1.794986864,-1.682978932,0.133598804,0,0.053,-0.3606,0.0316,0.02222,0.00085,0.0001
2025-09-12T21:20:04.405419,0.124216557,-0.792757348,0.966342751,-1.795224806,-1.683014218,0.133527279,0.112672059,0.124216557,-0.792757348,0.966342751,-1.795224806,-1.683014218,0.133527279,0,0.053,-0.3206,-0.1284,0.02022,0.01285,0.0001
2025-09-12T21:20:04.437515,0.124240398,-0.792769269,0.966307465,-1.795223852,-1.682978455,0.133527756,0.110558919,0.124240398,-0.792769269,0.966307465,-1.795223852,-1.682978455,0.133527756,0,0.053,-0.3006,-0.0284,0.02322,0.00785,0.0001
2025-09-12T21:20:04.469517,0.124240398,-0.79278119,0.966391389,-1.795235773,-1.682990376,0.133527756,0.110537788,0.124240398,-0.79278119,0.966391389,-1.795235773,-1.682990376,0.133527756,0,0.053,-0.3806,-0.1084,0.02622,0.00985,0.0001
2025-09-12T21:20:04.517528,0.124228477,-0.792805509,0.966330353,-1.795223852,-1.682989899,0.133527756,0.110537577,0.124228477,-0.792805509,0.966330353,-1.795223852,-1.682989899,0.133527756,0,0.013,-0.3006,-0.1084,0.02522,0.01085,0.0001
2025-09-12T21:20:04.565527,0.124264717,-0.792912797,0.966402833,-1.795332571,-1.682882134,0.133480072,0.112609282,0.124264717,-0.792912797,0.966402833,-1.795332571,-1.682882134,0.133480072,0,0.013,-0.2606,-0.1084,0.02222,0.01285,0.0011
2025-09-12T21:20:04.613552,0.124289036,-0.793008642,0.966341798,-1.795295855,-1.682858292,0.133467674,0.112629999,0.124289036,-0.793008642,0.966341798,-1.795295855,-1.682858292,0.133467674,0,0.013,-0.3206,-0.0684,0.02322,0.01485,-0.0009
2025-09-12T21:20:04.645581,0.124288559,-0.79303153,0.966402833,-1.795295378,-1.682834927,0.133443832,0.114701914,0.124288559,-0.79303153,0.966402833,-1.795295378,-1.682834927,0.133443832,0,0.013,-0.2806,-0.1684,0.02222,0.00985,0.0001
2025-09-12T21:20:04.693621,0.124288559,-0.793019609,0.966378037,-1.795283934,-1.682859723,0.133467674,0.127152879,0.124288559,-0.793019609,0.966378037,-1.795283934,-1.682859723,0.133467674,0,0.053,-0.3206,-0.0684,0.02322,0.01385,-0.0009
2025-09-12T21:20:04.741566,0.124275684,-0.793044404,0.966402833,-1.795247217,-1.682967011,0.133431911,0.127277388,0.124275684,-0.793044404,0.966402833,-1.795247217,-1.682967011,0.133431911,0,0.013,-0.3006,-0.2884,0.02422,0.01285,0.0001
2025-09-12T21:20:04.789638,0.124192238,-0.793311433,0.966425721,-1.795151373,-1.683002774,0.133480072,0.127278633,0.124192238,-0.793311433,0.966425721,-1.795151373,-1.683002774,0.133480072,0,-0.107,-0.2806,0.0316,0.02122,0.00685,0.0001
2025-09-12T21:20:04.837690,0.124204636,-0.79398282,0.966402833,-1.795042654,-1.68303806,0.133455753,0.135565476,0.124204636,-0.79398282,0.966402833,-1.795042654,-1.68303806,0.133455753,0,0.113,-0.4006,-0.1284,0.02822,0.01785,0.0001
2025-09-12T21:20:04.885778,0.124167919,-0.794735269,0.966402833,-1.795006891,-1.68303806,0.133444309,0.170867374,0.124167919,-0.794735269,0.966402833,-1.795006891,-1.68303806,0.133444309,0,0.033,-0.3406,-0.1284,0.02222,0.00985,0.0001
2025-09-12T21:20:04.933720,0.123963833,-0.79563363,0.966439072,-1.794959684,-1.682977978,0.133444309,0.171220392,0.123963833,-0.79563363,0.966439072,-1.794959684,-1.682977978,0.133444309,0,-0.087,-0.2806,-0.0284,0.01122,0.00485,0.0011
2025-09-12T21:20:04.981734,0.123929501,-0.796829061,0.966654603,-1.794911047,-1.682966057,0.133455753,0.171223923,0.123929501,-0.796829061,0.966654603,-1.794911047,-1.682966057,0.133455753,0,0.133,-0.6406,-0.0284,0.03422,0.02085,0.0001
2025-09-12T21:20:05.029787,0.123855591,-0.797997789,0.966666047,-1.794827601,-1.683112446,0.133455753,0.171223958,0.123855591,-0.797997789,0.966666047,-1.794827601,-1.683112446,0.133455753,0,0.013,-0.3206,-0.2084,0.02122,0.01885,0.0001
2025-09-12T21:20:05.077789,0.123784065,-0.798916177,0.966726128,-1.79481568,-1.68329126,0.133468151,0.171223958,0.123784065,-0.798916177,0.966726128,-1.79481568,-1.68329126,0.133468151,0,0.193,-0.3406,-0.1884,0.02122,0.01985,-0.0009
2025-09-12T21:20:05.125823,0.123556614,-0.799799756,0.966945473,-1.794791838,-1.683493916,0.133468151,0.171223958,0.123556614,-0.799799756,0.966945473,-1.794791838,-1.683493916,0.133468151,0,0.053,-0.2806,-0.1684,0.01722,0.00885,0.0011
2025-09-12T21:20:05.173829,0.1233778,-0.800744371,0.967549149,-1.794791838,-1.683758561,0.133491993,0.171223958,0.1233778,-0.800744371,0.967549149,-1.794791838,-1.683758561,0.133491993,0,0.053,-0.3206,-0.0284,0.01322,0.00985,0.0001
2025-09-12T21:20:05.221827,0.123258591,-0.801891164,0.968594376,-1.794756075,-1.684082333,0.133480072,0.173295666,0.123258591,-0.801891164,0.968594376,-1.794756075,-1.684082333,0.133480072,0,0.073,-0.3006,-0.2884,0.01922,0.01085,0.0011
2025-09-12T21:20:05.269903,0.1231637,-0.802879648,0.969963853,-1.79481568,-1.684680287,0.133455753,0.175388091,0.1231637,-0.802879648,0.969963853,-1.79481568,-1.684680287,0.133455753,0,-0.047,-0.3006,-0.2084,0.02222,0.00985,0.0011
2025-09-12T21:20:05.317927,0.12319994,-0.803557233,0.971800629,-1.794756075,-1.685290162,0.13340807,0.175409015,0.12319994,-0.803557233,0.971800629,-1.794756075,-1.685290162,0.13340807,0,0.113,-0.3606,-0.2684,0.02122,0.01685,0.0001
