ndolphin-github/DIGIT_contact_simulation/RealRobotData/Triangle_trial1.csv
timestamp,joint_pos_0,joint_pos_1,joint_pos_2,joint_pos_3,joint_pos_4,joint_pos_5,joint_pos_6,joint_vel_0,joint_vel_1,joint_vel_2,joint_vel_3,joint_vel_4,joint_vel_5,joint_vel_6,ft_fx,ft_fy,ft_fz,ft_tx,ft_ty,ft_tz,,,,,,,,,,,,,,,,,
2025-09-12T21:31:50.875702,-0.061348263,-1.285888986,1.393883053,-1.94354405,-1.678202931,0.004611492,0,-0.061348263,-1.285888986,1.393883053,-1.94354405,-1.678202931,0.004611492,0,-0.3994,-1.6306,0.061,0.09003,-0.01431,-0.00294,,,,,,,,,,,,,,,,,
2025-09-12T21:31:50.907697,-0.061384026,-1.285865144,1.393869702,-1.943507811,-1.67819101,0.004622936,0,-0.061384026,-1.285865144,1.393869702,-1.943507811,-1.67819101,0.004622936,0,-0.3594,-1.6106,0.001,0.08603,-0.01031,-0.00294,,,,,,,,,,,,,,,,,
2025-09-12T21:31:50.939736,-0.061348263,-1.285900907,1.393934552,-1.943556448,-1.678143326,0.004611492,0,-0.061348263,-1.285900907,1.393934552,-1.943556448,-1.678143326,0.004611492,0,-0.3394,-1.5506,-0.099,0.08403,-0.01431,-0.00194,,,,,,,,,,,,,,,,,
2025-09-12T21:31:50.987738,-0.061335866,-1.285852746,1.394123379,-1.94354405,-1.67819101,0.004599094,0,-0.061335866,-1.285852746,1.394123379,-1.94354405,-1.67819101,0.004599094,0,-0.2194,-1.6506,0.061,0.08803,-0.01131,-0.00094,,,,,,,,,,,,,,,,,
2025-09-12T21:31:51.019802,-0.061395947,-1.285865144,1.394159619,-1.94354405,-1.67819101,0.004622936,0,-0.061395947,-1.285865144,1.394159619,-1.94354405,-1.67819101,0.004622936,0,-0.4394,-1.5106,-0.139,0.08803,-0.01731,-0.00294,,,,,,,,,,,,,,,,,
2025-09-12T21:31:51.051819,-0.061372105,-1.285865144,1.394232098,-1.943520208,-1.678143326,0.004599094,0,-0.061372105,-1.285865144,1.394232098,-1.943520208,-1.678143326,0.004599094,0,-0.2394,-1.6906,0.041,0.09703,-0.00731,-0.00094,,,,,,,,,,,,,,,,,
2025-09-12T21:31:51.083856,-0.061360184,-1.285853223,1.394253079,-1.94358029,-1.678167168,0.004599094,0,-0.061360184,-1.285853223,1.394253079,-1.94358029,-1.678167168,0.004599094,0,-0.4394,-1.5106,0.001,0.08203,-0.01331,-0.00094,,,,,,,,,,,,,,,,,
2025-09-12T21:31:51.115820,-0.061335866,-1.285864667,1.394182507,-1.943520208,-1.678167168,0.004575253,0,-0.061335866,-1.285864667,1.394182507,-1.943520208,-1.678167168,0.004575253,0,-0.2194,-1.6306,0.001,0.08603,-0.01831,-0.00194,,,,,,,,,,,,,,,,,
2025-09-12T21:31:51.147835,-0.061348263,-1.285852746,1.394157712,-1.943556448,-1.678167168,0.004599094,0,-0.061348263,-1.285852746,1.394157712,-1.943556448,-1.678167168,0.004599094,0,-0.3994,-1.5306,-0.039,0.08603,-0.01531,-0.00194,,,,,,,,,,,,,,,,,
2025-09-12T21:31:51.179850,-0.061348263,-1.285792665,1.394193951,-1.943556448,-1.678202931,0.004575253,0,-0.061348263,-1.285792665,1.394193951,-1.943556448,-1.678202931,0.004575253,0,-0.1794,-1.5906,0.001,0.09103,-0.01331,-0.00094,,,,,,,,,,,,,,,,,
2025-09-12T21:31:51.211881,-0.061372105,-1.285742597,1.394182507,-1.943556448,-1.678155247,0.004611492,0,-0.061372105,-1.285742597,1.394182507,-1.943556448,-1.678155247,0.004611492,0,-0.3994,-1.5906,-0.039,0.07903,-0.01231,-0.00194,,,,,,,,,,,,,,,,,
2025-09-12T21:31:51.243877,-0.061372105,-1.285672502,1.394205395,-1.943520208,-1.678131406,0.004599094,0,-0.061372105,-1.285672502,1.394205395,-1.943520208,-1.678131406,0.004599094,0,-0.2994,-1.7106,0.181,0.09603,-0.01031,-0.00294,,,,,,,,,,,,,,,,,
2025-09-12T21:31:51.275933,-0.061348263,-1.285721139,1.394182507,-1.943556448,-1.678155247,0.004575253,0,-0.061348263,-1.285721139,1.394182507,-1.943556448,-1.678155247,0.004575253,0,-0.3794,-1.5306,-0.219,0.08303,-0.01531,-0.00094,,,,,,,,,,,,,,,,,
2025-09-12T21:31:51.307918,-0.061372105,-1.285672979,1.394230191,-1.943556448,-1.67819101,0.004611492,0,-0.061372105,-1.285672979,1.394230191,-1.943556448,-1.67819101,0.004611492,0,-0.2394,-1.6906,0.121,0.09303,-0.01331,-0.00194,,,,,,,,,,,,,,,,,
2025-09-12T21:31:51.339959,-0.061348263,-1.285733537,1.394193951,-1.943532129,-1.678167168,0.004563332,0,-0.061348263,-1.285733537,1.394193951,-1.943532129,-1.678167168,0.004563332,0,-0.3594,-1.5506,-0.159,0.08503,-0.01431,-0.00194,,,,,,,,,,,,,,,,,
2025-09-12T21:31:51.387965,-0.061360184,-1.285745458,1.394193951,-1.943532129,-1.678155247,0.004599094,0,-0.061360184,-1.285745458,1.394193951,-1.943532129,-1.678155247,0.004599094,0,-0.2994,-1.6306,0.001,0.09503,-0.01631,-0.00194,,,,,,,,,,,,,,,,,
2025-09-12T21:31:51.419994,-0.061372105,-1.285685377,1.394047085,-1.943507811,-1.67819101,0.004622936,0,-0.061372105,-1.285685377,1.394047085,-1.943507811,-1.67819101,0.004622936,0,-0.2594,-1.6706,-0.139,0.08803,-0.01731,-0.00094,,,,,,,,,,,,,,,,,
2025-09-12T21:31:51.452002,-0.061348263,-1.28573306,1.394026105,-1.943556448,-1.678167168,0.004599094,0,-0.061348263,-1.28573306,1.394026105,-1.943556448,-1.678167168,0.004599094,0,-0.2194,-1.6506,-0.059,0.09303,-0.01331,-0.00194,,,,,,,,,,,,,,,,,
2025-09-12T21:31:51.484022,-0.061348263,-1.285721139,1.3940509,-1.943496367,-1.678143326,0.004599094,0,-0.061348263,-1.285721139,1.3940509,-1.943496367,-1.678143326,0.004599094,0,-0.2994,-1.6306,0.081,0.08903,-0.01131,-0.00094,,,,,,,,,,,,,,,,,
2025-09-12T21:31:51.516025,-0.061360184,-1.285721139,1.394037549,-1.943592211,-1.678167168,0.004587173,0,-0.061360184,-1.285721139,1.394037549,-1.943592211,-1.678167168,0.004587173,0,-0.4594,-1.5706,-0.059,0.08303,-0.01631,-0.00394,,,,,,,,,,,,,,,,,
2025-09-12T21:31:51.548054,-0.061360184,-1.285709218,1.394037549,-1.943592211,-1.678179089,0.004563332,0,-0.061360184,-1.285709218,1.394037549,-1.943592211,-1.678179089,0.004563332,0,-0.2794,-1.6906,0.101,0.09303,-0.00331,-0.00194,,,,,,,,,,,,,,,,,
2025-09-12T21:31:51.580051,-0.061372105,-1.285685377,1.39389259,-1.943568369,-1.678179089,0.004575253,0,-0.061372105,-1.285685377,1.39389259,-1.943568369,-1.678179089,0.004575253,0,-0.4394,-1.5306,-0.039,0.08703,-0.01431,-0.00294,,,,,,,,,,,,,,,,,
2025-09-12T21:31:51.612093,-0.061335866,-1.285697297,1.393869702,-1.943532129,-1.67819101,0.004575253,0,-0.061335866,-1.285697297,1.393869702,-1.943532129,-1.67819101,0.004575253,0,-0.3594,-1.6106,-0.039,0.09203,-0.01031,-0.00194,,,,,,,,,,,,,,,,,
2025-09-12T21:31:51.644133,-0.061335866,-1.285721139,1.393869702,-1.943568369,-1.678179089,0.004635334,0,-0.061335866,-1.285721139,1.393869702,-1.943568369,-1.678179089,0.004635334,0,-0.3994,-1.5306,-0.019,0.08503,-0.01431,-0.00194,,,,,,,,,,,,,,,,,
2025-09-12T21:31:51.676149,-0.061360184,-1.285685377,1.393871609,-1.943556448,-1.678155247,0.004611492,0,-0.061360184,-1.285685377,1.393871609,-1.943556448,-1.678155247,0.004611492,0,-0.2794,-1.6106,0.021,0.08403,-0.01131,-0.00194,,,,,,,,,,,,,,,,,
2025-09-12T21:31:51.708152,-0.061348263,-1.285697297,1.393894498,-1.94358029,-1.678179089,0.004587173,0,-0.061348263,-1.285697297,1.393894498,-1.94358029,-1.678179089,0.004587173,0,-0.3394,-1.5706,0.061,0.08303,-0.01731,-0.00094,,,,,,,,,,,,,,,,,
2025-09-12T21:31:51.740164,-0.061348263,-1.285649137,1.393869702,-1.943568369,-1.678155247,0.004599094,0,-0.061348263,-1.285649137,1.393869702,-1.943568369,-1.678155247,0.004599094,0,-0.2594,-1.6106,0.001,0.08603,-0.01131,-0.00194,,,,,,,,,,,,,,,,,
2025-09-12T21:31:51.788164,-0.061384026,-1.28564866,1.393894498,-1.943604132,-1.678179089,0.004587173,0,-0.061384026,-1.28564866,1.393894498,-1.943604132,-1.678179089,0.004587173,0,-0.2994,-1.6306,-0.039,0.09303,-0.01231,-0.00094,,,,,,,,,,,,,,,,,
2025-09-12T21:31:51.820228,-0.061372105,-1.285623865,1.393858258,-1.943592211,-1.678179089,0.004575253,0,-0.061372105,-1.285623865,1.393858258,-1.943592211,-1.678179089,0.004575253,0,-0.2194,-1.6306,-0.099,0.08903,-0.01131,-0.00194,,,,,,,,,,,,,,,,,
2025-09-12T21:31:51.852237,-0.061360184,-1.28552802,1.393894498,-1.943568369,-1.67819101,0.004587173,0,-0.061360184,-1.28552802,1.393894498,-1.943568369,-1.67819101,0.004587173,0,-0.3794,-1.5906,0.041,0.08903,-0.01631,-0.00094,,,,,,,,,,,,,,,,,
2025-09-12T21:31:51.884257,-0.061335866,-1.285493688,1.393930737,-1.943556448,-1.678119485,0.004622936,0,-0.061335866,-1.285493688,1.393930737,-1.943556448,-1.678119485,0.004622936,0,-0.2794,-1.6106,0.181,0.08603,-0.00931,-0.00294,,,,,,,,,,,,,,,,,
2025-09-12T21:31:51.916274,-0.061335866,-1.285506086,1.393894498,-1.94358029,-1.678155247,0.004611492,0,-0.061335866,-1.285506086,1.393894498,-1.94358029,-1.678155247,0.004611492,0,-0.3194,-1.5506,-0.119,0.08703,-0.01831,-0.00094,,,,,,,,,,,,,,,,,
2025-09-12T21:31:51.948347,-0.061348263,-1.28551753,1.393905942,-1.943532129,-1.678155247,0.004575253,0,-0.061348263,-1.28551753,1.393905942,-1.943532129,-1.678155247,0.004575253,0,-0.2994,-1.6506,0.121,0.08903,-0.01531,-0.00094,,,,,,,,,,,,,,,,,
2025-09-12T21:31:51.980344,-0.061324422,-1.285505609,1.393869702,-1.943556448,-1.678155247,0.004611492,0,-0.061324422,-1.285505609,1.393869702,-1.943556448,-1.678155247,0.004611492,0,-0.3394,-1.6306,-0.099,0.08503,-0.01331,-0.00294,,,,,,,,,,,,,,,,,
2025-09-12T21:31:52.012326,-0.061360184,-1.285566167,1.393869702,-1.943556448,-1.678143326,0.004611492,0,-0.061360184,-1.285566167,1.393869702,-1.943556448,-1.678143326,0.004611492,0,-0.2794,-1.6106,0.001,0.09303,-0.01131,-0.00194,,,,,,,,,,,,,,,,,
2025-09-12T21:31:52.044460,-0.061372105,-1.2855552,1.393917386,-1.943520208,-1.678155247,0.004575253,0,-0.061372105,-1.2855552,1.393917386,-1.943520208,-1.678155247,0.004575253,0,-0.3394,-1.6106,0.061,0.08503,-0.00931,-0.00194,,,,,,,,,,,,,,,,,
2025-09-12T21:31:52.076364,-0.061360184,-1.285710649,1.393905942,-1.94358029,-1.678155247,0.004599094,0,-0.061360184,-1.285710649,1.393905942,-1.94358029,-1.678155247,0.004599094,0,-0.3394,-1.5706,-0.179,0.08703,-0.01531,6.00E-05,,,,,,,,,,,,,,,,,
2025-09-12T21:31:52.108428,-0.061335866,-1.285866575,1.393869702,-1.943520208,-1.678167168,0.004587173,0,-0.061335866,-1.285866575,1.393869702,-1.943520208,-1.678167168,0.004587173,0,-0.3194,-1.7706,0.121,0.10203,-0.01331,-0.00194,,,,,,,,,,,,,,,,,
2025-09-12T21:31:52.140419,-0.061360184,-1.286082582,1.393869702,-1.943532129,-1.678155247,0.004575253,0,-0.061360184,-1.286082582,1.393869702,-1.943532129,-1.678155247,0.004575253,0,-0.3794,-1.5506,-0.159,0.08303,-0.01531,-0.00094,,,,,,,,,,,,,,,,,
2025-09-12T21:31:52.188421,-0.061372105,-1.286141233,1.393883053,-1.94354405,-1.678179089,0.004599094,0,-0.061372105,-1.286141233,1.393883053,-1.94354405,-1.678179089,0.004599094,0,-0.3194,-1.6706,0.101,0.09703,-0.01431,-0.00194,,,,,,,,,,,,,,,,,
2025-09-12T21:31:52.220538,-0.061335866,-1.286251859,1.393917386,-1.94354405,-1.678155247,0.004575253,0,-0.061335866,-1.286251859,1.393917386,-1.94354405,-1.678155247,0.004575253,0,-0.2994,-1.6106,0.001,0.08303,-0.01131,-0.00194,,,,,,,,,,,,,,,,,
2025-09-12T21:31:52.252574,-0.061360184,-1.286393003,1.393858258,-1.943556448,-1.678214852,0.004599094,0,-0.061360184,-1.286393003,1.393858258,-1.943556448,-1.678214852,0.004599094,0,-0.3394,-1.5306,-0.239,0.08803,-0.01731,6.00E-05,,,,,,,,,,,,,,,,,
2025-09-12T21:31:52.284560,-0.061372105,-1.286415891,1.393858258,-1.943568369,-1.67819101,0.004635334,0,-0.061372105,-1.286415891,1.393858258,-1.943568369,-1.67819101,0.004635334,0,-0.3394,-1.6706,0.121,0.09303,-0.01331,-0.00294,,,,,,,,,,,,,,,,,
2025-09-12T21:31:52.316513,-0.061360184,-1.286380605,1.393858258,-1.94354405,-1.678167168,0.004611492,0,-0.061360184,-1.286380605,1.393858258,-1.94354405,-1.678167168,0.004611492,0,-0.2794,-1.6306,-0.099,0.08703,-0.01431,-0.00194,,,,,,,,,,,,,,,,,
2025-09-12T21:31:52.348512,-0.061384026,-1.286393003,1.393846814,-1.943532129,-1.678179089,0.004587173,0,-0.061384026,-1.286393003,1.393846814,-1.943532129,-1.678179089,0.004587173,0,-0.2594,-1.6506,-0.059,0.09003,-0.01731,-0.00094,,,,,,,,,,,,,,,,,
2025-09-12T21:31:52.380553,-0.061360184,-1.286453084,1.393822018,-1.943568369,-1.678155247,0.004611492,0,-0.061360184,-1.286453084,1.393822018,-1.943568369,-1.678155247,0.004611492,0,-0.2994,-1.5906,0.001,0.09203,-0.01131,-0.00294,,,,,,,,,,,,,,,,,
2025-09-12T21:31:52.412590,-0.061348263,-1.286585645,1.393749539,-1.943568369,-1.678202931,0.004563332,0,-0.061348263,-1.286585645,1.393749539,-1.943568369,-1.678202931,0.004563332,0,-0.2994,-1.7106,-0.019,0.09303,-0.01831,-0.00094,,,,,,,,,,,,,,,,,
2025-09-12T21:31:52.444568,-0.061360184,-1.286669092,1.393654172,-1.943507811,-1.678155247,0.004611492,0,-0.061360184,-1.286669092,1.393654172,-1.943507811,-1.678155247,0.004611492,0,-0.3594,-1.5506,-0.059,0.08603,-0.01231,-0.00194,,,,,,,,,,,,,,,,,
2025-09-12T21:31:52.476622,-0.061348263,-1.286704854,1.393678967,-1.943556448,-1.678167168,0.004599094,0,-0.061348263,-1.286704854,1.393678967,-1.943556448,-1.678167168,0.004599094,0,-0.3394,-1.6506,-0.119,0.09103,-0.01331,-0.00194,,,,,,,,,,,,,,,,,
2025-09-12T21:31:52.508631,-0.061372105,-1.286787824,1.393715207,-1.943532129,-1.678179089,0.004611492,0,-0.061372105,-1.286787824,1.393715207,-1.943532129,-1.678179089,0.004611492,0,-0.2594,-1.5906,-0.099,0.09003,-0.01431,-0.00194,,,,,,,,,,,,,,,,,
2025-09-12T21:31:52.540664,-0.061360184,-1.286703424,1.393715207,-1.943568369,-1.67819101,0.004635334,0,-0.061360184,-1.286703424,1.393715207,-1.943568369,-1.67819101,0.004635334,0,-0.2994,-1.6106,0.021,0.09103,-0.01731,-0.00194,,,,,,,,,,,,,,,,,
2025-09-12T21:31:52.588672,-0.061335866,-1.286727743,1.393726651,-1.943520208,-1.67819101,0.004599094,0,-0.061335866,-1.286727743,1.393726651,-1.943520208,-1.67819101,0.004599094,0,-0.2794,-1.6106,-0.019,0.08603,-0.01231,-0.00194,,,,,,,,,,,,,,,,,
2025-09-12T21:31:52.620689,-0.061348263,-1.286727743,1.393726651,-1.94354405,-1.678143326,0.004587173,0,-0.061348263,-1.286727743,1.393726651,-1.94354405,-1.678143326,0.004587173,0,-0.3394,-1.6306,0.061,0.08803,-0.01131,-0.00194,,,,,,,,,,,,,,,,,
2025-09-12T21:31:52.652779,-0.061395947,-1.286716298,1.393690411,-1.94354405,-1.678167168,0.004587173,0,-0.061395947,-1.286716298,1.393690411,-1.94354405,-1.678167168,0.004587173,0,-0.2394,-1.5706,-0.039,0.08903,-0.01331,-0.00094,,,,,,,,,,,,,,,,,
2025-09-12T21:31:52.684855,-0.061360184,-1.286775903,1.393715207,-1.94354405,-1.678202931,0.004587173,0,-0.061360184,-1.286775903,1.393715207,-1.94354405,-1.678202931,0.004587173,0,-0.3394,-1.6106,-0.159,0.09003,-0.01931,6.00E-05,,,,,,,,,,,,,,,,,
2025-09-12T21:31:52.716733,-0.061360184,-1.28674014,1.393738095,-1.943592211,-1.678179089,0.004599094,0,-0.061360184,-1.28674014,1.393738095,-1.943592211,-1.678179089,0.004599094,0,-0.3194,-1.6106,-0.039,0.08703,-0.01131,-0.00294,,,,,,,,,,,,,,,,,
2025-09-12T21:31:52.748788,-0.061348263,-1.286763982,1.393825833,-1.943568369,-1.678155247,0.004599094,0,-0.061348263,-1.286763982,1.393825833,-1.943568369,-1.678155247,0.004599094,0,-0.3194,-1.5906,0.001,0.07803,-0.01731,-0.00294,,,,,,,,,,,,,,,,,
2025-09-12T21:31:52.780792,-0.061372105,-1.286727743,1.393980328,-1.943556448,-1.678167168,0.004635334,0,-0.061372105,-1.286727743,1.393980328,-1.943556448,-1.678167168,0.004635334,0,-0.3594,-1.5906,0.081,0.08003,-0.01331,-0.00194,,,,,,,,,,,,,,,,,
2025-09-12T21:31:52.812805,-0.061372105,-1.286775903,1.394064252,-1.94354405,-1.678202931,0.004599094,0,-0.061372105,-1.286775903,1.394064252,-1.94354405,-1.678202931,0.004599094,0,-0.3794,-1.6106,0.041,0.08503,-0.01431,-0.00294,,,,,,,,,,,,,,,,,
2025-09-12T21:31:52.844829,-0.061372105,-1.286727743,1.39408714,-1.94358029,-1.678143326,0.004611492,0,-0.061372105,-1.286727743,1.39408714,-1.94358029,-1.678143326,0.004611492,0,-0.2394,-1.6706,0.001,0.08803,-0.00631,-0.00194,,,,,,,,,,,,,,,,,
2025-09-12T21:31:52.876846,-0.061384026,-1.286763982,1.394207303,-1.943556448,-1.678155247,0.004611492,0,-0.061384026,-1.286763982,1.394207303,-1.943556448,-1.678155247,0.004611492,0,-0.2994,-1.7906,0.021,0.09903,-0.01231,6.00E-05,,,,,,,,,,,,,,,,,
2025-09-12T21:31:52.908868,-0.061348263,-1.286788778,1.394230191,-1.943532129,-1.67819101,0.004599094,0,-0.061348263,-1.286788778,1.394230191,-1.943532129,-1.67819101,0.004599094,0,-0.3394,-1.6706,0.001,0.09503,-0.01531,-0.00094,,,,,,,,,,,,,,,,,
2025-09-12T21:31:52.940899,-0.061360184,-1.286836461,1.394241635,-1.94354405,-1.67819101,0.004611492,0,-0.061360184,-1.286836461,1.394241635,-1.94354405,-1.67819101,0.004611492,0,-0.3794,-1.6106,-0.059,0.08703,-0.01531,-0.00094,,,,,,,,,,,,,,,,,
2025-09-12T21:31:52.988891,-0.061348263,-1.286884145,1.394193951,-1.94354405,-1.678167168,0.004611492,0,-0.061348263,-1.286884145,1.394193951,-1.94354405,-1.678167168,0.004611492,0,-0.3394,-1.5706,0.061,0.08603,-0.00931,-0.00194,,,,,,,,,,,,,,,,,
2025-09-12T21:31:53.020940,-0.061372105,-1.286908464,1.394193951,-1.943568369,-1.678143326,0.004587173,0,-0.061372105,-1.286908464,1.394193951,-1.943568369,-1.678143326,0.004587173,0,-0.3994,-1.6506,0.061,0.09103,-0.00931,-0.00194,,,,,,,,,,,,,,,,,
2025-09-12T21:31:53.052971,-0.061360184,-1.286979989,1.394205395,-1.94354405,-1.678155247,0.004622936,0,-0.061360184,-1.286979989,1.394205395,-1.94354405,-1.678155247,0.004622936,0,-0.3394,-1.5906,-0.139,0.08903,-0.01431,6.00E-05,,,,,,,,,,,,,,,,,
2025-09-12T21:31:53.084985,-0.061348263,-1.28699191,1.394193951,-1.94354405,-1.678167168,0.004599094,0,-0.061348263,-1.28699191,1.394193951,-1.94354405,-1.678167168,0.004599094,0,-0.2794,-1.6706,0.061,0.08703,-0.01431,-0.00094,,,,,,,,,,,,,,,,,
2025-09-12T21:31:53.117024,-0.061348263,-1.286991434,1.394205395,-1.943520208,-1.678202931,0.004635334,0,-0.061348263,-1.286991434,1.394205395,-1.943520208,-1.678202931,0.004635334,0,-0.2994,-1.6306,0.041,0.08303,-0.01131,-0.00194,,,,,,,,,,,,,,,,,
2025-09-12T21:31:53.149038,-0.061360184,-1.286967592,1.394266431,-1.943592211,-1.678167168,0.004563332,0,-0.061360184,-1.286967592,1.394266431,-1.943592211,-1.678167168,0.004563332,0,-0.3194,-1.6906,-0.019,0.08703,-0.01631,-0.00194,,,,,,,,,,,,,,,,,
2025-09-12T21:31:53.181063,-0.061372105,-1.286967592,1.394205395,-1.943556448,-1.678179089,0.004635334,0,-0.061372105,-1.286967592,1.394205395,-1.943556448,-1.678179089,0.004635334,0,-0.3194,-1.6106,-0.019,0.08903,-0.01331,-0.00194,,,,,,,,,,,,,,,,,
2025-09-12T21:31:53.213078,-0.061360184,-1.287003354,1.394182507,-1.94358029,-1.678202931,0.004611492,0,-0.061360184,-1.287003354,1.394182507,-1.94358029,-1.678202931,0.004611492,0,-0.3194,-1.6506,-0.059,0.09103,-0.01231,-0.00094,,,,,,,,,,,,,,,,,
2025-09-12T21:31:53.245096,-0.061360184,-1.286979513,1.394253079,-1.94354405,-1.678167168,0.004611492,0,-0.061360184,-1.286979513,1.394253079,-1.94354405,-1.678167168,0.004611492,0,-0.3794,-1.6306,-0.019,0.08603,-0.01131,-0.00194,,,,,,,,,,,,,,,,,
2025-09-12T21:31:53.277100,-0.061324422,-1.287027673,1.394266431,-1.94354405,-1.678214852,0.004599094,0,-0.061324422,-1.287027673,1.394266431,-1.94354405,-1.678214852,0.004599094,0,-0.3194,-1.6506,-0.099,0.08803,-0.01631,-0.00094,,,,,,,,,,,,,,,,,
2025-09-12T21:31:53.309140,-0.061372105,-1.287027673,1.394253079,-1.943568369,-1.678167168,0.004635334,0,-0.061372105,-1.287027673,1.394253079,-1.943568369,-1.678167168,0.004635334,0,-0.3594,-1.6506,0.001,0.09203,-0.01231,-0.00194,,,,,,,,,,,,,,,,,
2025-09-12T21:31:53.341121,-0.061360184,-1.286991434,1.394277875,-1.943556448,-1.678167168,0.004622936,0,-0.061360184,-1.286991434,1.394277875,-1.943556448,-1.678167168,0.004622936,0,-0.3594,-1.5906,-0.019,0.08703,-0.01131,-0.00394,,,,,,,,,,,,,,,,,
2025-09-12T21:31:53.389149,-0.061360184,-1.287039594,1.394316022,-1.943556448,-1.678179089,0.004611492,0,-0.061360184,-1.287039594,1.394316022,-1.943556448,-1.678179089,0.004611492,0,-0.3394,-1.5506,-0.019,0.08503,-0.01531,-0.00194,,,,,,,,,,,,,,,,,
2025-09-12T21:31:53.421262,-0.061348263,-1.287003354,1.394375149,-1.943568369,-1.678167168,0.004563332,0,-0.061348263,-1.287003354,1.394375149,-1.943568369,-1.678167168,0.004563332,0,-0.3394,-1.6506,0.001,0.09103,-0.01031,-0.00094,,,,,,,,,,,,,,,,,
2025-09-12T21:31:53.453220,-0.061360184,-1.287015752,1.394373242,-1.943568369,-1.67819101,0.004611492,0,-0.061360184,-1.287015752,1.394373242,-1.943568369,-1.67819101,0.004611492,0,-0.3394,-1.6106,0.021,0.08503,-0.01131,-0.00294,,,,,,,,,,,,,,,,,
2025-09-12T21:31:53.485232,-0.061312024,-1.287015752,1.394373242,-1.943568369,-1.678167168,0.004611492,0,-0.061312024,-1.287015752,1.394373242,-1.943568369,-1.678167168,0.004611492,0,-0.3194,-1.5906,-0.039,0.08503,-0.01231,-0.00194,,,,,,,,,,,,,,,,,
2025-09-12T21:31:53.517270,-0.061407868,-1.287015752,1.394350354,-1.943532129,-1.678167168,0.004575253,0,-0.061407868,-1.287015752,1.394350354,-1.943532129,-1.678167168,0.004575253,0,-0.2594,-1.6306,-0.039,0.09203,-0.01531,-0.00094,,,,,,,,,,,,,,,,,
2025-09-12T21:31:53.549313,-0.061348263,-1.287003354,1.394422833,-1.943556448,-1.678167168,0.004673481,0,-0.061348263,-1.287003354,1.394422833,-1.943556448,-1.678167168,0.004673481,0,-0.2994,-1.6106,-0.059,0.09003,-0.01231,-0.00194,,,,,,,,,,,,,,,,,
2025-09-12T21:31:53.581329,-0.061372105,-1.286967592,1.394361798,-1.943556448,-1.67819101,0.004865646,0,-0.061372105,-1.286967592,1.394361798,-1.943556448,-1.67819101,0.004865646,0,-0.3194,-1.6106,-0.019,0.08603,-0.01331,-0.00194,,,,,,,,,,,,,,,,,
2025-09-12T21:31:53.613330,-0.061384026,-1.287039594,1.39430267,-1.94358029,-1.678179089,0.004899502,0,-0.061384026,-1.287039594,1.39430267,-1.94358029,-1.678179089,0.004899502,0,-0.2594,-1.6106,-0.119,0.08803,-0.01431,-0.00194,,,,,,,,,,,,,,,,,
2025-09-12T21:31:53.645305,-0.061360184,-1.287027196,1.394277875,-1.94358029,-1.678131406,0.004922867,0,-0.061360184,-1.287027196,1.394277875,-1.94358029,-1.678131406,0.004922867,0,-0.3794,-1.6306,0.021,0.08803,-0.01031,6.00E-05,,,,,,,,,,,,,,,,,
2025-09-12T21:31:53.677326,-0.061335866,-1.287003354,1.394277875,-1.94354405,-1.67819101,0.004922867,0,-0.061335866,-1.287003354,1.394277875,-1.94354405,-1.67819101,0.004922867,0,-0.2994,-1.7306,0.021,0.09103,-0.01031,-0.00294,,,,,,,,,,,,,,,,,
2025-09-12T21:31:53.709421,-0.061360184,-1.287027196,1.394203488,-1.94354405,-1.678155247,0.004910946,0,-0.061360184,-1.287027196,1.394203488,-1.94354405,-1.678155247,0.004910946,0,-0.3194,-1.6506,0.041,0.08703,-0.01731,6.00E-05,,,,,,,,,,,,,,,,,
2025-09-12T21:31:53.741362,-0.061384026,-1.286991434,1.393963162,-1.94358029,-1.678179089,0.004910469,0,-0.061384026,-1.286991434,1.393963162,-1.94358029,-1.678179089,0.004910469,0,-0.3194,-1.5706,-0.019,0.08303,-0.01731,-0.00194,,,,,,,,,,,,,,,,,
2025-09-12T21:31:53.789403,-0.061360184,-1.287027196,1.393820111,-1.94358029,-1.67819101,0.004874229,0,-0.061360184,-1.287027196,1.393820111,-1.94358029,-1.67819101,0.004874229,0,-0.2994,-1.6306,0.021,0.08403,-0.01431,-0.00194,,,,,,,,,,,,,,,,,
2025-09-12T21:31:53.821450,-0.061335866,-1.287027196,1.393593136,-1.943556448,-1.67819101,0.004778385,0,-0.061335866,-1.287027196,1.393593136,-1.943556448,-1.67819101,0.004778385,0,-0.3194,-1.5906,0.001,0.08603,-0.01031,-0.00294,,,,,,,,,,,,,,,,,
2025-09-12T21:31:53.853466,-0.061360184,-1.286954717,1.393291775,-1.94354405,-1.67819101,0.004742146,0,-0.061360184,-1.286954717,1.393291775,-1.94354405,-1.67819101,0.004742146,0,-0.3794,-1.5506,0.041,0.08803,-0.01031,-0.00194,,,,,,,,,,,,,,,,,
2025-09-12T21:31:53.885463,-0.061384026,-1.286942796,1.393062894,-1.943556448,-1.678179089,0.004718781,0,-0.061384026,-1.286942796,1.393062894,-1.943556448,-1.678179089,0.004718781,0,-0.3594,-1.6106,-0.019,0.08903,-0.01131,-0.00294,,,,,,,,,,,,,,,,,
2025-09-12T21:31:53.917534,-0.061360184,-1.2868336,1.392799679,-1.943532129,-1.678202931,0.004706383,0,-0.061360184,-1.2868336,1.392799679,-1.943532129,-1.678202931,0.004706383,0,-0.3394,-1.6506,-0.099,0.09103,-0.01231,-0.00094,,,,,,,,,,,,,,,,,
2025-09-12T21:31:53.949525,-0.061360184,-1.286677198,1.392547909,-1.943654676,-1.67819101,0.004572392,0,-0.061360184,-1.286677198,1.392547909,-1.943654676,-1.67819101,0.004572392,0,-0.2794,-1.6706,-0.119,0.08903,-0.01631,6.00E-05,,,,,,,,,,,,,,,,,
2025-09-12T21:31:53.981626,-0.061372105,-1.286569909,1.392431561,-1.943834921,-1.678155247,0.004257679,0,-0.061372105,-1.286569909,1.392431561,-1.943834921,-1.678155247,0.004257679,0,-0.4394,-1.5906,-0.039,0.08503,-0.01631,-0.00194,,,,,,,,,,,,,,,,,
2025-09-12T21:31:54.013570,-0.061372105,-1.28640397,1.392490689,-1.943931242,-1.678081338,0.003826618,0,-0.061372105,-1.28640397,1.392490689,-1.943931242,-1.678081338,0.003826618,0,-0.2194,-1.6506,-0.039,0.08703,-0.01331,-0.00194,,,,,,,,,,,,,,,,,
2025-09-12T21:31:54.045554,-0.061360184,-1.286452131,1.392454449,-1.944123884,-1.677949254,0.003477573,0,-0.061360184,-1.286452131,1.392454449,-1.944123884,-1.677949254,0.003477573,0,-0.3594,-1.6506,-0.179,0.08903,-0.01931,-0.00194,,,,,,,,,,,,,,,,,
2025-09-12T21:31:54.077551,-0.061360184,-1.28644021,1.392467801,-1.94440188,-1.67777044,0.003020763,0,-0.061360184,-1.28644021,1.392467801,-1.94440188,-1.67777044,0.003020763,0,-0.3594,-1.7106,0.141,0.09603,-0.01031,-0.00194,,,,,,,,,,,,,,,,,
2025-09-12T21:31:54.109601,-0.061312024,-1.286452131,1.392454449,-1.9448482,-1.677615468,0.002520084,0,-0.061312024,-1.286452131,1.392454449,-1.9448482,-1.677615468,0.002520084,0,-0.3194,-1.6306,-0.039,0.09103,-0.01631,-0.00394,,,,,,,,,,,,,,,,,
2025-09-12T21:31:54.141612,-0.061360184,-1.286464528,1.392490689,-1.945664545,-1.67750961,0.002392769,0,-0.061360184,-1.286464528,1.392490689,-1.945664545,-1.67750961,0.002392769,0,-0.2794,-2.0106,0.121,0.11303,-0.01231,-0.00194,,,,,,,,,,,,,,,,,
2025-09-12T21:31:54.189723,-0.061324422,-1.286439733,1.392364804,-1.947672506,-1.677437131,0.002379894,0,-0.061324422,-1.286439733,1.392364804,-1.947672506,-1.677437131,0.002379894,0,-0.3994,-1.5706,0.001,0.08603,-0.02231,-0.00294,,,,,,,,,,,,,,,,,
2025-09-12T21:31:54.221688,-0.061348263,-1.286366777,1.391786877,-1.949919363,-1.677306,0.002235413,0,-0.061348263,-1.286366777,1.391786877,-1.949919363,-1.677306,0.002235413,0,-0.1994,-1.9706,0.041,0.10603,-0.01431,-0.00294,,,,,,,,,,,,,,,,,
2025-09-12T21:31:54.253735,-0.061348263,-1.286282853,1.391111676,-1.952004095,-1.677258317,0.001883507,0,-0.061348263,-1.286282853,1.391111676,-1.952004095,-1.677258317,0.001883507,0,-0.4794,-1.6106,-0.039,0.08103,-0.02231,6.00E-05,,,,,,,,,,,,,,,,,
2025-09-12T21:31:54.285726,-0.061360184,-1.28603919,1.390270535,-1.953982492,-1.677064244,0.001488209,0,-0.061360184,-1.28603919,1.390270535,-1.953982492,-1.677064244,0.001488209,0,-0.2594,-1.5506,0.061,0.08303,-0.00231,-0.00194,,,,,,,,,,,,,,,,,
2025-09-12T21:31:54.317772,-0.061372105,-1.285803632,1.388967816,-1.955573698,-1.676789586,0.001008034,0,-0.061372105,-1.285803632,1.388967816,-1.955573698,-1.676789586,0.001008034,0,-0.3594,-2.0706,0.201,0.11803,-0.01131,-0.00294,,,,,,,,,,,,,,,,,
2025-09-12T21:31:54.349734,-0.061360184,-1.285767393,1.387377087,-1.95708098,-1.676453892,0.000601768,0,-0.061360184,-1.285767393,1.387377087,-1.95708098,-1.676453892,0.000601768,0,-0.3194,-1.7306,0.081,0.09703,-0.01431,-0.00294,,,,,,,,,,,,,,,,,
2025-09-12T21:31:54.381783,-0.061372105,-1.285757856,1.385151211,-1.958121439,-1.676047627,0.000255108,0,-0.061372105,-1.285757856,1.385151211,-1.958121439,-1.676047627,0.000255108,0,-0.4194,-1.8306,0.161,0.10103,-0.01631,-0.00194,,,,,,,,,,,,,,,,,
2025-09-12T21:31:54.413811,-0.061372105,-1.285905675,1.382383649,-1.958670755,-1.675605599,-3.18E-05,0,-0.061372105,-1.285905675,1.382383649,-1.958670755,-1.675605599,-3.18E-05,0,-0.1794,-1.9106,0.181,0.10603,-0.01331,-0.00294,,,,,,,,,,,,,,,,,
2025-09-12T21:31:54.445821,-0.061372105,-1.286206083,1.378984753,-1.959125181,-1.675200764,-0.000270669,0,-0.061372105,-1.286206083,1.378984753,-1.959125181,-1.675200764,-0.000270669,0,-0.3194,-1.7506,0.001,0.09003,-0.01631,-0.00194,,,,,,,,,,,,,,,,,
2025-09-12T21:31:54.477858,-0.061384026,-1.286579923,1.375540082,-1.959314009,-1.67492706,-0.000510041,0,-0.061384026,-1.286579923,1.375540082,-1.959314009,-1.67492706,-0.000510041,0,-0.1194,-2.1106,0.061,0.12303,-0.01631,-0.00194,,,,,,,,,,,,,,,,,
2025-09-12T21:31:54.512053,-0.061360184,-1.287147836,1.371660535,-1.959517141,-1.674663846,-0.000677888,0,-0.061360184,-1.287147836,1.371660535,-1.959517141,-1.674663846,-0.000677888,0,-0.3194,-1.8506,0.181,0.09903,-0.02031,-0.00294,,,,,,,,,,,,,,,,,
2025-09-12T21:31:54.557888,-0.061372105,-1.288451986,1.366766278,-1.959575316,-1.674185578,-0.000893418,0,-0.061372105,-1.288451986,1.366766278,-1.959575316,-1.674185578,-0.000893418,0,-0.2994,-1.8706,0.181,0.09603,-0.01331,-0.00194,,,,,,,,,,,,,,,,,
2025-09-12T21:31:54.605858,-0.061384026,-1.291097955,1.360636059,-1.959449907,-1.673720662,-0.001131837,0,-0.061384026,-1.291097955,1.360636059,-1.959449907,-1.673720662,-0.001131837,0,-0.4394,-1.8306,-0.099,0.10403,-0.01431,-0.00194,,,,,,,,,,,,,,,,,
2025-09-12T21:31:54.637925,-0.061324422,-1.293162183,1.356609646,-1.959052702,-1.673423115,-0.001227681,0,-0.061324422,-1.293162183,1.356609646,-1.959052702,-1.673423115,-0.001227681,0,-0.3194,-2.1106,-0.039,0.11103,-0.01531,-0.00194,,,,,,,,,,,,,,,,,
2025-09-12T21:31:54.669923,-0.061360184,-1.29562314,1.352497403,-1.958680769,-1.673220936,-0.001286809,0,-0.061360184,-1.29562314,1.352497403,-1.958680769,-1.673220936,-0.001286809,0,-0.2994,-1.8706,-0.199,0.09703,-0.02231,6.00E-05,,,,,,,,,,,,,,,,,
2025-09-12T21:31:54.701972,-0.061372105,-1.298312024,1.348179166,-1.958296915,-1.67300636,-0.001445119,0,-0.061372105,-1.298312024,1.348179166,-1.958296915,-1.67300636,-0.001445119,0,-0.3394,-1.8306,-0.259,0.10103,-0.01031,6.00E-05,,,,,,,,,,,,,,,,,
2025-09-12T21:31:54.734015,-0.061348263,-1.301037626,1.344196622,-1.9577414,-1.672768418,-0.001660172,0,-0.061348263,-1.301037626,1.344196622,-1.9577414,-1.672768418,-0.001660172,0,-0.2594,-2.5706,0.361,0.14703,-0.00731,6.00E-05,,,,,,,,,,,,,,,,,
2025-09-12T21:31:54.766036,-0.061348263,-1.304547624,1.339781109,-1.957018515,-1.672577683,-0.001754586,0,-0.061348263,-1.304547624,1.339781109,-1.957018515,-1.672577683,-0.001754586,0,-0.5194,-1.9906,-0.019,0.11003,-0.01731,6.00E-05,,,,,,,,,,,,,,,,,
2025-09-12T21:31:54.798049,-0.061360184,-1.308617429,1.335272137,-1.956143995,-1.672482793,-0.001960103,0,-0.061360184,-1.308617429,1.335272137,-1.956143995,-1.672482793,-0.001960103,0,-0.3394,-2.2306,-0.059,0.12103,-0.01631,-0.00294,,,,,,,,,,,,,,,,,
2025-09-12T21:31:54.830027,-0.061360184,-1.312843637,1.331039731,-1.955596109,-1.672363583,-0.002054516,0,-0.061360184,-1.312843637,1.331039731,-1.955596109,-1.672363583,-0.002054516,0,-0.3594,-2.1506,-0.059,0.11703,-0.01431,-0.00094,,,,,,,,,,,,,,,,,
2025-09-12T21:31:54.862130,-0.061360184,-1.317640142,1.326641385,-1.955065867,-1.672292058,-0.002090756,0,-0.061360184,-1.317640142,1.326641385,-1.955065867,-1.672292058,-0.002090756,0,-0.3194,-2.3506,-0.119,0.12303,-0.01831,-0.00094,,,,,,,,,,,,,,,,,
2025-09-12T21:31:54.894074,-0.061335866,-1.322697477,1.322399441,-1.954452177,-1.672170941,-0.002285782,0.012061942,-0.061335866,-1.322697477,1.322399441,-1.954452177,-1.672170941,-0.002285782,0,-0.4994,-2.4506,-0.359,0.14303,-0.01831,6.00E-05,,,,,,,,,,,,,,,,,
2025-09-12T21:31:54.942073,-0.061360184,-1.327826814,1.318250958,-1.953508993,-1.672015492,-0.002730672,0.034971345,-0.061360184,-1.327826814,1.318250958,-1.953508993,-1.672015492,-0.002730672,0,-0.3794,-2.3706,-0.419,0.13703,-0.01331,6.00E-05,,,,,,,,,,,,,,,,,
2025-09-12T21:31:54.974133,-0.061372105,-1.333206014,1.314338986,-1.952095648,-1.671777074,-0.003162686,0.045558977,-0.061372105,-1.333206014,1.314338986,-1.952095648,-1.671777074,-0.003162686,0,-0.4594,-2.5506,-0.479,0.14503,-0.00931,6.00E-05,,,,,,,,,,,,,,,,,
2025-09-12T21:31:55.006168,-0.061335866,-1.337805108,1.311159436,-1.950888296,-1.671585862,-0.003691975,0.045664853,-0.061335866,-1.337805108,1.311159436,-1.950888296,-1.671585862,-0.003691975,0,-0.4794,-2.1706,-0.699,0.10803,-0.01631,6.00E-05,,,,,,,,,,,,,,,,,
2025-09-12T21:31:55.038206,-0.061323468,-1.342151956,1.30852348,-1.948310991,-1.671297375,-0.004280392,0.045665912,-0.061323468,-1.342151956,1.30852348,-1.948310991,-1.671297375,-0.004280392,0,-0.5194,-2.4506,-0.599,0.16303,-0.03331,-0.00194,,,,,,,,,,,,,,,,,
2025-09-12T21:31:55.070226,-0.061178033,-1.346272783,1.305982892,-1.945052286,-1.670938794,-0.004928891,0.04773763,-0.061178033,-1.346272783,1.305982892,-1.945052286,-1.670938794,-0.004928891,0,-0.5394,-2.1106,-0.399,0.10803,-0.02131,0.00106,,,,,,,,,,,,,,,,,
2025-09-12T21:31:55.102189,-0.06098539,-1.350600557,1.303455655,-1.940460821,-1.670459096,-0.006089036,0.05397347,-0.06098539,-1.350600557,1.303455655,-1.940460821,-1.670459096,-0.006089036,0,-0.4394,-2.3106,-0.799,0.12303,-0.00931,6.00E-05,,,,,,,,,,,,,,,,,
2025-09-12T21:31:55.134234,-0.060734574,-1.354592161,1.301229779,-1.93471398,-1.66984779,-0.007408444,0.058179244,-0.060734574,-1.354592161,1.301229779,-1.93471398,-1.66984779,-0.007408444,0,-0.2394,-2.3906,-0.839,0.11703,-0.00931,-0.00094,,,,,,,,,,,,,,,,,
2025-09-12T21:31:55.166239,-0.060579125,-1.357981519,1.299352948,-1.928331991,-1.669190709,-0.009259526,0.056149594,-0.060579125,-1.357981519,1.299352948,-1.928331991,-1.669190709,-0.009259526,0,-0.4194,-2.6306,-1.219,0.15103,-0.00631,0.00206,,,,,,,,,,,,,,,,,
2025-09-12T21:31:55.198237,-0.060400311,-1.361325578,1.297739331,-1.920679709,-1.668500249,-0.012427632,0.060272712,-0.060400311,-1.361325578,1.297739331,-1.920679709,-1.668500249,-0.012427632,0,-0.4794,-2.3306,-0.599,0.13803,-0.01631,0.00306,,,,,,,,,,,,,,,,,
2025-09-12T21:31:55.230290,-0.060329262,-1.364415483,1.296556775,-1.913243433,-1.667905156,-0.016431157,0.068600774,-0.060329262,-1.364415483,1.296556775,-1.913243433,-1.667905156,-0.016431157,0,-0.3594,-2.7706,-0.459,0.15303,-0.00931,6.00E-05,,,,,,,,,,,,,,,,,
2025-09-12T21:31:55.262327,-0.060208623,-1.367050962,1.295711819,-1.907239576,-1.66753513,-0.021634881,0.068684055,-0.060208623,-1.367050962,1.295711819,-1.907239576,-1.66753513,-0.021634881,0,-0.4794,-2.3106,-0.719,0.12103,-0.02331,0.00306,,,,,,,,,,,,,,,,,
2025-09-12T21:31:55.294281,-0.059967343,-1.369431333,1.295419995,-1.901713987,-1.667068783,-0.028201882,0.068684887,-0.059967343,-1.369431333,1.295419995,-1.901713987,-1.667068783,-0.028201882,0,-0.4394,-2.6706,-0.499,0.15103,-0.01431,-0.00094,,,,,,,,,,,,,,,,,
2025-09-12T21:31:55.342334,-0.05963165,-1.37122138,1.295376126,-1.896924158,-1.666568104,-0.035441701,0.064541481,-0.05963165,-1.37122138,1.295376126,-1.896924158,-1.666568104,-0.035441701,0,-0.2994,-2.6306,-0.599,0.13203,-0.01531,0.00106,,,,,,,,,,,,,,,,,
2025-09-12T21:31:55.374356,-0.05933315,-1.372558431,1.295568768,-1.892726084,-1.666139428,-0.043185536,0.045854678,-0.05933315,-1.372558431,1.295568768,-1.892726084,-1.666139428,-0.043185536,0,-0.4194,-2.5906,-0.399,0.14403,-0.01031,0.00206,,,,,,,,,,,,,,,,,
2025-09-12T21:31:55.406399,-0.058984105,-1.373467283,1.296102826,-1.889915606,-1.665805165,-0.049593751,0.000458547,-0.058984105,-1.373467283,1.296102826,-1.889915606,-1.665805165,-0.049593751,0,-0.4594,-2.0106,-0.439,0.12603,-0.01331,0.00806,,,,,,,,,,,,,,,,,
2025-09-12T21:31:55.438383,-0.058611218,-1.374138193,1.296949689,-1.888280531,-1.665543381,-0.05486757,4.59E-06,-0.058611218,-1.374138193,1.296949689,-1.888280531,-1.665543381,-0.05486757,0,-0.2794,-2.2506,-0.359,0.12103,-0.00831,6.00E-05,,,,,,,,,,,,,,,,,
2025-09-12T21:31:55.470390,-0.057912175,-1.374783353,1.298300091,-1.886939665,-1.66530544,-0.059209172,4.59E-08,-0.057912175,-1.374783353,1.298300091,-1.886939665,-1.66530544,-0.059209172,0,-0.4194,-2.4306,-0.479,0.14903,-0.01631,0.00206,,,,,,,,,,,,,,,,,
2025-09-12T21:31:55.502460,-0.056938473,-1.375177221,1.299967114,-1.886294504,-1.66498119,-0.063047234,4.59E-10,-0.056938473,-1.375177221,1.299967114,-1.886294504,-1.66498119,-0.063047234,0,-0.2394,-2.5306,-0.079,0.12803,-0.00531,6.00E-05,,,,,,,,,,,,,,,,,
2025-09-12T21:31:55.534493,-0.055750672,-1.375560598,1.301492993,-1.885907789,-1.66468269,-0.06560785,4.59E-12,-0.055750672,-1.375560598,1.301492993,-1.885907789,-1.66468269,-0.06560785,0,-0.3194,-2.5106,-0.139,0.13203,-0.01831,0.00206,,,,,,,,,,,,,,,,,
2025-09-12T21:31:55.566495,-0.054491822,-1.375811414,1.302276913,-1.885388037,-1.664276425,-0.067634885,4.59E-14,-0.054491822,-1.375811414,1.302276913,-1.885388037,-1.664276425,-0.067634885,0,-0.1194,-2.4306,-0.179,0.13503,-0.00131,0.00206,,,,,,,,,,,,,,,,,
2025-09-12T21:31:55.598495,-0.053141896,-1.376122312,1.302604977,-1.884486338,-1.663906399,-0.069189374,4.59E-16,-0.053141896,-1.376122312,1.302604977,-1.884486338,-1.663906399,-0.069189374,0,-0.1394,-2.6106,-0.139,0.14003,0.00169,0.00106,,,,,,,,,,,,,,,,,
2025-09-12T21:31:55.630604,-0.05200607,-1.376412229,1.30256683,-1.883834501,-1.663487736,-0.069911305,4.59E-18,-0.05200607,-1.376412229,1.30256683,-1.883834501,-1.663487736,-0.069911305,0,-0.2194,-2.5306,-0.179,0.14103,-0.00431,0.00106,,,,,,,,,,,,,,,,,
2025-09-12T21:31:55.662586,-0.051050011,-1.376689748,1.302467648,-1.883965155,-1.66306955,-0.069895093,4.59E-20,-0.051050011,-1.376689748,1.302467648,-1.883965155,-1.66306955,-0.069895093,0,-0.2594,-2.3906,-0.059,0.12803,-0.00931,6.00E-05,,,,,,,,,,,,,,,,,
2025-09-12T21:31:55.694578,-0.050044362,-1.377279119,1.302105252,-1.88440909,-1.662569348,-0.069034402,4.59E-22,-0.050044362,-1.377279119,1.302105252,-1.88440909,-1.662569348,-0.069034402,0,-0.2994,-2.3306,-0.239,0.12703,-0.00731,0.00106,,,,,,,,,,,,,,,,,
2025-09-12T21:31:55.742612,-0.049039189,-1.377855138,1.301649396,-1.884767672,-1.662162606,-0.06685764,4.59E-24,-0.049039189,-1.377855138,1.301649396,-1.884767672,-1.662162606,-0.06685764,0,-0.2194,-2.4306,-0.399,0.13503,-0.00631,0.00106,,,,,,,,,,,,,,,,,
2025-09-12T21:31:55.774634,-0.04807121,-1.378394918,1.301218335,-1.885079523,-1.661769692,-0.063862149,4.59E-26,-0.04807121,-1.378394918,1.301218335,-1.885079523,-1.661769692,-0.063862149,0,-0.1994,-2.4106,-0.319,0.13103,-0.00531,0.00106,,,,,,,,,,,,,,,,,
2025-09-12T21:31:55.806660,-0.047355477,-1.379044847,1.300823514,-1.885135313,-1.661460225,-0.061606232,4.59E-28,-0.047355477,-1.379044847,1.300823514,-1.885135313,-1.661460225,-0.061606232,0,-0.2394,-2.4306,-0.259,0.13803,-0.00331,6.00E-05,,,,,,,,,,,,,,,,,
2025-09-12T21:31:55.838670,-0.046771351,-1.379741506,1.300331418,-1.884900709,-1.66118652,-0.05893213,4.59E-30,-0.046771351,-1.379741506,1.300331418,-1.884900709,-1.66118652,-0.05893213,0,-0.2794,-2.3506,-0.359,0.13003,-0.00931,0.00106,,,,,,,,,,,,,,,,,
2025-09-12T21:31:55.870684,-0.046244446,-1.380449609,1.299911801,-1.884268423,-1.661057774,-0.056507413,4.59E-32,-0.046244446,-1.380449609,1.299911801,-1.884268423,-1.661057774,-0.056507413,0,-0.3594,-2.3906,-0.299,0.13103,-0.01331,6.00E-05,,,,,,,,,,,,,,,,,
2025-09-12T21:31:55.902702,-0.045693223,-1.381106214,1.299455945,-1.882931372,-1.660852734,-0.054357831,4.59E-34,-0.045693223,-1.381106214,1.299455945,-1.882931372,-1.660852734,-0.054357831,0,-0.3194,-2.5106,-0.439,0.14203,-0.01431,6.00E-05,,,,,,,,,,,,,,,,,
2025-09-12T21:31:55.934696,-0.045058076,-1.381511049,1.299097363,-1.881472727,-1.660650078,-0.051705186,4.59E-36,-0.045058076,-1.381511049,1.299097363,-1.881472727,-1.660650078,-0.051705186,0,-0.2994,-2.0706,-0.479,0.11303,-0.01531,6.00E-05,,,,,,,,,,,,,,,,,
2025-09-12T21:31:55.966738,-0.044435803,-1.381749467,1.298698727,-1.878557344,-1.660555188,-0.049483601,4.59E-38,-0.044435803,-1.381749467,1.298698727,-1.878557344,-1.660555188,-0.049483601,0,-0.2594,-2.5706,-0.459,0.14903,-0.01531,-0.00094,,,,,,,,,,,,,,,,,
2025-09-12T21:31:55.998740,-0.04388601,-1.381842927,1.298019711,-1.873734137,-1.660361592,-0.047649209,4.59E-40,-0.04388601,-1.381842927,1.298019711,-1.873734137,-1.660361592,-0.047649209,0,-0.3794,-2.1306,-0.159,0.11303,-0.02231,-0.00194,,,,,,,,,,,,,,,,,
2025-09-12T21:31:56.030781,-0.043349091,-1.381793813,1.296446149,-1.865381857,-1.659904305,-0.045266453,4.59E-42,-0.043349091,-1.381793813,1.296446149,-1.865381857,-1.659904305,-0.045266453,0,-0.3794,-1.8506,-0.159,0.09203,-0.01831,-0.00294,,,,,,,,,,,,,,,,,
2025-09-12T21:31:56.062802,-0.042967621,-1.38175805,1.293657605,-1.852800985,-1.659204785,-0.043266598,4.59E-44,-0.042967621,-1.38175805,1.293657605,-1.852800985,-1.659204785,-0.043266598,0,-0.0794,-1.6906,-0.279,0.11603,-0.03531,-0.00294,,,,,,,,,,,,,,,,,
2025-09-12T21:31:56.094803,-0.042863194,-1.381697969,1.288353268,-1.833513876,-1.657789056,-0.041553799,4.59E-46,-0.042863194,-1.381697969,1.288353268,-1.833513876,-1.657789056,-0.041553799,0,-0.1794,-1.5306,0.001,0.09103,-0.01231,-0.00094,,,,,,,,,,,,,,,,,
2025-09-12T21:31:56.142832,-0.042888467,-1.381807165,1.281044308,-1.809215685,-1.656370942,-0.039919678,4.59E-48,-0.042888467,-1.381807165,1.281044308,-1.809215685,-1.656370942,-0.039919678,0,-0.6794,-3.1906,0.401,0.18403,-0.00131,6.00E-05,,,,,,,,,,,,,,,,,
2025-09-12T21:31:56.174829,-0.042840783,-1.381806211,1.272285763,-1.781890055,-1.654560868,-0.038470093,4.59E-50,-0.042840783,-1.381806211,1.272285763,-1.781890055,-1.654560868,-0.038470093,0,-0.6194,-2.7906,0.201,0.17503,-0.02531,-0.00494,,,,,,,,,,,,,,,,,
2025-09-12T21:31:56.206928,-0.042876546,-1.381818132,1.264362637,-1.75896134,-1.652882878,-0.037745778,4.59E-52,-0.042876546,-1.381818132,1.264362637,-1.75896134,-1.652882878,-0.037745778,0,-0.4994,-1.0906,-0.359,0.04003,-0.04731,-0.00394,,,,,,,,,,,,,,,,,
2025-09-12T21:31:56.238860,-0.042852704,-1.381806211,1.255548779,-1.736517092,-1.651464764,-0.037257973,4.59E-54,-0.042852704,-1.381806211,1.255548779,-1.736517092,-1.651464764,-0.037257973,0,-0.1594,-1.5506,0.021,0.10003,-0.00731,-0.00694,,,,,,,,,,,,,,,,,
2025-09-12T21:31:56.270899,-0.042852704,-1.381930189,1.246874158,-1.717880388,-1.650348488,-0.036935155,4.59E-56,-0.042852704,-1.381930189,1.246874158,-1.717880388,-1.650348488,-0.036935155,0,0.1206,-2.6506,0.101,0.19003,-0.00831,-0.00494,,,,,,,,,,,,,,,,,
2025-09-12T21:31:56.302976,-0.042816464,-1.382254438,1.238180463,-1.702324053,-1.64971954,-0.03661329,4.59E-58,-0.042816464,-1.382254438,1.238180463,-1.702324053,-1.64971954,-0.03661329,0,-0.8994,-1.6306,0.201,0.05903,-0.02631,-0.00194,,,,,,,,,,,,,,,,,
2025-09-12T21:31:56.334949,-0.042902772,-1.382518606,1.228779141,-1.687780043,-1.648918931,-0.036385838,4.59E-60,-0.042902772,-1.382518606,1.228779141,-1.687780043,-1.648918931,-0.036385838,0,-0.4194,-1.6306,0.021,0.12303,-0.02431,-0.00294,,,,,,,,,,,,,,,,,
2025-09-12T21:31:56.366980,-0.043034856,-1.382904844,1.219328229,-1.676207682,-1.648095433,-0.036094968,4.59E-62,-0.043034856,-1.382904844,1.219328229,-1.676207682,-1.648095433,-0.036094968,0,-0.4994,-1.6506,-0.279,0.07203,-0.03031,-0.00694,,,,,,,,,,,,,,,,,
2025-09-12T21:31:56.398982,-0.043178384,-1.38335164,1.212232892,-1.668116232,-1.647684399,-0.035662953,4.59E-64,-0.043178384,-1.38335164,1.212232892,-1.668116232,-1.647684399,-0.035662953,0,-0.4194,-1.7306,-0.119,0.10303,-0.00231,-0.00294,,,,,,,,,,,,,,,,,
2025-09-12T21:31:56.430947,-0.043321911,-1.384136991,1.205364529,-1.66121163,-1.647960011,-0.034978692,4.59E-66,-0.043321911,-1.384136991,1.205364529,-1.66121163,-1.647960011,-0.034978692,0,-0.3794,-1.7506,-0.139,0.10403,-0.01331,-0.00394,,,,,,,,,,,,,,,,,
2025-09-12T21:31:56.463001,-0.0435136,-1.385529832,1.200031583,-1.656369825,-1.648742024,-0.034318749,4.59E-68,-0.0435136,-1.385529832,1.200031583,-1.656369825,-1.648742024,-0.034318749,0,-0.4394,-1.3306,-0.239,0.07003,-0.02531,-0.00294,,,,,,,,,,,,,,,,,
2025-09-12T21:31:56.495007,-0.04368097,-1.387688951,1.196956937,-1.652905603,-1.649758164,-0.033563916,4.59E-70,-0.04368097,-1.387688951,1.196956937,-1.652905603,-1.649758164,-0.033563916,0,-0.4594,-1.5506,-0.459,0.09003,-0.02131,-0.00394,,,,,,,,,,,,,,,,,
2025-09-12T21:31:56.543077,-0.043763463,-1.390548543,1.195640866,-1.650269171,-1.650955979,-0.032849137,4.59E-72,-0.043763463,-1.390548543,1.195640866,-1.650269171,-1.650955979,-0.032849137,0,-0.4594,-1.8106,-0.199,0.11803,-0.01831,-0.00194,,,,,,,,,,,,,,,,,
2025-09-12T21:31:56.591059,-0.043786351,-1.395191984,1.196823422,-1.647546431,-1.653113667,-0.032205884,4.59E-74,-0.043786351,-1.395191984,1.196823422,-1.647546431,-1.653113667,-0.032205884,0,-0.1594,-2.0106,-0.199,0.11403,-0.00331,-0.00594,,,,,,,,,,,,,,,,,
2025-09-12T21:31:56.639111,-0.043610398,-1.399113492,1.199789349,-1.646775862,-1.654613797,-0.031802003,4.59E-76,-0.043610398,-1.399113492,1.199789349,-1.646775862,-1.654613797,-0.031802003,0,-0.8194,-1.4906,-0.139,0.07703,-0.04431,-0.00494,,,,,,,,,,,,,,,,,
2025-09-12T21:31:56.671122,-0.04301006,-1.401992158,1.203039471,-1.646734854,-1.65535051,-0.031767193,4.59E-78,-0.04301006,-1.401992158,1.203039471,-1.646734854,-1.65535051,-0.031767193,0,-0.4394,-1.4706,-0.219,0.07303,-0.01031,-0.00294,,,,,,,,,,,,,,,,,
2025-09-12T21:31:56.703190,-0.042240922,-1.404474573,1.206518475,-1.647100588,-1.655943696,-0.031743828,4.59E-80,-0.042240922,-1.404474573,1.206518475,-1.647100588,-1.655943696,-0.031743828,0,-0.6594,-1.7306,-0.159,0.09903,-0.03331,-0.00494,,,,,,,,,,,,,,,,,
2025-09-12T21:31:56.751180,-0.040809457,-1.407866315,1.211883847,-1.648115774,-1.656168286,-0.031550709,4.59E-82,-0.040809457,-1.407866315,1.211883847,-1.648115774,-1.656168286,-0.031550709,0,-0.3594,-1.7706,-0.059,0.09603,-0.01131,-0.00294,,,,,,,,,,,,,,,,,
2025-09-12T21:31:56.783200,-0.039198224,-1.409973935,1.215689007,-1.649384161,-1.656539265,-0.031419102,4.59E-84,-0.039198224,-1.409973935,1.215689007,-1.649384161,-1.656539265,-0.031419102,0,-0.5394,-1.4506,0.021,0.07503,-0.02431,-0.00494,,,,,,,,,,,,,,,,,
2025-09-12T21:31:56.815219,-0.03730375,-1.411998586,1.21874458,-1.650284906,-1.656836812,-0.031456772,4.59E-86,-0.03730375,-1.411998586,1.21874458,-1.650284906,-1.656836812,-0.031456772,0,-0.4394,-1.9306,0.481,0.11103,-0.02331,-0.00394,,,,,,,,,,,,,,,,,
2025-09-12T21:31:56.847260,-0.035425965,-1.41402419,1.220672909,-1.650991579,-1.656941716,-0.03146917,4.59E-88,-0.035425965,-1.41402419,1.220672909,-1.650991579,-1.656941716,-0.03146917,0,-0.3394,-1.6906,0.121,0.07803,-0.01131,-0.00294,,,,,,,,,,,,,,,,,
2025-09-12T21:31:56.879306,-0.033596818,-1.415921525,1.221613232,-1.651563784,-1.65687925,-0.031444375,4.59E-90,-0.033596818,-1.415921525,1.221613232,-1.651563784,-1.65687925,-0.031444375,0,-0.4394,-1.7706,0.221,0.09003,-0.01331,-0.00294,,,,,,,,,,,,,,,,,
2025-09-12T21:31:56.911295,-0.032054726,-1.417297201,1.221357648,-1.651689669,-1.656856362,-0.0314315,4.59E-92,-0.032054726,-1.417297201,1.221357648,-1.651689669,-1.656856362,-0.0314315,0,-0.1394,-1.7706,0.181,0.09303,0.00169,-0.00394,,,,,,,,,,,,,,,,,
2025-09-12T21:31:56.943369,-0.030719105,-1.418869333,1.220552746,-1.651699682,-1.656893555,-0.031299416,4.59E-94,-0.030719105,-1.418869333,1.220552746,-1.651699682,-1.656893555,-0.031299416,0,-0.1994,-1.6106,-0.259,0.09103,-0.01631,-0.00294,,,,,,,,,,,,,,,,,
2025-09-12T21:31:56.975491,-0.029606167,-1.420607404,1.219934765,-1.651638647,-1.657123868,-0.031227414,4.59E-96,-0.029606167,-1.420607404,1.219934765,-1.651638647,-1.657123868,-0.031227414,0,-0.4794,-1.5906,-0.259,0.09303,-0.01331,-0.00194,,,,,,,,,,,,,,,,,
2025-09-12T21:31:57.023388,-0.028014485,-1.423702554,1.220863644,-1.651446005,-1.657482449,-0.031132046,4.59E-98,-0.028014485,-1.423702554,1.220863644,-1.651446005,-1.657482449,-0.031132046,0,-0.3994,-1.2706,0.001,0.07203,-0.01031,-0.00394,,,,,,,,,,,,,,,,,
2025-09-12T21:31:57.071391,-0.026400868,-1.428626851,1.22419006,-1.651292463,-1.658045594,-0.030988518,4.59E-100,-0.026400868,-1.428626851,1.22419006,-1.651292463,-1.658045594,-0.030988518,0,-0.2594,-1.4706,-0.119,0.07403,-0.00531,-0.00194,,,,,,,,,,,,,,,,,
2025-09-12T21:31:57.119466,-0.025135342,-1.434513406,1.228756253,-1.651353975,-1.658713643,-0.030891244,4.59E-102,-0.025135342,-1.434513406,1.228756253,-1.651353975,-1.658713643,-0.030891244,0,-0.4194,-1.6906,-0.219,0.08803,-0.01731,-0.00294,,,,,,,,,,,,,,,,,
2025-09-12T21:31:57.167530,-0.02413017,-1.44021018,1.233627621,-1.651511332,-1.659092251,-0.030505482,4.59E-104,-0.02413017,-1.44021018,1.233627621,-1.651511332,-1.659092251,-0.030505482,0,-0.3394,-1.6306,-0.139,0.08403,-0.01531,-0.00294,,,,,,,,,,,,,,,,,
2025-09-12T21:31:57.215539,-0.023327176,-1.445356206,1.238746945,-1.65162911,-1.659318272,-0.030013863,4.59E-106,-0.023327176,-1.445356206,1.238746945,-1.65162911,-1.659318272,-0.030013863,0,-0.4594,-1.5106,-0.019,0.07803,-0.02331,-0.00294,,,,,,,,,,,,,,,,,
2025-09-12T21:31:57.263526,-0.022476498,-1.450338201,1.244060818,-1.651470324,-1.659484688,-0.029511754,4.59E-108,-0.022476498,-1.450338201,1.244060818,-1.651470324,-1.659484688,-0.029511754,0,-0.2794,-1.6906,-0.199,0.08503,-0.01931,-0.00494,,,,,,,,,,,,,,,,,
2025-09-12T21:31:57.311522,-0.021831814,-1.455043153,1.249830548,-1.651376387,-1.65955383,-0.029033963,4.59E-110,-0.021831814,-1.455043153,1.249830548,-1.651376387,-1.65955383,-0.029033963,0,-0.4394,-1.5506,-0.039,0.07803,-0.01831,-0.00394,,,,,,,,,,,,,,,,,
2025-09-12T21:31:57.359561,-0.021280114,-1.459540204,1.255993191,-1.651328703,-1.65919048,-0.028649632,4.59E-112,-0.021280114,-1.459540204,1.255993191,-1.651328703,-1.65919048,-0.028649632,0,-0.4194,-1.8706,-0.219,0.10503,-0.02431,-0.00394,,,,,,,,,,,,,,,,,
2025-09-12T21:31:57.407634,-0.020626847,-1.463450269,1.261688534,-1.651353975,-1.658554856,-0.028031174,4.59E-114,-0.020626847,-1.463450269,1.261688534,-1.651353975,-1.658554856,-0.028031174,0,-0.5394,-1.8106,-0.219,0.09303,-0.03331,-0.00494,,,,,,,,,,,,,,,,,
2025-09-12T21:31:57.455673,-0.019095723,-1.466484384,1.267372433,-1.651462217,-1.657759015,-0.025668923,4.59E-116,-0.019095723,-1.466484384,1.267372433,-1.651462217,-1.657759015,-0.025668923,0,-0.2794,-1.8306,-0.079,0.09403,-0.00931,-0.00694,,,,,,,,,,,,,,,,,
2025-09-12T21:31:57.503730,-0.017018143,-1.468961076,1.27318031,-1.651657244,-1.657656018,-0.021542374,4.59E-118,-0.017018143,-1.468961076,1.27318031,-1.651657244,-1.657656018,-0.021542374,0,-0.5794,-1.4506,-0.299,0.07203,-0.03331,-0.00494,,,,,,,,,,,,,,,,,
2025-09-12T21:31:57.551678,-0.014861409,-1.471149282,1.279724423,-1.652126452,-1.657533948,-0.015891377,4.59E-120,-0.014861409,-1.471149282,1.279724423,-1.652126452,-1.657533948,-0.015891377,0,-0.3994,-1.5106,-0.119,0.07603,-0.03031,-0.00794,,,,,,,,,,,,,,,,,
2025-09-12T21:31:57.599692,-0.012993638,-1.473081903,1.286501233,-1.652385374,-1.65718538,-0.010058705,4.59E-122,-0.012993638,-1.473081903,1.286501233,-1.652385374,-1.65718538,-0.010058705,0,-0.4394,-1.2906,-0.039,0.05803,-0.02331,-0.00794,,,,,,,,,,,,,,,,,
2025-09-12T21:31:57.647778,-0.011512582,-1.475679235,1.293815915,-1.65222468,-1.656658475,-0.004817311,4.59E-124,-0.011512582,-1.475679235,1.293815915,-1.65222468,-1.656658475,-0.004817311,0,-0.2994,-1.5306,-0.099,0.08903,-0.02531,-0.00794,,,,,,,,,,,,,,,,,
2025-09-12T21:31:57.695728,-0.010435883,-1.478534536,1.301025693,-1.65168347,-1.655855481,0.000439167,4.59E-126,-0.010435883,-1.478534536,1.301025693,-1.65168347,-1.655855481,0.000439167,0,-0.4794,-1.3306,-0.139,0.06603,-0.02031,-0.01194,,,,,,,,,,,,,,,,,
2025-09-12T21:31:57.743802,-0.009647195,-1.481354074,1.308862988,-1.651180407,-1.654816453,0.006057739,4.59E-128,-0.009647195,-1.481354074,1.308862988,-1.651180407,-1.654816453,0.006057739,0,-0.3594,-1.3506,-0.079,0.06603,-0.01731,-0.00794,,,,,,,,,,,,,,,,,
2025-09-12T21:31:57.791888,-0.009000603,-1.484133081,1.317507092,-1.650736471,-1.653852288,0.011825085,4.59E-130,-0.009000603,-1.484133081,1.317507092,-1.650736471,-1.653852288,0.011825085,0,-0.4994,-0.9506,-0.219,0.03803,-0.02231,-0.00594,,,,,,,,,,,,,,,,,
2025-09-12T21:31:57.839922,-0.008559529,-1.486726121,1.327760998,-1.650303503,-1.653234307,0.018690109,4.59E-132,-0.008559529,-1.486726121,1.327760998,-1.650303503,-1.653234307,0.018690109,0,-0.6194,-1.3306,0.061,0.07203,-0.02031,-0.00694,,,,,,,,,,,,,,,,,
2025-09-12T21:31:57.887873,-0.008309189,-1.489323453,1.338533703,-1.649749895,-1.652780835,0.02585268,4.59E-134,-0.008309189,-1.489323453,1.338533703,-1.649749895,-1.652780835,0.02585268,0,-0.5394,-1.1506,-0.339,0.06203,-0.03631,-0.00794,,,,,,,,,,,,,,,,,
2025-09-12T21:31:57.935963,-0.008201901,-1.491287069,1.349947278,-1.649066587,-1.652363125,0.033401489,4.59E-136,-0.008201901,-1.491287069,1.349947278,-1.649066587,-1.652363125,0.033401489,0,-0.5394,-1.3906,0.201,0.07603,-0.02831,-0.00794,,,,,,,,,,,,,,,,,
2025-09-12T21:31:57.983931,-0.008094136,-1.492983179,1.360704724,-1.648673674,-1.651947323,0.040774345,4.59E-138,-0.008094136,-1.492983179,1.360704724,-1.648673674,-1.651947323,0.040774345,0,-0.5794,-0.9706,-0.399,0.04903,-0.02431,-0.00694,,,,,,,,,,,,,,,,,
2025-09-12T21:31:58.031938,-0.007950131,-1.493546323,1.371435467,-1.648326536,-1.651792351,0.047531128,4.59E-140,-0.007950131,-1.493546323,1.371435467,-1.648326536,-1.651792351,0.047531128,0,-0.6394,-1.2906,-0.239,0.07503,-0.03431,-0.00994,,,,,,,,,,,,,,,,,
2025-09-12T21:31:58.079970,-0.007842366,-1.493106679,1.382166211,-1.648148676,-1.651519601,0.053224087,4.59E-142,-0.007842366,-1.493106679,1.382166211,-1.648148676,-1.651519601,0.053224087,0,-0.5194,-1.1306,-0.159,0.06203,-0.03131,-0.00994,,,,,,,,,,,,,,,,,
2025-09-12T21:31:58.128033,-0.007758919,-1.492191152,1.392883603,-1.648344179,-1.651566807,0.057733059,4.59E-144,-0.007758919,-1.492191152,1.392883603,-1.648344179,-1.651566807,0.057733059,0,-0.6194,-0.9906,0.141,0.05003,-0.02531,-0.00894,,,,,,,,,,,,,,,,,
2025-09-12T21:31:58.176026,-0.007771794,-1.490874605,1.402960126,-1.648828646,-1.65134937,0.061435699,4.59E-146,-0.007771794,-1.490874605,1.402960126,-1.648828646,-1.65134937,0.061435699,0,-0.5994,-1.2706,-0.239,0.08503,-0.03731,-0.00894,,,,,,,,,,,,,,,,,
2025-09-12T21:31:58.224135,-0.007869546,-1.488150911,1.411806409,-1.64946427,-1.650944058,0.063783646,4.59E-148,-0.007869546,-1.488150911,1.411806409,-1.64946427,-1.650944058,0.063783646,0,-0.4794,-1.2906,0.221,0.07003,-0.03931,-0.01094,,,,,,,,,,,,,,,,,
2025-09-12T21:31:58.272100,-0.008038346,-1.484699563,1.418951337,-1.650270601,-1.650585953,0.065795422,4.59E-150,-0.008038346,-1.484699563,1.418951337,-1.650270601,-1.650585953,0.065795422,0,-0.5794,-0.9106,-0.279,0.05303,-0.02831,-0.00994,,,,,,,,,,,,,,,,,
2025-09-12T21:31:58.320150,-0.008265797,-1.480607824,1.425501172,-1.651075026,-1.650275056,0.067035198,4.59E-152,-0.008265797,-1.480607824,1.425501172,-1.651075026,-1.650275056,0.067035198,0,-0.5994,-0.8506,0.461,0.05403,-0.02931,-0.00994,,,,,,,,,,,,,,,,,
2025-09-12T21:31:58.368165,-0.008445565,-1.476514654,1.430765454,-1.652231833,-1.650012795,0.067712784,4.59E-154,-0.008445565,-1.476514654,1.430765454,-1.652231833,-1.650012795,0.067712784,0,-0.6594,-0.6706,0.121,0.03803,-0.03931,-0.01094,,,,,,,,,,,,,,,,,
2025-09-12T21:31:58.416181,-0.008673493,-1.471949415,1.435159985,-1.653391501,-1.649677579,0.068116188,4.59E-156,-0.008673493,-1.471949415,1.435159985,-1.653391501,-1.649677579,0.068116188,0,-0.6394,-0.7706,0.001,0.04303,-0.04431,-0.00894,,,,,,,,,,,,,,,,,
2025-09-12T21:31:58.464230,-0.008890454,-1.466689901,1.438331906,-1.654510637,-1.649283711,0.068126202,4.59E-158,-0.008890454,-1.466689901,1.438331906,-1.654510637,-1.649283711,0.068126202,0,-0.5594,-0.9706,-0.159,0.06403,-0.03931,-0.00894,,,,,,,,,,,,,,,,,
2025-09-12T21:31:58.512238,-0.009225194,-1.459716634,1.440069501,-1.656345984,-1.648877923,0.067845821,4.59E-160,-0.009225194,-1.459716634,1.440069501,-1.656345984,-1.648877923,0.067845821,0,-0.6194,-0.7106,0.341,0.04703,-0.04731,-0.00794,,,,,,,,,,,,,,,,,
2025-09-12T21:31:58.560309,-0.009319607,-1.451994256,1.440143887,-1.658471724,-1.648559395,0.067167282,4.59E-162,-0.009319607,-1.451994256,1.440143887,-1.658471724,-1.648559395,0.067167282,0,-0.4794,-1.1306,0.101,0.06803,-0.02531,-0.00994,,,,,,,,,,,,,,,,,
2025-09-12T21:31:58.608317,-0.009586159,-1.443201856,1.438694302,-1.661747118,-1.648742978,0.065569401,4.59E-164,-0.009586159,-1.443201856,1.438694302,-1.661747118,-1.648742978,0.065569401,0,-0.6194,-0.7706,0.101,0.04203,-0.04231,-0.00794,,,,,,,,,,,,,,,,,
2025-09-12T21:31:58.656312,-0.010022942,-1.433314161,1.435821835,-1.665011545,-1.649161641,0.063784122,4.59E-166,-0.010022942,-1.433314161,1.435821835,-1.665011545,-1.649161641,0.063784122,0,-0.5994,-0.7506,-0.199,0.03703,-0.03231,-0.00694,,,,,,,,,,,,,,,,,
2025-09-12T21:31:58.704370,-0.011156861,-1.421085672,1.430935208,-1.667986055,-1.64967281,0.062419415,4.59E-168,-0.011156861,-1.421085672,1.430935208,-1.667986055,-1.64967281,0.062419415,0,-0.5994,-0.5106,0.301,0.02703,-0.04731,-0.00694,,,,,,,,,,,,,,,,,
2025-09-12T21:31:58.752405,-0.012964074,-1.407777147,1.424478833,-1.670542379,-1.649853055,0.062151909,4.59E-170,-0.012964074,-1.407777147,1.424478833,-1.670542379,-1.649853055,0.062151909,0,-0.3994,-1.0506,0.341,0.07103,-0.01831,-0.00594,,,,,,,,,,,,,,,,,
2025-09-12T21:31:58.800464,-0.015841786,-1.392781572,1.416069333,-1.673950335,-1.65018398,0.062601566,4.59E-172,-0.015841786,-1.392781572,1.416069333,-1.673950335,-1.65018398,0.062601566,0,-0.3594,-1.1506,0.581,0.08203,-0.01131,-0.00494,,,,,,,,,,,,,,,,,
2025-09-12T21:31:58.848466,-0.019557778,-1.377899007,1.40687019,-1.678714891,-1.650220696,0.063541412,4.59E-174,-0.019557778,-1.377899007,1.40687019,-1.678714891,-1.650220696,0.063541412,0,0.0206,-0.9906,-0.139,0.06403,0.03369,-0.00494,,,,,,,,,,,,,,,,,
2025-09-12T21:31:58.896504,-0.024604146,-1.362105684,1.397802655,-1.685995241,-1.650680367,0.064494133,4.59E-176,-0.024604146,-1.362105684,1.397802655,-1.685995241,-1.650680367,0.064494133,0,-0.5194,-0.5706,0.181,0.03103,-0.02331,-0.00394,,,,,,,,,,,,,,,,,
2025-09-12T21:31:58.944516,-0.029958073,-1.346779184,1.389688794,-1.695118567,-1.65175945,0.064852715,4.59E-178,-0.029958073,-1.346779184,1.389688794,-1.695118567,-1.65175945,0.064852715,0,-0.5594,-0.3106,-0.199,0.02603,-0.03931,-0.00494,,,,,,,,,,,,,,,,,
2025-09-12T21:31:58.992591,-0.035671536,-1.331105546,1.381752316,-1.704092165,-1.652721707,0.063907146,4.59E-180,-0.035671536,-1.331105546,1.381752316,-1.704092165,-1.652721707,0.063907146,0,-0.4594,-0.0706,0.641,-0.00797,-0.01731,-0.00694,,,,,,,,,,,,,,,,,
2025-09-12T21:31:59.040634,-0.042032067,-1.315916852,1.373688046,-1.711627623,-1.653472249,0.062124252,4.59E-182,-0.042032067,-1.315916852,1.373688046,-1.711627623,-1.653472249,0.062124252,0,-0.4794,-0.3506,-0.219,0.01603,-0.04331,-0.00494,,,,,,,,,,,,,,,,,
2025-09-12T21:31:59.088615,-0.048112694,-1.302076177,1.365982358,-1.716872355,-1.653949086,0.060791492,4.59E-184,-0.048112694,-1.302076177,1.365982358,-1.716872355,-1.653949086,0.060791492,0,-0.4794,-0.0906,0.061,3.00E-05,-0.01731,-0.00394,,,,,,,,,,,,,,,,,
2025-09-12T21:31:59.136685,-0.053981129,-1.288060979,1.358579938,-1.7206737,-1.654608552,0.058898926,4.59E-186,-0.053981129,-1.288060979,1.358579938,-1.7206737,-1.654608552,0.058898926,0,-0.6594,-0.2106,-0.079,0.01003,-0.04831,-0.00494,,,,,,,,,,,,,,,,,
2025-09-12T21:31:59.184671,-0.058865849,-1.274702863,1.352192227,-1.723695417,-1.655590359,0.05729723,4.59E-188,-0.058865849,-1.274702863,1.352192227,-1.723695417,-1.655590359,0.05729723,0,-1.0794,-0.0706,0.341,-0.00297,-0.06631,-0.00294,,,,,,,,,,,,,,,,,
2025-09-12T21:31:59.232718,-0.062663857,-1.262968854,1.347475354,-1.72636952,-1.656400983,0.055839062,4.59E-190,-0.062663857,-1.262968854,1.347475354,-1.72636952,-1.656400983,0.055839062,0,-0.6394,0.3294,0.361,-0.03397,-0.03631,-0.00594,,,,,,,,,,,,,,,,,
2025-09-12T21:31:59.280695,-0.06567413,-1.25401719,1.344831769,-1.728340765,-1.657380406,0.054993629,4.59E-192,-0.06567413,-1.25401719,1.344831769,-1.728340765,-1.657380406,0.054993629,0,-0.2794,-0.1106,0.401,0.00503,-0.01631,-0.00394,,,,,,,,,,,,,,,,,
2025-09-12T21:31:59.328768,-0.068538014,-1.246849374,1.343868558,-1.730499884,-1.658502881,0.05420351,4.59E-194,-0.068538014,-1.246849374,1.343868558,-1.730499884,-1.658502881,0.05420351,0,-0.3394,-0.0106,-0.039,-0.00697,-0.01931,-0.00394,,,,,,,,,,,,,,,,,
2025-09-12T21:31:59.376749,-0.071780984,-1.24163516,1.344904248,-1.732244631,-1.659250085,0.053606033,4.59E-196,-0.071780984,-1.24163516,1.344904248,-1.732244631,-1.659250085,0.053606033,0,0.1006,-0.1706,0.381,0.00303,0.01269,-0.00394,,,,,,,,,,,,,,,,,
2025-09-12T21:31:59.424859,-0.076649491,-1.237923936,1.347133938,-1.733755251,-1.659556214,0.053054333,4.59E-198,-0.076649491,-1.237923936,1.347133938,-1.733755251,-1.659556214,0.053054333,0,0.4606,-0.2506,0.261,0.01003,0.02369,-0.00394,,,,,,,,,,,,,,,,,
2025-09-12T21:31:59.472844,-0.083779637,-1.235818223,1.349926297,-1.734907766,-1.659747426,0.05216074,4.59E-200,-0.083779637,-1.235818223,1.349926297,-1.734907766,-1.659747426,0.05216074,0,-0.5194,-0.1706,0.341,-0.00097,-0.02631,-0.00094,,,,,,,,,,,,,,,,,
2025-09-12T21:31:59.520870,-0.091892068,-1.234652833,1.352730099,-1.736017843,-1.659817998,0.049702168,4.59E-202,-0.091892068,-1.234652833,1.352730099,-1.736017843,-1.659817998,0.049702168,0,-0.0794,-0.2106,0.321,0.00903,-0.01031,-0.00294,,,,,,,,,,,,,,,,,
2025-09-12T21:31:59.568841,-0.100107495,-1.234166936,1.354833905,-1.736528536,-1.659889046,0.042294025,4.59E-204,-0.100107495,-1.234166936,1.354833905,-1.736528536,-1.659889046,0.042294025,0,-0.4394,-0.0306,0.241,-0.00097,-0.02931,-0.00394,,,,,,,,,,,,,,,,,
2025-09-12T21:31:59.616940,-0.107548062,-1.234160261,1.35665733,-1.736682077,-1.659708325,0.030377865,4.59E-206,-0.107548062,-1.234160261,1.35665733,-1.736682077,-1.659708325,0.030377865,0,-0.5394,-0.0106,0.301,-0.00997,-0.02031,0.00106,,,,,,,,,,,,,,,,,
2025-09-12T21:31:59.664969,-0.113983933,-1.234547452,1.358635251,-1.736716887,-1.659587685,0.013109207,4.59E-208,-0.113983933,-1.234547452,1.358635251,-1.736716887,-1.659587685,0.013109207,0,-0.6994,-0.1106,0.341,-0.00597,-0.02631,-0.00094,,,,,,,,,,,,,,,,,
2025-09-12T21:31:59.712972,-0.119003121,-1.235328512,1.360603635,-1.736557146,-1.659410779,-0.005574528,4.59E-210,-0.119003121,-1.235328512,1.360603635,-1.736557146,-1.659410779,-0.005574528,0,-0.4594,-0.0706,0.281,-0.00197,-0.01631,-0.00194,,,,,,,,,,,,,,,,,
2025-09-12T21:31:59.760994,-0.123150174,-1.236468152,1.362896268,-1.736074587,-1.659387414,-0.026629273,4.59E-212,-0.123150174,-1.236468152,1.362896268,-1.736074587,-1.659387414,-0.026629273,0,-0.4794,-0.0706,0.281,0.00603,-0.02231,-0.00094,,,,,,,,,,,,,,,,,
2025-09-12T21:31:59.809019,-0.12608606,-1.237603502,1.364895169,-1.735304495,-1.65938789,-0.045709435,4.59E-214,-0.12608606,-1.237603502,1.364895169,-1.735304495,-1.65938789,-0.045709435,0,-0.7394,0.1294,0.201,-0.01197,-0.04031,6.00E-05,,,,,,,,,,,,,,,,,
2025-09-12T21:31:59.857110,-0.128248517,-1.238570051,1.366653744,-1.734371325,-1.659436051,-0.067381684,4.59E-216,-0.128248517,-1.238570051,1.366653744,-1.734371325,-1.659436051,-0.067381684,0,-0.3394,-0.1306,0.281,0.00703,-0.01131,6.00E-05,,,,,,,,,,,,,,,,,
2025-09-12T21:31:59.905141,-0.129931752,-1.239260988,1.368028943,-1.733603617,-1.659521405,-0.09092981,4.59E-218,-0.129931752,-1.239260988,1.368028943,-1.733603617,-1.659521405,-0.09092981,0,-0.4994,-0.0306,0.341,0.00303,-0.01131,0.01006,,,,,,,,,,,,,,,,,
2025-09-12T21:31:59.953137,-0.1308592,-1.239738302,1.36897308,-1.732812067,-1.659797017,-0.117759053,4.59E-220,-0.1308592,-1.239738302,1.36897308,-1.732812067,-1.659797017,-0.117759053,0,-0.3194,-0.0306,0.241,-0.00497,-0.01331,6.00E-05,,,,,,,,,,,,,,,,,
2025-09-12T21:32:00.001162,-0.131286923,-1.240070657,1.369627301,-1.732113977,-1.660157029,-0.145326916,4.59E-222,-0.131286923,-1.240070657,1.369627301,-1.732113977,-1.660157029,-0.145326916,0,-0.2594,-0.0706,0.321,0.00503,-0.01031,-0.00294,,,,,,,,,,,,,,,,,
2025-09-12T21:32:00.049172,-0.1314171,-1.240152673,1.369545285,-1.732539793,-1.660744969,-0.173280541,4.59E-224,-0.1314171,-1.240152673,1.369545285,-1.732539793,-1.660744969,-0.173280541,0,-0.1194,0.1094,0.261,-0.00497,-0.00531,6.00E-05,,,,,,,,,,,,,,,,,
2025-09-12T21:32:00.097249,-0.131526772,-1.240151243,1.368662182,-1.733225008,-1.662168805,-0.202177827,4.59E-226,-0.131526772,-1.240151243,1.368662182,-1.733225008,-1.662168805,-0.202177827,0,0.1806,0.0494,0.261,-0.00297,0.01169,0.00706,,,,,,,,,,,,,,,,,
2025-09-12T21:32:00.145224,-0.131924931,-1.23992093,1.367206875,-1.734066626,-1.664383713,-0.227559868,4.59E-228,-0.131924931,-1.23992093,1.367206875,-1.734066626,-1.664383713,-0.227559868,0,0.1406,0.2294,0.161,-0.01797,0.00969,0.00406,,,,,,,,,,,,,,,,,
2025-09-12T21:32:00.193255,-0.132467572,-1.239319639,1.365309064,-1.735211512,-1.668194119,-0.253606145,4.59E-230,-0.132467572,-1.239319639,1.365309064,-1.735211512,-1.668194119,-0.253606145,0,0.3606,0.2094,0.001,-0.01397,0.02569,0.00406,,,,,,,,,,,,,,,,,
2025-09-12T21:32:00.241287,-0.133856122,-1.238600091,1.363344494,-1.736546656,-1.672170464,-0.281148736,4.59E-232,-0.133856122,-1.238600091,1.363344494,-1.736546656,-1.672170464,-0.281148736,0,0.5406,0.4094,-0.079,-0.02297,0.05169,0.00506,,,,,,,,,,,,,,,,,
2025-09-12T21:32:00.289301,-0.136070077,-1.237456159,1.361740414,-1.737374445,-1.676462952,-0.308827702,4.59E-234,-0.136070077,-1.237456159,1.361740414,-1.737374445,-1.676462952,-0.308827702,0,0.1606,0.2494,-0.139,-0.01097,0.00669,0.00606,,,,,,,,,,,,,,,,,
2025-09-12T21:32:00.337336,-0.139057938,-1.235451536,1.360548321,-1.738481184,-1.679552857,-0.335728947,4.59E-236,-0.139057938,-1.235451536,1.360548321,-1.738481184,-1.679552857,-0.335728947,0,0.2606,0.2094,0.121,-0.00497,0.00969,0.00906,,,,,,,,,,,,,,,,,
2025-09-12T21:32:00.385396,-0.142159764,-1.233601407,1.359735791,-1.739699503,-1.682516877,-0.357811276,4.59E-238,-0.142159764,-1.233601407,1.359735791,-1.739699503,-1.682516877,-0.357811276,0,-0.2194,0.2494,0.121,-0.01397,-0.00231,0.00806,,,,,,,,,,,,,,,,,
2025-09-12T21:32:00.433523,-0.145250146,-1.231808023,1.359358136,-1.740378996,-1.684463803,-0.376410309,4.59E-240,-0.145250146,-1.231808023,1.359358136,-1.740378996,-1.684463803,-0.376410309,0,0.0606,0.3694,0.021,-0.01697,-0.00031,0.01206,,,,,,,,,,,,,,,,,
2025-09-12T21:32:00.481434,-0.148285691,-1.230006055,1.359358136,-1.740943571,-1.686231438,-0.390518014,4.59E-242,-0.148285691,-1.230006055,1.359358136,-1.740943571,-1.686231438,-0.390518014,0,0.4406,0.2094,-0.179,-0.01697,0.02469,0.01306,,,,,,,,,,,,,,,,,
2025-09-12T21:32:00.529489,-0.152051274,-1.226970033,1.359358136,-1.741642138,-1.687418286,-0.400863949,4.59E-244,-0.152051274,-1.226970033,1.359358136,-1.741642138,-1.687418286,-0.400863949,0,-0.0394,0.2494,0.281,-0.00997,0.00169,0.00806,,,,,,,,,,,,,,,,,
2025-09-12T21:32:00.577514,-0.156334225,-1.223406629,1.359100644,-1.743118425,-1.688250844,-0.407964532,4.59E-246,-0.156334225,-1.223406629,1.359100644,-1.743118425,-1.688250844,-0.407964532,0,0.2006,0.0494,-0.099,0.00203,0.00869,0.01006,,,,,,,,,,,,,,,,,
2025-09-12T21:32:00.625600,-0.160591427,-1.218680219,1.358234708,-1.746325632,-1.688894574,-0.412860696,4.59E-248,-0.160591427,-1.218680219,1.358234708,-1.746325632,-1.688894574,-0.412860696,0,0.7406,-0.0706,0.101,0.02503,0.04369,0.01206,,,,,,,,,,,,,,,,,
2025-09-12T21:32:00.673624,-0.16461641,-1.213430242,1.357006375,-1.751759668,-1.689587418,-0.416070286,4.59E-250,-0.16461641,-1.213430242,1.357006375,-1.751759668,-1.689587418,-0.416070286,0,0.2806,0.2294,0.081,-0.00597,0.00269,0.01606,,,,,,,,,,,,,,,,,
2025-09-12T21:32:00.721689,-0.168227021,-1.207595662,1.355455701,-1.759264132,-1.69017059,-0.41857845,4.59E-252,-0.168227021,-1.207595662,1.355455701,-1.759264132,-1.69017059,-0.41857845,0,0.1206,0.3894,0.261,-0.02897,0.00269,0.01606,,,,,,,,,,,,,,,,,
2025-09-12T21:32:00.769623,-0.172070328,-1.201805906,1.353666608,-1.766924997,-1.690588299,-0.420234028,4.59E-254,-0.172070328,-1.201805906,1.353666608,-1.766924997,-1.690588299,-0.420234028,0,0.2206,0.5694,-0.039,-0.04097,0.01269,0.01506,,,,,,,,,,,,,,,,,
2025-09-12T21:32:00.817682,-0.176486317,-1.19518836,1.351320569,-1.773732325,-1.691137616,-0.420914952,4.59E-256,-0.176486317,-1.19518836,1.351320569,-1.773732325,-1.691137616,-0.420914952,0,0.2006,0.1694,0.361,-0.01597,-0.00031,0.01606,,,,,,,,,,,,,,,,,
2025-09-12T21:32:00.865747,-0.180791203,-1.188351945,1.348270718,-1.779382845,-1.691421811,-0.420474354,4.59E-258,-0.180791203,-1.188351945,1.348270718,-1.779382845,-1.691421811,-0.420474354,0,0.4006,0.5094,-0.119,-0.02697,0.01369,0.01706,,,,,,,,,,,,,,,,,
2025-09-12T21:32:00.913778,-0.185106579,-1.181632356,1.344847027,-1.783762594,-1.691671673,-0.419318501,4.59E-260,-0.185106579,-1.181632356,1.344847027,-1.783762594,-1.691671673,-0.419318501,0,0.2406,0.0294,0.221,0.00703,0.00969,0.01806,,,,,,,,,,,,,,,,,
2025-09-12T21:32:00.961719,-0.189123933,-1.174927072,1.340862576,-1.787061354,-1.691825215,-0.417455975,4.59E-262,-0.189123933,-1.174927072,1.340862576,-1.787061354,-1.691825215,-0.417455975,0,0.2806,-0.0306,0.161,0.00103,0.00269,0.02106,,,,,,,,,,,,,,,,,
2025-09-12T21:32:01.009812,-0.193517987,-1.168256597,1.336334531,-1.789639612,-1.69176418,-0.415112797,4.59E-264,-0.193517987,-1.168256597,1.336334531,-1.789639612,-1.69176418,-0.415112797,0,0.0406,0.2694,0.221,-0.02097,-0.00931,0.02006,,,,,,,,,,,,,,,,,
2025-09-12T21:32:01.057809,-0.198257271,-1.16221507,1.331754986,-1.791848799,-1.691498105,-0.411734406,4.59E-266,-0.198257271,-1.16221507,1.331754986,-1.791848799,-1.691498105,-0.411734406,0,0.2806,0.4894,0.041,-0.02597,0.01569,0.01806,,,,,,,,,,,,,,,,,
2025-09-12T21:32:01.105800,-0.203291718,-1.156677083,1.327261273,-1.793630739,-1.691150967,-0.405811612,4.59E-268,-0.203291718,-1.156677083,1.327261273,-1.793630739,-1.691150967,-0.405811612,0,0.2406,-0.2706,0.421,0.01303,0.01269,0.01906,,,,,,,,,,,,,,,,,
2025-09-12T21:32:01.153933,-0.208027188,-1.151252107,1.322691266,-1.797151228,-1.690746609,-0.396904771,4.59E-270,-0.208027188,-1.151252107,1.322691266,-1.797151228,-1.690746609,-0.396904771,0,0.4806,-0.1106,-0.059,0.01003,0.03669,0.01806,,,,,,,,,,,,,,,,,
2025-09-12T21:32:01.201929,-0.21330816,-1.145469503,1.318327252,-1.803391119,-1.690570656,-0.385443989,4.59E-272,-0.21330816,-1.145469503,1.318327252,-1.803391119,-1.690570656,-0.385443989,0,0.2606,-0.0306,0.141,-0.00297,0.00469,0.02106,,,,,,,,,,,,,,,,,
2025-09-12T21:32:01.249895,-0.219276253,-1.139838056,1.314306561,-1.811270376,-1.690560166,-0.372428719,4.59E-274,-0.219276253,-1.139838056,1.314306561,-1.811270376,-1.690560166,-0.372428719,0,0.0406,0.1494,0.201,-0.00897,0.01769,0.01506,,,,,,,,,,,,,,,,,
2025-09-12T21:32:01.297943,-0.224084202,-1.135678605,1.311304394,-1.818239828,-1.690681283,-0.360848252,4.59E-276,-0.224084202,-1.135678605,1.311304394,-1.818239828,-1.690681283,-0.360848252,0,0.0206,0.2694,0.361,-0.02597,0.01669,0.02006,,,,,,,,,,,,,,,,,
2025-09-12T21:32:01.346044,-0.228820149,-1.131759481,1.308595959,-1.825122496,-1.690870587,-0.348851983,4.59E-278,-0.228820149,-1.131759481,1.308595959,-1.825122496,-1.690870587,-0.348851983,0,0.2806,-0.0306,0.161,-0.00097,0.03069,0.01106,,,,,,,,,,,,,,,,,
2025-09-12T21:32:01.393972,-0.233501736,-1.12794383,1.305960004,-1.830767771,-1.690977399,-0.335015599,4.59E-280,-0.233501736,-1.12794383,1.305960004,-1.830767771,-1.690977399,-0.335015599,0,-0.0194,-0.1706,0.161,0.00903,0.02169,0.01206,,,,,,,,,,,,,,,,,
2025-09-12T21:32:01.441999,-0.238169018,-1.124369459,1.30357391,-1.834830423,-1.690939728,-0.318914239,4.59E-282,-0.238169018,-1.124369459,1.30357391,-1.834830423,-1.690939728,-0.318914239,0,0.4806,0.1494,0.121,-0.01797,0.01669,0.01506,,,,,,,,,,,,,,,,,
2025-09-12T21:32:01.490037,-0.24311382,-1.120906667,1.301237408,-1.837975641,-1.690660302,-0.30121309,4.59E-284,-0.24311382,-1.120906667,1.301237408,-1.837975641,-1.690660302,-0.30121309,0,-0.2794,0.4494,0.241,-0.03297,-0.00831,0.01406,,,,,,,,,,,,,,,,,
2025-09-12T21:32:01.538089,-0.247931306,-1.117896871,1.299118344,-1.840178629,-1.689793412,-0.283582989,4.59E-286,-0.247931306,-1.117896871,1.299118344,-1.840178629,-1.689793412,-0.283582989,0,0.0406,0.1094,0.041,-0.01397,0.00669,0.01306,,,,,,,,,,,,,,,,,
2025-09-12T21:32:01.586135,-0.252137009,-1.1147054,1.297298733,-1.841394087,-1.68853933,-0.268386189,4.59E-288,-0.252137009,-1.1147054,1.297298733,-1.841394087,-1.68853933,-0.268386189,0,-0.0994,-0.2706,0.421,0.01503,0.00769,0.00806,,,,,,,,,,,,,,,,,
2025-09-12T21:32:01.634201,-0.255658929,-1.111898736,1.295534436,-1.842760225,-1.6874674,-0.255845372,4.59E-290,-0.255658929,-1.111898736,1.295534436,-1.842760225,-1.6874674,-0.255845372,0,-0.1794,-0.2306,0.081,0.00503,-0.00931,0.01206,,,,,,,,,,,,,,,,,
2025-09-12T21:32:01.682191,-0.25858957,-1.108886556,1.293649975,-1.843350073,-1.686332528,-0.246436421,4.59E-292,-0.25858957,-1.108886556,1.293649975,-1.843350073,-1.686332528,-0.246436421,0,0.3406,-0.5106,0.401,0.03303,0.02969,0.00706,,,,,,,,,,,,,,,,,
2025-09-12T21:32:01.730200,-0.261606042,-1.106186704,1.291649167,-1.843637606,-1.685258691,-0.238481824,4.59E-294,-0.261606042,-1.106186704,1.291649167,-1.843637606,-1.685258691,-0.238481824,0,0.1006,-0.2106,-0.159,0.01103,0.00569,0.00906,,,,,,,,,,,,,,,,,
2025-09-12T21:32:01.778279,-0.265185658,-1.102960424,1.289888684,-1.843708654,-1.684294526,-0.231109921,4.59E-296,-0.265185658,-1.102960424,1.289888684,-1.843708654,-1.684294526,-0.231109921,0,-0.0594,-0.3106,0.381,0.01703,-0.00331,0.00706,,,,,,,,,,,,,,,,,
2025-09-12T21:32:01.826284,-0.26804239,-1.100646333,1.288206402,-1.843818327,-1.683371846,-0.226394002,4.59E-298,-0.26804239,-1.100646333,1.288206402,-1.843818327,-1.683371846,-0.226394002,0,0.0206,-0.1906,-0.119,0.00903,-0.00431,0.00806,,,,,,,,,,,,,,,,,
2025-09-12T21:32:01.874265,-0.270970647,-1.097985105,1.286581341,-1.844057699,-1.68207008,-0.222301308,4.59E-300,-0.270970647,-1.097985105,1.286581341,-1.844057699,-1.68207008,-0.222301308,0,-0.2394,-0.2706,0.401,0.01503,-0.01231,0.00906,,,,,,,,,,,,,,,,,
2025-09-12T21:32:01.922312,-0.273225133,-1.096071081,1.28545982,-1.844333788,-1.681047742,-0.220736329,4.59E-302,-0.273225133,-1.096071081,1.28545982,-1.844333788,-1.681047742,-0.220736329,0,-0.0394,-0.3106,0.061,0.01403,0.00469,0.00806,,,,,,,,,,,,,,,,,
2025-09-12T21:32:01.970354,-0.274945561,-1.094417409,1.284681622,-1.844525476,-1.680272881,-0.220089738,4.59E-304,-0.274945561,-1.094417409,1.284681622,-1.844525476,-1.680272881,-0.220089738,0,-0.2194,-0.2906,0.221,0.01203,-0.00931,0.00706,,,,,,,,,,,,,,,,,
2025-09-12T21:32:02.018384,-0.276163403,-1.09260066,1.283764187,-1.844729086,-1.679690186,-0.220262353,4.59E-306,-0.276163403,-1.09260066,1.283764187,-1.844729086,-1.679690186,-0.220262353,0,-0.1194,-0.5106,0.081,0.02803,0.00269,0.00706,,,,,,,,,,,,,,,,,
2025-09-12T21:32:02.066382,-0.277036492,-1.089841203,1.281845395,-1.844931742,-1.679261033,-0.220792119,4.59E-308,-0.277036492,-1.089841203,1.281845395,-1.844931742,-1.679261033,-0.220792119,0,0.0606,-0.5106,0.041,0.03003,0.00369,0.00706,,,,,,,,,,,,,,,,,
2025-09-12T21:32:02.114460,-0.277934853,-1.086036996,1.279203717,-1.845099588,-1.678926293,-0.221341435,4.58546781985706e-310,-0.277934853,-1.086036996,1.279203717,-1.845099588,-1.678926293,-0.221341435,0,-0.2194,-0.3906,-0.019,0.02003,-0.01131,0.00906,,,,,,,,,,,,,,,,,
2025-09-12T21:32:02.162424,-0.278554265,-1.081017331,1.275751416,-1.845173021,-1.678474728,-0.221891705,4.585467819856e-312,-0.278554265,-1.081017331,1.275751416,-1.845173021,-1.678474728,-0.221891705,0,0.0006,-0.4906,0.321,0.03003,-0.00031,0.00706,,,,,,,,,,,,,,,,,
2025-09-12T21:32:02.210502,-0.278766457,-1.075940923,1.271583859,-1.845557352,-1.678320233,-0.222478215,4.58546782e-314,-0.278766457,-1.075940923,1.271583859,-1.845557352,-1.678320233,-0.222478215,0,-0.1194,-0.5706,0.221,0.02703,0.00069,0.00806,,,,,,,,,,,,,,,,,
2025-09-12T21:32:02.258486,-0.278861825,-1.070285158,1.266622845,-1.845930716,-1.678201977,-0.222895924,4.5854678e-316,-0.278861825,-1.070285158,1.266622845,-1.845930716,-1.678201977,-0.222895924,0,-0.1394,-0.3706,0.121,0.02103,-0.00231,0.00906,,,,,,,,,,,,,,,,,
2025-09-12T21:32:02.306497,-0.278935258,-1.064428167,1.261417691,-1.846411844,-1.678154771,-0.223277394,4.58547e-318,-0.278935258,-1.064428167,1.261417691,-1.846411844,-1.678154771,-0.223277394,0,-0.0594,-0.2506,0.301,0.01503,0.00169,0.01206,,,,,,,,,,,,,,,,,
2025-09-12T21:32:02.354552,-0.27928621,-1.058307962,1.255935971,-1.847281118,-1.678107087,-0.223468129,4.5854e-320,-0.27928621,-1.058307962,1.255935971,-1.847281118,-1.678107087,-0.223468129,0,-0.1394,-0.3906,0.241,0.02503,0.00569,0.01106,,,,,,,,,,,,,,,,,
2025-09-12T21:32:02.402558,-0.27964193,-1.051887826,1.250242535,-1.848966738,-1.678131406,-0.223623101,4.6e-322,-0.27964193,-1.051887826,1.250242535,-1.848966738,-1.678131406,-0.223623101,0,-0.0194,-0.7706,0.401,0.05003,0.01469,0.01006,,,,,,,,,,,,,,,,,
2025-09-12T21:32:02.450618,-0.279676739,-1.045355157,1.244472806,-1.852400442,-1.678263489,-0.223741833,5e-324,-0.279676739,-1.045355157,1.244472806,-1.852400442,-1.678263489,-0.223741833,0,0.0206,-0.5906,0.381,0.03903,0.01569,0.00906,,,,,,,,,,,,,,,,,
2025-09-12T21:32:02.498655,-0.279772584,-1.039336519,1.238889996,-1.856202265,-1.678359334,-0.223778073,0,-0.279772584,-1.039336519,1.238889996,-1.856202265,-1.678359334,-0.223778073,0,-0.3394,-0.5906,0.401,0.03503,-0.00331,0.01206,,,,,,,,,,,,,,,,,
2025-09-12T21:32:02.546672,-0.279795949,-1.033735113,1.233372037,-1.859602114,-1.67835838,-0.223849599,0,-0.279795949,-1.033735113,1.233372037,-1.859602114,-1.67835838,-0.223849599,0,0.0206,-0.3706,0.201,0.01603,0.00069,0.01306,,,,,,,,,,,,,,,,,
2025-09-12T21:32:02.594767,-0.279759709,-1.028570012,1.228174512,-1.862421652,-1.67835838,-0.223886792,0,-0.279759709,-1.028570012,1.228174512,-1.862421652,-1.67835838,-0.223886792,0,-0.2194,0.0894,0.141,-0.01097,-0.01031,0.01206,,,,,,,,,,,,,,,,,
2025-09-12T21:32:02.642749,-0.279687707,-1.023935155,1.223591153,-1.864675184,-1.678382222,-0.224126641,0,-0.279687707,-1.023935155,1.223591153,-1.864675184,-1.678382222,-0.224126641,0,-0.2194,0.2894,0.161,-0.02297,-0.01031,0.01306,,,,,,,,,,,,,,,,,
2025-09-12T21:32:02.690771,-0.279639546,-1.020138101,1.219755475,-1.865988394,-1.67832071,-0.224388425,0,-0.279639546,-1.020138101,1.219755475,-1.865988394,-1.67832071,-0.224388425,0,-0.0194,-0.4906,0.261,0.02803,0.00469,0.01206,,,,,,,,,,,,,,,,,
2025-09-12T21:32:02.738812,-0.279555623,-1.016478376,1.21587402,-1.867459913,-1.678068463,-0.22442371,0,-0.279555623,-1.016478376,1.21587402,-1.867459913,-1.678068463,-0.22442371,0,-0.1794,-0.2306,0.041,0.01603,-0.00031,0.01406,,,,,,,,,,,,,,,,,
2025-09-12T21:32:02.786821,-0.279495541,-1.012942628,1.212486569,-1.868162294,-1.677817647,-0.224399869,0,-0.279495541,-1.012942628,1.212486569,-1.868162294,-1.677817647,-0.224399869,0,-0.1794,-0.2706,0.081,0.02503,0.00569,0.01206,,,,,,,,,,,,,,,,,
2025-09-12T21:32:02.834808,-0.279410187,-1.009926156,1.209856335,-1.86861672,-1.677591149,-0.224372689,0,-0.279410187,-1.009926156,1.209856335,-1.86861672,-1.677591149,-0.224372689,0,-0.0994,-0.4106,0.421,0.02703,0.00469,0.01406,,,,,,,,,,,,,,,,,
2025-09-12T21:32:02.882881,-0.279049699,-1.007517175,1.207668606,-1.869169851,-1.677340809,-0.22402269,0,-0.279049699,-1.007517175,1.207668606,-1.869169851,-1.677340809,-0.22402269,0,0.0406,-0.3506,-0.179,0.02203,0.01069,0.01306,,,,,,,,,,,,,,,,,
2025-09-12T21:32:02.930905,-0.278666321,-1.00482829,1.206043545,-1.869829794,-1.677150075,-0.223434273,0,-0.278666321,-1.00482829,1.206043545,-1.869829794,-1.677150075,-0.223434273,0,0.0006,-0.4306,0.201,0.02203,0.00269,0.01306,,,,,,,,,,,,,,,,,
2025-09-12T21:32:02.978993,-0.278401677,-1.002478914,1.204981152,-1.870354792,-1.677031342,-0.222582642,0,-0.278401677,-1.002478914,1.204981152,-1.870354792,-1.677031342,-0.222582642,0,-0.2394,-0.3306,-0.039,0.02203,-0.00131,0.01306,,,,,,,,,,,,,,,,,
2025-09-12T21:32:03.026945,-0.27802879,-1.000232534,1.204275433,-1.870579382,-1.67687637,-0.221840684,0,-0.27802879,-1.000232534,1.204275433,-1.870579382,-1.67687637,-0.221840684,0,0.0406,-0.6306,0.141,0.03103,0.01269,0.01206,,,,,,,,,,,,,,,,,
2025-09-12T21:32:03.074963,-0.277476613,-0.997577505,1.203785245,-1.87102141,-1.67684013,-0.220940892,0,-0.277476613,-0.997577505,1.203785245,-1.87102141,-1.67684013,-0.220940892,0,-0.1394,-0.7306,0.101,0.04103,0.00069,0.01306,,,,,,,,,,,,,,,,,
2025-09-12T21:32:03.123007,-0.2766946,-0.994477586,1.203001324,-1.872421404,-1.676478211,-0.219717328,0,-0.2766946,-0.994477586,1.203001324,-1.872421404,-1.676478211,-0.219717328,0,0.0406,-0.6906,0.121,0.04503,0.00869,0.01106,,,,,,,,,,,,,,,,,
2025-09-12T21:32:03.171004,-0.275880162,-0.990887479,1.202003781,-1.875233313,-1.675989453,-0.218666855,0,-0.275880162,-0.990887479,1.202003781,-1.875233313,-1.675989453,-0.218666855,0,-0.1994,-0.1306,0.061,0.00103,-0.00531,0.01306,,,,,,,,,,,,,,,,,
2025-09-12T21:32:03.219017,-0.274992291,-0.986896829,1.200607602,-1.878320356,-1.675681416,-0.217710797,0,-0.274992291,-0.986896829,1.200607602,-1.878320356,-1.675681416,-0.217710797,0,-0.0194,-0.0306,0.121,0.00103,0.00869,0.01406,,,,,,,,,,,,,,,,,
2025-09-12T21:32:03.267081,-0.274190728,-0.982659177,1.198547665,-1.881187101,-1.675503079,-0.216874425,0,-0.274190728,-0.982659177,1.198547665,-1.881187101,-1.675503079,-0.216874425,0,0.0806,-0.6506,0.061,0.04103,-0.00431,0.01406,,,,,,,,,,,,,,,,,
2025-09-12T21:32:03.315116,-0.273326699,-0.977879838,1.195720975,-1.883331915,-1.67534763,-0.216289822,0,-0.273326699,-0.977879838,1.195720975,-1.883331915,-1.67534763,-0.216289822,0,0.1606,-0.7106,0.181,0.04803,0.01269,0.01106,,,,,,,,,,,,,,,,,
2025-09-12T21:32:03.363124,-0.272477929,-0.972722844,1.192335431,-1.885520597,-1.675277535,-0.215825383,0,-0.272477929,-0.972722844,1.192335431,-1.885520597,-1.675277535,-0.215825383,0,-0.2194,-0.1506,-0.099,0.00903,-0.00231,0.01606,,,,,,,,,,,,,,,,,
2025-09-12T21:32:03.411139,-0.271666352,-0.967356042,1.188795392,-1.886744162,-1.67520601,-0.215551201,0,-0.271666352,-0.967356042,1.188795392,-1.886744162,-1.67520601,-0.215551201,0,-0.0194,-0.3706,0.421,0.02203,0.01169,0.01406,,,,,,,,,,,,,,,,,
2025-09-12T21:32:03.459191,-0.271153752,-0.962239103,1.185190503,-1.888349672,-1.675158326,-0.215359513,0,-0.271153752,-0.962239103,1.185190503,-1.888349672,-1.675158326,-0.215359513,0,-0.0794,-0.0906,-0.119,0.00503,-0.00431,0.01406,,,,,,,,,,,,,,,,,
2025-09-12T21:32:03.507207,-0.270845238,-0.957250432,1.181894604,-1.889041086,-1.675120656,-0.215205971,0,-0.270845238,-0.957250432,1.181894604,-1.889041086,-1.675120656,-0.215205971,0,-0.0594,-0.4906,0.381,0.02603,-0.00531,0.01506,,,,,,,,,,,,,,,,,
2025-09-12T21:32:03.555259,-0.270689789,-0.952874975,1.179022137,-1.889935156,-1.674892728,-0.215218369,0,-0.270689789,-0.952874975,1.179022137,-1.889935156,-1.674892728,-0.215218369,0,0.0206,-0.4706,0.061,0.03003,0.00369,0.01406,,,,,,,,,,,,,,,,,
2025-09-12T21:32:03.603316,-0.270557229,-0.948925809,1.176628415,-1.892215868,-1.674642865,-0.215194527,0,-0.270557229,-0.948925809,1.176628415,-1.892215868,-1.674642865,-0.215194527,0,-0.2194,-0.0906,0.041,0.00403,-0.00331,0.01406,,,,,,,,,,,,,,,,,
2025-09-12T21:32:03.651315,-0.270088021,-0.945132093,1.174858395,-1.895113607,-1.674354378,-0.215157811,0,-0.270088021,-0.945132093,1.174858395,-1.895113607,-1.674354378,-0.215157811,0,-0.0994,-0.6106,0.221,0.04603,0.00469,0.01606,,,,,,,,,,,,,,,,,
2025-09-12T21:32:03.699343,-0.269672219,-0.941531972,1.173507992,-1.898709913,-1.673875157,-0.215085808,0,-0.269672219,-0.941531972,1.173507992,-1.898709913,-1.673875157,-0.215085808,0,0.1006,-0.5306,0.161,0.04903,0.01669,0.01406,,,,,,,,,,,,,,,,,
2025-09-12T21:32:03.747390,-0.26963884,-0.938110189,1.172622983,-1.902186056,-1.67327768,-0.215014283,0,-0.26963884,-0.938110189,1.172622983,-1.902186056,-1.67327768,-0.215014283,0,0.0206,-0.5106,-0.039,0.03203,0.00669,0.01706,,,,,,,,,,,,,,,,,
2025-09-12T21:32:03.795352,-0.269650761,-0.934952096,1.171919171,-1.904961725,-1.672656361,-0.214918439,0,-0.269650761,-0.934952096,1.171919171,-1.904961725,-1.672656361,-0.214918439,0,0.1806,-0.8106,0.101,0.05403,0.02669,0.01406,,,,,,,,,,,,,,,,,
2025-09-12T21:32:03.843383,-0.269686524,-0.932326154,1.171453778,-1.907153269,-1.67203695,-0.214882676,0,-0.269686524,-0.932326154,1.171453778,-1.907153269,-1.67203695,-0.214882676,0,-0.0394,-0.4106,-0.119,0.03403,0.01169,0.01506,,,,,,,,,,,,,,,,,
2025-09-12T21:32:03.891446,-0.269662682,-0.929968671,1.171491925,-1.909058233,-1.671609227,-0.214846913,0,-0.269662682,-0.929968671,1.171491925,-1.909058233,-1.671609227,-0.214846913,0,-0.0794,-0.2906,0.141,0.02303,0.00469,0.01606,,,,,,,,,,,,,,,,,
2025-09-12T21:32:03.939430,-0.269698445,-0.928109483,1.171503369,-1.910071512,-1.671323601,-0.214835469,0,-0.269698445,-0.928109483,1.171503369,-1.910071512,-1.671323601,-0.214835469,0,-0.1194,-0.3706,0.321,0.02403,0.00869,0.01406,,,,,,,,,,,,,,,,,
2025-09-12T21:32:03.987549,-0.26979572,-0.926785783,1.171503369,-1.910911699,-1.671144787,-0.21481115,0,-0.26979572,-0.926785783,1.171503369,-1.910911699,-1.671144787,-0.21481115,0,-0.0394,-0.3306,0.141,0.01903,0.00369,0.01606,,,,,,,,,,,,,,,,,
2025-09-12T21:32:04.035541,-0.270026509,-0.925892667,1.17155296,-1.91172423,-1.670978371,-0.214948479,0,-0.270026509,-0.925892667,1.17155296,-1.91172423,-1.670978371,-0.214948479,0,-0.0794,-0.2506,0.261,0.01903,0.00669,0.01406,,,,,,,,,,,,,,,,,
2025-09-12T21:32:04.083560,-0.270602528,-0.925612764,1.171602551,-1.912045141,-1.670835797,-0.215539281,0,-0.270602528,-0.925612764,1.171602551,-1.912045141,-1.670835797,-0.215539281,0,-0.2594,-0.2506,0.421,0.01103,0.00269,0.01506,,,,,,,,,,,,,,,,,
2025-09-12T21:32:04.131586,-0.271189038,-0.926087694,1.171943967,-1.912286421,-1.670751874,-0.216720406,0,-0.271189038,-0.926087694,1.171943967,-1.912286421,-1.670751874,-0.216720406,0,-0.0394,-0.2706,0.241,0.01403,0.00769,0.01606,,,,,,,,,,,,,,,,,
2025-09-12T21:32:04.179647,-0.271958176,-0.927230195,1.17284805,-1.912694117,-1.67061979,-0.218250577,0,-0.271958176,-0.927230195,1.17284805,-1.912694117,-1.67061979,-0.218250577,0,-0.1594,-0.2706,0.181,0.01803,-0.00231,0.01506,,,,,,,,,,,,,,,,,
2025-09-12T21:32:04.211608,-0.272941415,-0.928706006,1.174097363,-1.912980696,-1.670392338,-0.219712083,0,-0.272941415,-0.928706006,1.174097363,-1.912980696,-1.670392338,-0.219712083,0,0.0806,-0.3106,0.341,0.02003,0.01169,0.01406,,,,,,,,,,,,,,,,,
2025-09-12T21:32:04.259685,-0.273770157,-0.929905252,1.175009076,-1.91319718,-1.670201604,-0.220715825,0,-0.273770157,-0.929905252,1.175009076,-1.91319718,-1.670201604,-0.220715825,0,-0.0194,-0.3906,0.081,0.02803,0.00069,0.01506,,,,,,,,,,,,,,,,,
2025-09-12T21:32:04.291735,-0.275209252,-0.931905584,1.176206891,-1.913568636,-1.669998471,-0.221728627,0,-0.275209252,-0.931905584,1.176206891,-1.913568636,-1.669998471,-0.221728627,0,-0.1194,-0.4906,0.181,0.03103,0.00169,0.01606,,,,,,,,,,,,,,,,,
2025-09-12T21:32:04.323777,-0.276281182,-0.933135824,1.176775281,-1.913650652,-1.669797722,-0.222485844,0,-0.276281182,-0.933135824,1.176775281,-1.913650652,-1.669797722,-0.222485844,0,0.3206,-0.3506,0.141,0.02503,0.02169,0.01606,,,,,,,,,,,,,,,,,
2025-09-12T21:32:04.355754,-0.277862851,-0.934149103,1.176716153,-1.913697859,-1.669898812,-0.223387067,0,-0.277862851,-0.934149103,1.176716153,-1.913697859,-1.669898812,-0.223387067,0,0.5006,-0.4106,0.061,0.02803,0.03669,0.01506,,,,,,,,,,,,,,,,,
2025-09-12T21:32:04.387811,-0.280340497,-0.934935884,1.176136319,-1.91370978,-1.670235459,-0.224353615,0,-0.280340497,-0.934935884,1.176136319,-1.91370978,-1.670235459,-0.224353615,0,0.0406,-0.4106,-0.019,0.02303,0.01769,0.01806,,,,,,,,,,,,,,,,,
2025-09-12T21:32:04.435852,-0.283293072,-0.935458021,1.175535504,-1.913672586,-1.670749966,-0.225153271,0,-0.283293072,-0.935458021,1.175535504,-1.913672586,-1.670749966,-0.225153271,0,0.0006,-0.3906,0.001,0.02403,0.00569,0.01906,,,,,,,,,,,,,,,,,
2025-09-12T21:32:04.467787,-0.287426297,-0.935716943,1.174526517,-1.913564821,-1.671698395,-0.226072613,0,-0.287426297,-0.935716943,1.174526517,-1.913564821,-1.671698395,-0.226072613,0,-0.4994,-0.3906,0.121,0.02503,-0.01731,0.01806,,,,,,,,,,,,,,,,,
2025-09-12T21:32:04.499788,-0.290094201,-0.935811357,1.173868481,-1.913431784,-1.67249519,-0.226646248,0,-0.290094201,-0.935811357,1.173868481,-1.913431784,-1.67249519,-0.226646248,0,-0.0594,-0.4706,0.081,0.02703,0.00369,0.01506,,,,,,,,,,,,,,,,,
2025-09-12T21:32:04.531857,-0.292427365,-0.935761766,1.173235242,-1.913324495,-1.673089806,-0.227074925,0,-0.292427365,-0.935761766,1.173235242,-1.913324495,-1.673089806,-0.227074925,0,-0.3394,-0.3306,0.061,0.02003,-0.01031,0.01606,,,,,,,,,,,,,,,,,
2025-09-12T21:32:04.579875,-0.294497315,-0.935714559,1.172842328,-1.913228174,-1.673518483,-0.227360074,0,-0.294497315,-0.935714559,1.172842328,-1.913228174,-1.673518483,-0.227360074,0,-0.1194,-0.3106,0.081,0.02503,0.00369,0.01606,,,,,,,,,,,,,,,,,
2025-09-12T21:32:04.611910,-0.297506634,-0.935544805,1.172741238,-1.913120409,-1.674258534,-0.22769386,0,-0.297506634,-0.935544805,1.172741238,-1.913120409,-1.674258534,-0.22769386,0,-0.1194,-0.4506,0.101,0.02503,-0.00431,0.01606,,,,,,,,,,,,,,,,,
2025-09-12T21:32:04.643915,-0.299655739,-0.935388402,1.172863309,-1.913085123,-1.67462856,-0.227849785,0,-0.299655739,-0.935388402,1.172863309,-1.913085123,-1.67462856,-0.227849785,0,0.1406,-0.3306,0.021,0.02203,0.01869,0.01606,,,,,,,,,,,,,,,,,
2025-09-12T21:32:04.675924,-0.302095715,-0.935110883,1.173019711,-1.913013121,-1.675154511,-0.227944676,0,-0.302095715,-0.935110883,1.173019711,-1.913013121,-1.675154511,-0.227944676,0,-0.0994,-0.3106,0.021,0.01903,0.00469,0.01706,,,,,,,,,,,,,,,,,
2025-09-12T21:32:04.707871,-0.304840867,-0.934666471,1.173294369,-1.9130012,-1.675556962,-0.228075806,0,-0.304840867,-0.934666471,1.173294369,-1.9130012,-1.675556962,-0.228075806,0,0.0006,-0.4506,0.281,0.02703,0.01469,0.01806,,,,,,,,,,,,,,,,,
2025-09-12T21:32:04.739937,-0.307425801,-0.934235887,1.173401181,-1.913001677,-1.675818268,-0.228183571,0,-0.307425801,-0.934235887,1.173401181,-1.913001677,-1.675818268,-0.228183571,0,-0.2794,-0.2506,0.241,0.02103,-0.00631,0.01806,,,,,,,,,,,,,,,,,
2025-09-12T21:32:04.771963,-0.309784238,-0.933817224,1.173363034,-1.912941595,-1.675948922,-0.228254143,0,-0.309784238,-0.933817224,1.173363034,-1.912941595,-1.675948922,-0.228254143,0,-0.0994,-0.4506,0.201,0.02403,0.00769,0.01606,,,,,,,,,,,,,,,,,
2025-09-12T21:32:04.803949,-0.312069718,-0.933363275,1.173437421,-1.912965437,-1.676065747,-0.228242222,0,-0.312069718,-0.933363275,1.173437421,-1.912965437,-1.676065747,-0.228242222,0,-0.4394,-0.2106,0.221,0.01803,-0.02331,0.01506,,,,,,,,,,,,,,,,,
2025-09-12T21:32:04.835988,-0.313910309,-0.933214025,1.173767392,-1.912905355,-1.675951783,-0.228230302,0,-0.313910309,-0.933214025,1.173767392,-1.912905355,-1.675951783,-0.228230302,0,-0.1394,-0.3706,0.341,0.02303,-0.01031,0.01406,,,,,,,,,,,,,,,,,
2025-09-12T21:32:04.868058,-0.315465752,-0.933460073,1.174381558,-1.912941595,-1.675496403,-0.228254143,0,-0.315465752,-0.933460073,1.174381558,-1.912941595,-1.675496403,-0.228254143,0,-0.1594,-0.2306,0.341,0.01303,-0.00031,0.01206,,,,,,,,,,,,,,,,,
2025-09-12T21:32:04.916001,-0.316935364,-0.934062318,1.17507774,-1.912879606,-1.674846474,-0.228266541,0,-0.316935364,-0.934062318,1.17507774,-1.912879606,-1.674846474,-0.228266541,0,-0.3594,-0.4306,0.241,0.02603,-0.01331,0.01206,,,,,,,,,,,,,,,,,
2025-09-12T21:32:04.948065,-0.318462674,-0.935253934,1.176145856,-1.912698885,-1.673532311,-0.228361909,0,-0.318462674,-0.935253934,1.176145856,-1.912698885,-1.673532311,-0.228361909,0,-0.2194,-0.3906,0.341,0.02103,-0.00231,0.01406,,,,,,,,,,,,,,,,,
2025-09-12T21:32:04.980052,-0.319227997,-0.936568097,1.1767543,-1.912531515,-1.672625367,-0.228288953,0,-0.319227997,-0.936568097,1.1767543,-1.912531515,-1.672625367,-0.228288953,0,-0.2394,-0.3706,0.481,0.02703,-0.00231,0.01306,,,,,,,,,,,,,,,,,
2025-09-12T21:32:05.012083,-0.319800679,-0.9384311,1.177244488,-1.912325998,-1.671729867,-0.228227917,0,-0.319800679,-0.9384311,1.177244488,-1.912325998,-1.671729867,-0.228227917,0,-0.1394,-0.2106,0.321,0.01603,0.00569,0.01506,,,,,,,,,,,,,,,,,
2025-09-12T21:32:05.044125,-0.320241753,-0.940818147,1.177688901,-1.911999365,-1.670969788,-0.22804815,0,-0.320241753,-0.940818147,1.177688901,-1.911999365,-1.670969788,-0.22804815,0,-0.1994,-0.4306,0.201,0.02803,0.00669,0.01606,,,,,,,,,,,,,,,,,
2025-09-12T21:32:05.076168,-0.320488755,-0.94337161,1.178083722,-1.911601683,-1.67047054,-0.227863614,0,-0.320488755,-0.94337161,1.178083722,-1.911601683,-1.67047054,-0.227863614,0,-0.3794,-0.2506,0.081,0.01503,-0.01631,0.01406,,,,,,,,,,,,,,,,,
2025-09-12T21:32:05.108158,-0.320411507,-0.946081476,1.178602521,-1.91083016,-1.66992027,-0.227454011,0,-0.320411507,-0.946081476,1.178602521,-1.91083016,-1.66992027,-0.227454011,0,-0.2994,-0.4706,0.361,0.03203,-0.00431,0.01106,,,,,,,,,,,,,,,,,
2025-09-12T21:32:05.140192,-0.319889847,-0.949014501,1.179144208,-1.910209795,-1.669259373,-0.226586167,0,-0.319889847,-0.949014501,1.179144208,-1.910209795,-1.669259373,-0.226586167,0,-0.4794,-0.1306,0.161,0.00703,-0.02031,0.01306,,,,,,,,,,,,,,,,,
2025-09-12T21:32:05.172148,-0.319022004,-0.952291803,1.180061642,-1.909585138,-1.668201749,-0.225628201,0,-0.319022004,-0.952291803,1.180061642,-1.909585138,-1.668201749,-0.225628201,0,-0.3794,-0.4906,0.401,0.02703,-0.00831,0.01106,,,,,,,,,,,,,,,,,
2025-09-12T21:32:05.220183,-0.317904774,-0.956008748,1.181410138,-1.908936163,-1.666641061,-0.2244404,0,-0.317904774,-0.956008748,1.181410138,-1.908936163,-1.666641061,-0.2244404,0,-0.4194,-0.1906,0.221,0.01303,-0.01531,0.01106,,,,,,,,,,,,,,,,,
2025-09-12T21:32:05.252233,-0.316180054,-0.962225751,1.183996503,-1.907687803,-1.663271252,-0.222512547,0,-0.316180054,-0.962225751,1.183996503,-1.907687803,-1.663271252,-0.222512547,0,-0.2394,-0.3106,-0.019,0.01603,-0.00631,0.00806,,,,,,,,,,,,,,,,,
2025-09-12T21:32:05.284239,-0.315062348,-0.966500596,1.185951535,-1.907030722,-1.660403077,-0.221413914,0,-0.315062348,-0.966500596,1.185951535,-1.907030722,-1.660403077,-0.221413914,0,-0.4594,-0.7706,0.341,0.04203,-0.02331,0.01006,,,,,,,,,,,,,,,,,
2025-09-12T21:32:05.316259,-0.31351978,-0.970774488,1.187757794,-1.906565329,-1.656576459,-0.220027272,0,-0.31351978,-0.970774488,1.187757794,-1.906565329,-1.656576459,-0.220027272,0,-0.4394,-0.5106,0.261,0.02503,-0.01531,0.00806,,,,,,,,,,,,,,,,,
2025-09-12T21:32:05.348274,-0.311439339,-0.975033121,1.189268414,-1.906192919,-1.652830426,-0.218488995,0,-0.311439339,-0.975033121,1.189268414,-1.906192919,-1.652830426,-0.218488995,0,-0.5794,-0.4506,-0.219,0.02603,-0.02431,0.00606,,,,,,,,,,,,,,,,,
2025-09-12T21:32:05.380333,-0.308939759,-0.978755788,1.190679852,-1.905724665,-1.648967091,-0.217112843,0,-0.308939759,-0.978755788,1.190679852,-1.905724665,-1.648967091,-0.217112843,0,-0.4194,-0.6906,-0.019,0.03403,-0.01031,0.00506,,,,,,,,,,,,,,,,,
2025-09-12T21:32:05.428361,-0.30519468,-0.982620077,1.192207638,-1.905221602,-1.644712273,-0.215586011,0,-0.30519468,-0.982620077,1.192207638,-1.905221602,-1.644712273,-0.215586011,0,-0.0594,-0.6306,0.041,0.03003,0.00669,0.00606,,,,,,,,,,,,,,,,,
2025-09-12T21:32:05.460338,-0.301274125,-0.985801534,1.193224255,-1.904768606,-1.641479317,-0.214522664,0,-0.301274125,-0.985801534,1.193224255,-1.904768606,-1.641479317,-0.214522664,0,-0.6594,-0.6106,-0.159,0.03403,-0.02231,0.00706,,,,,,,,,,,,,,,,,
2025-09-12T21:32:05.492380,-0.298232381,-0.987810926,1.19395477,-1.904492041,-1.638887707,-0.213548962,0,-0.298232381,-0.987810926,1.19395477,-1.904492041,-1.638887707,-0.213548962,0,-0.0994,-0.6306,-0.059,0.02403,0.01269,0.00306,,,,,,,,,,,,,,,,,
2025-09-12T21:32:05.524377,-0.295247857,-0.989350156,1.194736783,-1.904314657,-1.636688058,-0.21238691,0,-0.295247857,-0.989350156,1.194736783,-1.904314657,-1.636688058,-0.21238691,0,-0.2594,-0.4906,-0.099,0.02203,0.00169,0.00606,,,,,,,,,,,,,,,,,
2025-09-12T21:32:05.556409,-0.292434518,-0.990410165,1.195480649,-1.904206415,-1.635176961,-0.211171452,0,-0.292434518,-0.990410165,1.195480649,-1.904206415,-1.635176961,-0.211171452,0,-0.5194,-0.7106,-0.219,0.04103,-0.02031,0.00506,,,,,,,,,,,,,,,,,
2025-09-12T21:32:05.588433,-0.289836709,-0.990868883,1.196234051,-1.904100081,-1.633650128,-0.209136788,0,-0.289836709,-0.990868883,1.196234051,-1.904100081,-1.633650128,-0.209136788,0,-0.3794,-0.6506,0.001,0.03703,-0.00531,0.00606,,,,,,,,,,,,,,,,,
2025-09-12T21:32:05.620478,-0.287357632,-0.990766363,1.196903531,-1.904076716,-1.632168595,-0.207020108,0,-0.287357632,-0.990766363,1.196903531,-1.904076716,-1.632168595,-0.207020108,0,-0.3994,-0.7106,0.141,0.03503,-0.01231,0.00306,,,,,,,,,,,,,,,,,
2025-09-12T21:32:05.652579,-0.285243336,-0.990426378,1.197380368,-1.904138228,-1.630791489,-0.20422918,0,-0.285243336,-0.990426378,1.197380368,-1.904138228,-1.630791489,-0.20422918,0,-0.1194,-0.6106,0.021,0.03503,-0.00131,0.00406,,,,,,,,,,,,,,,,,
2025-09-12T21:32:05.700499,-0.283294026,-0.989753084,1.197614972,-1.904283186,-1.629564587,-0.201419179,0,-0.283294026,-0.989753084,1.197614972,-1.904283186,-1.629564587,-0.201419179,0,-0.3594,-0.6106,0.121,0.03503,-0.00931,0.00606,,,,,,,,,,,,,,,,,
2025-09-12T21:32:05.748539,-0.281153981,-0.98891242,1.197710339,-1.904511591,-1.628404919,-0.198738877,0,-0.281153981,-0.98891242,1.197710339,-1.904511591,-1.628404919,-0.198738877,0,-0.2994,-0.6306,0.001,0.03203,-0.00331,0.00506,,,,,,,,,,,,,,,,,
2025-09-12T21:32:05.796627,-0.279530827,-0.987964944,1.197710339,-1.904740473,-1.627207104,-0.196231667,0,-0.279530827,-0.987964944,1.197710339,-1.904740473,-1.627207104,-0.196231667,0,-0.2994,-0.7106,0.161,0.04103,-0.01031,0.00506,,,,,,,,,,,,,,,,,
2025-09-12T21:32:05.828618,-0.278394524,-0.987162427,1.197758023,-1.905136248,-1.626349274,-0.195146386,0,-0.278394524,-0.987162427,1.197758023,-1.905136248,-1.626349274,-0.195146386,0,-0.3994,-0.5306,0.001,0.03303,-0.02631,0.00506,,,,,,,,,,,,,,,,,
2025-09-12T21:32:05.860600,-0.277711693,-0.98668559,1.197845761,-1.905327459,-1.625955884,-0.195303742,0,-0.277711693,-0.98668559,1.197845761,-1.905327459,-1.625955884,-0.195303742,0,-0.4994,-0.6106,0.321,0.03303,-0.01231,0.00306,,,,,,,,,,,,,,,,,
2025-09-12T21:32:05.892736,-0.277066056,-0.986461,1.198086087,-1.905507704,-1.6256097,-0.19594032,0,-0.277066056,-0.986461,1.198086087,-1.905507704,-1.6256097,-0.19594032,0,-0.3794,-0.5706,0.101,0.03303,-0.01431,0.00406,,,,,,,,,,,,,,,,,
2025-09-12T21:32:05.924630,-0.276515309,-0.986474351,1.198301617,-1.905687471,-1.625393693,-0.196924512,0,-0.276515309,-0.986474351,1.198301617,-1.905687471,-1.625393693,-0.196924512,0,-0.5394,-0.6106,0.201,0.03603,-0.02631,0.00306,,,,,,,,,,,,,,,,,
2025-09-12T21:32:05.956633,-0.27597696,-0.98646243,1.198456113,-1.905903002,-1.625034157,-0.198061291,0,-0.27597696,-0.98646243,1.198456113,-1.905903002,-1.625034157,-0.198061291,0,-0.5594,-0.6706,0.181,0.03303,-0.01431,0.00406,,,,,,,,,,,,,,,,,
2025-09-12T21:32:05.988653,-0.275497739,-0.986438589,1.198610608,-1.905996939,-1.624710385,-0.199355904,0,-0.275497739,-0.986438589,1.198610608,-1.905996939,-1.624710385,-0.199355904,0,-0.5194,-0.6106,0.081,0.03003,-0.02131,0.00506,,,,,,,,,,,,,,,,,
2025-09-12T21:32:06.020674,-0.274967972,-0.986402349,1.198707883,-1.905984064,-1.624398057,-0.200567547,0,-0.274967972,-0.986402349,1.198707883,-1.905984064,-1.624398057,-0.200567547,0,-0.5394,-0.6306,0.161,0.03403,-0.02531,0.00506,,,,,,,,,,,,,,,,,
2025-09-12T21:32:06.052729,-0.274222199,-0.986390428,1.198862378,-1.906032225,-1.624014203,-0.201464001,0,-0.274222199,-0.986390428,1.198862378,-1.906032225,-1.624014203,-0.201464001,0,-0.5794,-0.5906,0.161,0.03303,-0.02831,0.00506,,,,,,,,,,,,,,,,,
2025-09-12T21:32:06.084731,-0.273333375,-0.986365632,1.198973004,-1.905995508,-1.623583619,-0.202470605,0,-0.273333375,-0.986365632,1.198973004,-1.905995508,-1.623583619,-0.202470605,0,-0.5594,-0.5706,-0.099,0.03203,-0.02731,0.00506,,,,,,,,,,,,,,,,,
2025-09-12T21:32:06.116776,-0.272315804,-0.986231164,1.199240033,-1.905935904,-1.623212639,-0.203481976,0,-0.272315804,-0.986231164,1.199240033,-1.905935904,-1.623212639,-0.203481976,0,-0.5394,-0.5506,-0.019,0.02903,-0.01931,0.00406,,,,,,,,,,,,,,,,,
2025-09-12T21:32:06.148771,-0.271347825,-0.985918836,1.199770276,-1.905959745,-1.622914616,-0.204255406,0,-0.271347825,-0.985918836,1.199770276,-1.905959745,-1.622914616,-0.204255406,0,-0.4194,-0.5906,0.121,0.03403,-0.01131,0.00506,,,,,,,,,,,,,,,,,
2025-09-12T21:32:06.180769,-0.270452801,-0.985774831,1.200311963,-1.905948301,-1.622699563,-0.204828087,0,-0.270452801,-0.985774831,1.200311963,-1.905948301,-1.622699563,-0.204828087,0,-0.4194,-0.5506,-0.019,0.02803,-0.01631,0.00706,,,,,,,,,,,,,,,,,
2025-09-12T21:32:06.212829,-0.269772832,-0.985447721,1.201093976,-1.905999323,-1.622495953,-0.205292527,0,-0.269772832,-0.985447721,1.201093976,-1.905999323,-1.622495953,-0.205292527,0,-0.5594,-0.4906,-0.119,0.03103,-0.02131,0.00706,,,,,,,,,,,,,,,,,
2025-09-12T21:32:06.244830,-0.269224469,-0.984866456,1.202032391,-1.906240126,-1.622304742,-0.205685918,0,-0.269224469,-0.984866456,1.202032391,-1.906240126,-1.622304742,-0.205685918,0,-0.4194,-0.5706,-0.019,0.03703,-0.01631,0.00606,,,,,,,,,,,,,,,,,
2025-09-12T21:32:06.276828,-0.268759076,-0.983937101,1.203001324,-1.906482359,-1.622113053,-0.205995385,0,-0.268759076,-0.983937101,1.203001324,-1.906482359,-1.622113053,-0.205995385,0,-0.5994,-0.5906,-0.099,0.03303,-0.02631,0.00506,,,,,,,,,,,,,,,,,
2025-09-12T21:32:06.308808,-0.268376176,-0.982624368,1.203958813,-1.906879087,-1.621957127,-0.206221406,0,-0.268376176,-0.982624368,1.203958813,-1.906879087,-1.621957127,-0.206221406,0,-0.4394,-0.5706,-0.019,0.03603,-0.01931,0.00706,,,,,,,,,,,,,,,,,
2025-09-12T21:32:06.340855,-0.268030469,-0.980913953,1.204738919,-1.907410284,-1.621850793,-0.206388299,0,-0.268030469,-0.980913953,1.204738919,-1.907410284,-1.621850793,-0.206388299,0,-0.4394,-0.5906,-0.079,0.02703,-0.02131,0.00506,,,,,,,,,,,,,,,,,
2025-09-12T21:32:06.372903,-0.267853085,-0.978846387,1.205492322,-1.908218523,-1.621743027,-0.206604783,0,-0.267853085,-0.978846387,1.205492322,-1.908218523,-1.621743027,-0.206604783,0,-0.5194,-0.6506,0.221,0.03703,-0.01331,0.00606,,,,,,,,,,,,,,,,,
2025-09-12T21:32:06.404927,-0.267735306,-0.976656751,1.206026379,-1.909151217,-1.621647183,-0.20682985,0,-0.267735306,-0.976656751,1.206026379,-1.909151217,-1.621647183,-0.20682985,0,-0.4594,-0.4906,0.001,0.02703,-0.01831,0.00506,,,,,,,,,,,,,,,,,
